P3
# Created by GIMP version 3.2.2 PNM plug-in
320 256
255
51
68
119
51
68
119
51
119
170
51
68
119
51
68
119
51
119
170
51
119
170
51
68
119
51
68
119
51
68
119
51
68
119
51
119
170
51
119
170
85
238
238
51
119
170
51
68
119
51
68
119
51
68
119
51
119
170
51
68
119
51
68
119
51
119
170
51
119
170
51
68
119
51
68
119
51
68
119
51
68
119
51
119
170
51
119
170
85
238
238
51
119
170
51
68
119
51
68
119
51
68
119
51
119
170
51
68
119
51
68
119
51
119
170
51
119
170
51
68
119
51
68
119
51
68
119
51
68
119
51
119
170
51
119
170
51
119
170
51
119
170
51
68
119
119
170
51
119
170
51
119
170
51
119
170
51
119
170
51
119
170
51
119
170
51
119
170
51
119
170
51
119
170
51
119
170
51
119
170
51
119
170
51
119
170
51
119
170
51
119
170
51
119
170
51
119
170
51
119
170
51
119
170
51
119
170
51
119
170
51
119
170
51
119
170
51
119
170
51
119
170
51
119
170
51
119
170
51
119
170
51
119
170
51
119
170
51
119
170
51
119
170
51
119
170
51
119
170
51
119
170
51
119
170
51
119
170
51
119
170
51
119
170
51
119
170
51
119
170
51
119
170
51
119
170
51
119
170
51
119
170
51
119
170
51
119
170
51
119
170
51
119
170
51
119
170
51
119
170
51
119
170
51
119
170
51
119
170
51
119
170
51
187
119
85
119
170
51
119
170
51
119
170
51
119
170
51
119
170
51
119
170
51
119
170
51
119
170
51
119
170
51
119
170
51
119
170
51
119
170
51
119
170
51
119
170
51
119
170
51
119
170
51
187
119
85
119
170
51
119
170
51
119
170
51
119
170
51
119
170
51
119
170
51
119
170
51
119
170
51
119
170
51
51
119
68
119
170
51
119
170
51
119
170
51
119
170
51
119
170
51
187
119
85
119
170
51
119
170
51
119
170
51
187
119
85
119
170
51
119
170
51
238
204
153
187
119
85
51
119
68
238
204
153
187
119
85
119
170
51
119
170
51
238
204
153
187
119
85
119
170
51
119
170
51
238
204
153
119
170
51
119
170
51
238
204
153
238
204
153
119
170
51
238
204
153
238
204
153
119
170
51
119
170
51
238
204
153
187
119
85
119
170
51
238
204
153
187
119
85
238
204
153
119
170
51
238
204
153
187
119
85
238
204
153
119
170
51
119
170
51
119
170
51
238
204
153
238
204
153
119
170
51
238
204
153
238
204
153
238
204
153
119
170
51
119
170
51
119
170
51
187
119
85
238
204
153
119
170
51
119
170
51
119
170
51
119
170
51
119
170
51
119
170
51
119
170
51
187
119
85
119
170
51
119
170
51
187
119
85
187
119
85
119
170
51
119
170
51
119
170
51
119
170
51
187
119
85
187
119
85
119
170
51
119
170
51
119
170
51
119
170
51
187
119
85
119
170
51
119
170
51
119
170
51
187
119
85
119
170
51
119
170
51
187
119
85
119
170
51
238
204
153
119
170
51
119
170
51
119
170
51
119
170
51
119
170
51
119
170
51
119
170
51
119
170
51
187
119
85
187
119
85
119
170
51
119
170
51
187
119
85
187
119
85
187
119
85
187
119
85
119
170
51
119
170
51
119
170
51
119
170
51
119
170
51
119
170
51
119
170
51
119
170
51
119
170
51
119
170
51
119
170
51
119
170
51
119
170
51
119
170
51
119
170
51
119
170
51
119
170
51
119
170
51
119
170
51
119
170
51
119
170
51
119
170
51
119
170
51
119
170
51
119
170
51
119
170
51
119
170
51
119
170
51
119
170
51
119
170
51
119
170
51
119
170
51
119
170
51
119
170
51
119
170
51
119
170
51
119
170
51
119
170
51
119
170
51
119
170
51
119
170
51
119
170
51
119
170
51
119
170
51
119
170
51
119
170
51
119
170
51
119
170
51
119
170
51
119
170
51
119
170
51
51
68
119
51
68
119
119
170
51
119
170
51
119
170
51
119
170
51
51
68
119
51
68
119
119
170
51
119
170
51
51
68
119
51
68
119
119
170
51
51
119
68
119
170
51
51
119
68
119
170
51
119
170
51
51
68
119
119
170
51
119
170
51
119
170
51
119
170
51
119
170
51
51
68
119
51
68
119
119
170
51
119
170
51
119
170
51
51
68
119
119
170
51
119
170
51
51
68
119
51
68
119
51
68
119
51
119
170
51
119
170
51
119
170
51
68
119
51
68
119
51
68
119
51
68
119
51
68
119
51
68
119
51
68
119
51
119
170
51
68
119
51
68
119
51
68
119
51
68
119
51
68
119
51
119
170
51
119
170
51
119
170
51
68
119
51
68
119
51
68
119
51
68
119
51
68
119
51
68
119
51
68
119
51
119
170
51
68
119
51
68
119
51
68
119
51
68
119
51
68
119
51
119
170
51
119
170
51
119
170
51
68
119
51
68
119
51
68
119
51
68
119
51
68
119
51
68
119
51
68
119
34
204
221
51
68
119
51
68
119
119
170
51
51
119
68
119
170
51
119
170
51
119
170
51
119
170
51
119
170
51
119
170
51
119
170
51
119
170
51
119
170
51
119
170
51
119
170
51
119
170
51
119
170
51
119
170
51
119
170
51
119
170
51
119
170
51
119
170
51
119
170
51
119
170
51
119
170
51
119
170
51
119
170
51
119
170
51
187
221
68
119
170
51
119
170
51
119
170
51
119
170
51
119
170
51
119
170
51
119
170
51
119
170
51
119
170
51
119
170
51
119
170
51
119
170
51
119
170
51
119
170
51
119
170
51
119
170
51
119
170
51
187
221
68
119
170
51
119
170
51
119
170
51
119
170
51
119
170
51
187
119
85
153
85
85
119
170
51
119
170
51
119
170
51
119
170
51
119
170
51
51
119
68
187
119
85
51
119
68
68
85
85
187
119
85
119
170
51
119
170
51
119
170
51
119
170
51
119
170
51
119
170
51
51
119
68
119
170
51
119
170
51
51
119
68
187
119
85
119
170
51
187
221
68
119
170
51
119
170
51
119
170
51
119
170
51
119
170
51
119
170
51
51
119
68
51
119
68
68
85
85
119
170
51
119
170
51
119
170
51
119
170
51
187
119
85
119
170
51
187
221
68
119
170
51
187
221
68
51
119
68
187
119
85
119
170
51
187
119
85
238
204
153
238
204
153
238
204
153
119
170
51
238
204
153
119
170
51
187
119
85
187
119
85
119
170
51
238
204
153
187
119
85
238
204
153
238
204
153
187
119
85
238
204
153
119
170
51
187
119
85
238
204
153
238
204
153
238
204
153
119
170
51
119
170
51
238
204
153
238
204
153
238
204
153
238
204
153
187
119
85
238
204
153
238
204
153
238
204
153
119
170
51
119
170
51
238
204
153
238
204
153
187
119
85
187
119
85
238
204
153
187
119
85
238
204
153
238
204
153
238
204
153
187
119
85
187
119
85
238
204
153
119
170
51
238
204
153
119
170
51
119
170
51
187
119
85
119
170
51
187
119
85
187
119
85
187
119
85
187
119
85
187
119
85
119
170
51
187
119
85
187
119
85
187
119
85
187
119
85
187
119
85
187
119
85
119
170
51
119
170
51
187
119
85
187
119
85
187
119
85
187
119
85
119
170
51
187
119
85
119
170
51
187
119
85
187
119
85
119
170
51
119
170
51
119
170
51
119
170
51
187
119
85
187
119
85
119
170
51
187
119
85
119
170
51
119
170
51
187
119
85
51
119
68
187
119
85
51
119
68
187
119
85
119
170
51
187
119
85
238
153
102
119
170
51
187
119
85
187
119
85
119
170
51
51
119
68
119
170
51
51
119
68
119
170
51
51
119
68
51
119
68
119
170
51
119
170
51
119
170
51
119
170
51
119
170
51
119
170
51
119
170
51
119
170
51
119
170
51
119
170
51
119
170
51
119
170
51
119
170
51
119
170
51
119
170
51
119
170
51
119
170
51
119
170
51
119
170
51
119
170
51
119
170
51
119
170
51
119
170
51
119
170
51
119
170
51
119
170
51
119
170
51
119
170
51
119
170
51
119
170
51
119
170
51
119
170
51
119
170
51
119
170
51
119
170
51
119
170
51
51
51
51
119
170
51
51
51
51
119
170
51
119
170
51
119
170
51
51
68
119
119
170
51
119
170
51
119
170
51
51
68
119
119
170
51
51
68
119
51
68
119
51
119
170
119
170
51
119
170
51
51
119
170
51
119
170
119
170
51
51
119
68
119
170
51
119
170
51
51
68
119
51
68
119
51
68
119
119
170
51
51
119
170
119
170
51
51
119
68
51
68
119
51
119
68
51
119
170
119
170
51
119
170
51
51
68
119
51
68
119
119
170
51
51
68
119
51
68
119
51
68
119
51
68
119
51
68
119
51
119
170
51
68
119
51
68
119
51
68
119
51
68
119
51
68
119
51
68
119
51
68
119
51
68
119
51
119
170
51
68
119
51
68
119
51
68
119
51
68
119
51
68
119
51
68
119
51
119
170
51
68
119
51
68
119
51
68
119
51
68
119
51
68
119
51
68
119
51
68
119
51
68
119
51
119
170
51
68
119
51
68
119
51
68
119
51
68
119
51
68
119
51
68
119
51
119
170
51
68
119
51
68
119
51
68
119
51
68
119
51
68
119
51
68
119
51
68
119
51
68
119
51
119
170
51
68
119
119
170
51
51
119
68
119
170
51
51
119
68
119
170
51
119
170
51
119
170
51
119
170
51
119
170
51
119
170
51
119
170
51
119
170
51
119
170
51
119
170
51
119
170
51
119
170
51
119
170
51
119
170
51
119
170
51
119
170
51
119
170
51
119
170
51
51
119
68
119
170
51
187
221
68
119
170
51
187
221
68
119
170
51
119
170
51
187
221
68
119
170
51
119
170
51
119
170
51
119
170
51
119
170
51
119
170
51
119
170
51
119
170
51
119
170
51
119
170
51
119
170
51
119
170
51
187
221
68
119
170
51
187
221
68
51
119
68
119
170
51
119
170
51
119
170
51
119
170
51
153
85
85
119
170
51
119
170
51
187
119
85
119
170
51
187
221
68
119
170
51
119
170
51
51
119
68
68
85
85
119
170
51
187
119
85
119
170
51
119
170
51
119
170
51
187
119
85
119
170
51
119
170
51
119
170
51
51
119
68
187
119
85
51
119
68
119
170
51
119
170
51
51
119
68
119
170
51
119
170
51
119
170
51
119
170
51
119
170
51
119
170
51
119
170
51
68
85
85
119
170
51
187
119
85
119
170
51
187
221
68
119
170
51
153
85
85
119
170
51
119
170
51
187
221
68
51
119
68
187
119
85
187
119
85
119
170
51
238
204
153
238
204
153
187
119
85
187
119
85
119
170
51
119
170
51
238
204
153
238
204
153
238
204
153
238
204
153
119
170
51
238
204
153
187
119
85
238
204
153
187
119
85
238
204
153
119
170
51
238
204
153
238
204
153
187
119
85
238
204
153
187
119
85
238
204
153
238
204
153
238
204
153
238
204
153
238
204
153
187
119
85
187
119
85
238
204
153
238
204
153
187
119
85
238
204
153
238
204
153
187
119
85
187
119
85
187
119
85
187
119
85
187
119
85
51
119
68
238
204
153
51
119
68
238
204
153
238
204
153
119
170
51
119
170
51
187
119
85
119
170
51
187
119
85
187
119
85
119
170
51
51
119
68
187
119
85
51
119
68
187
119
85
187
119
85
119
170
51
187
119
85
187
119
85
238
153
102
119
170
51
119
170
51
119
170
51
119
170
51
119
170
51
187
119
85
187
119
85
119
170
51
238
153
102
119
170
51
187
119
85
187
119
85
187
119
85
51
119
68
187
119
85
51
119
68
187
119
85
187
119
85
238
204
153
119
170
51
119
170
51
187
119
85
119
170
51
119
170
51
187
119
85
187
119
85
51
119
68
119
170
51
119
170
51
119
170
51
119
170
51
119
170
51
119
170
51
187
119
85
187
119
85
187
119
85
119
170
51
51
119
68
119
170
51
51
119
68
51
51
51
51
68
119
119
68
68
119
170
51
119
170
51
119
170
51
119
170
51
119
170
51
119
170
51
119
170
51
119
170
51
119
170
51
119
170
51
51
119
68
119
170
51
51
119
68
119
170
51
119
170
51
119
170
51
119
170
51
119
170
51
51
51
51
119
170
51
119
170
51
119
170
51
119
170
51
119
170
51
119
170
51
119
170
51
119
170
51
51
119
68
119
170
51
119
170
51
119
170
51
119
170
51
119
170
51
119
170
51
119
170
51
119
170
51
51
51
51
119
170
51
119
170
51
119
170
51
119
170
51
119
170
51
51
119
68
51
68
119
51
119
68
51
68
119
51
68
119
51
68
119
119
170
51
51
68
119
51
119
170
119
170
51
119
170
51
119
170
51
119
170
51
119
170
51
119
170
51
51
119
68
51
68
119
51
119
68
51
68
119
51
68
119
51
68
119
51
119
170
51
68
119
51
119
68
51
68
119
51
68
119
51
119
170
51
68
119
51
68
119
51
68
119
51
68
119
51
119
170
51
68
119
51
68
119
51
68
119
51
68
119
51
68
119
51
119
170
51
68
119
51
68
119
51
68
119
51
68
119
51
68
119
51
68
119
51
68
119
51
68
119
51
119
170
51
119
170
51
68
119
51
68
119
51
68
119
51
68
119
51
68
119
51
119
170
51
68
119
51
68
119
51
68
119
51
68
119
51
68
119
51
68
119
51
68
119
51
68
119
51
119
170
51
119
170
51
68
119
51
68
119
51
68
119
51
68
119
51
68
119
51
119
170
51
68
119
51
68
119
51
68
119
51
68
119
51
68
119
51
68
119
51
68
119
51
68
119
51
119
170
119
170
51
51
119
68
51
119
68
68
85
85
119
170
51
119
170
51
119
170
51
119
170
51
187
221
68
119
170
51
187
221
68
51
119
68
119
170
51
119
170
51
119
170
51
119
170
51
119
170
51
119
170
51
119
170
51
119
170
51
119
170
51
119
170
51
119
170
51
51
119
68
119
170
51
51
119
68
119
170
51
51
119
68
187
221
68
119
170
51
51
119
68
119
170
51
119
170
51
119
170
51
119
170
51
119
170
51
119
170
51
119
170
51
119
170
51
119
170
51
119
170
51
119
170
51
119
170
51
187
221
68
51
119
68
119
170
51
119
170
51
119
170
51
119
170
51
119
170
51
119
170
51
119
170
51
119
170
51
119
170
51
187
119
85
187
119
85
119
170
51
119
170
51
119
170
51
119
170
51
119
170
51
119
170
51
119
170
51
119
170
51
119
170
51
187
119
85
119
170
51
119
170
51
119
170
51
187
119
85
51
119
68
51
119
68
51
119
68
51
119
68
68
85
85
119
170
51
119
170
51
187
119
85
119
170
51
119
170
51
119
170
51
119
170
51
119
170
51
187
119
85
187
221
68
119
170
51
187
221
68
51
119
68
119
170
51
119
170
51
119
170
51
119
170
51
119
170
51
119
170
51
119
170
51
119
170
51
119
170
51
238
204
153
187
119
85
187
119
85
187
119
85
187
119
85
238
204
153
187
119
85
187
119
85
187
119
85
187
119
85
187
119
85
187
119
85
187
119
85
238
204
153
119
170
51
238
204
153
119
170
51
238
204
153
238
204
153
187
119
85
187
119
85
238
204
153
238
204
153
51
119
68
51
119
68
238
204
153
238
204
153
238
204
153
238
204
153
119
170
51
119
170
51
238
204
153
238
204
153
238
204
153
187
119
85
187
119
85
238
204
153
238
204
153
187
119
85
51
119
68
238
204
153
187
119
85
187
119
85
119
170
51
119
170
51
187
119
85
119
170
51
187
119
85
187
119
85
187
119
85
119
170
51
51
119
68
187
119
85
119
170
51
187
119
85
119
170
51
119
170
51
187
119
85
119
170
51
119
170
51
119
170
51
187
119
85
187
119
85
51
119
68
119
170
51
51
119
68
119
170
51
119
170
51
119
170
51
119
170
51
238
153
102
187
119
85
187
119
85
51
119
68
187
119
85
238
153
102
187
119
85
119
170
51
119
170
51
187
119
85
187
119
85
119
170
51
119
170
51
119
170
51
187
119
85
187
119
85
187
119
85
187
119
85
187
119
85
119
170
51
119
170
51
119
170
51
187
119
85
187
119
85
238
153
102
119
170
51
119
170
51
51
119
68
51
51
51
51
68
119
51
68
119
51
68
119
119
68
68
119
170
51
119
170
51
51
119
68
119
170
51
51
119
68
119
170
51
119
170
51
119
170
51
119
170
51
119
170
51
51
119
68
51
119
68
119
170
51
51
119
68
51
119
68
119
170
51
51
51
51
51
68
119
119
68
68
51
119
68
119
170
51
51
119
68
119
170
51
119
170
51
119
170
51
51
119
68
68
85
85
51
119
68
51
119
68
119
170
51
51
119
68
119
170
51
51
119
68
119
170
51
119
170
51
119
170
51
51
119
68
51
119
68
119
170
51
119
170
51
119
170
51
119
170
51
51
119
68
51
68
119
51
68
119
51
68
119
51
68
119
51
68
119
51
68
119
51
68
119
51
68
119
51
119
170
119
170
51
119
170
51
119
170
51
119
170
51
51
68
119
51
119
68
51
68
119
51
68
119
51
68
119
51
68
119
51
68
119
51
68
119
51
68
119
51
68
119
51
68
119
51
68
119
51
68
119
51
119
68
51
68
119
51
119
68
51
119
170
51
119
170
51
68
119
51
119
170
51
119
170
51
119
170
34
204
221
51
119
170
51
119
170
51
68
119
51
68
119
51
68
119
51
68
119
51
68
119
51
68
119
51
68
119
51
119
170
51
119
170
51
68
119
51
119
170
51
119
170
51
119
170
221
238
238
51
119
170
51
119
170
51
68
119
51
68
119
51
68
119
51
68
119
51
68
119
51
68
119
51
68
119
51
119
170
51
119
170
51
68
119
51
119
170
51
119
170
51
119
170
34
204
221
51
119
170
51
119
170
51
68
119
51
68
119
51
68
119
51
68
119
51
68
119
51
68
119
51
68
119
119
170
51
51
119
68
68
85
85
119
170
51
119
170
51
119
170
51
119
170
51
119
170
51
119
170
51
187
221
68
51
119
68
119
170
51
119
170
51
119
170
51
119
170
51
119
170
51
119
170
51
119
170
51
119
170
51
119
170
51
119
170
51
119
170
51
119
170
51
68
85
85
119
170
51
68
85
85
119
170
51
68
85
85
119
170
51
51
119
68
119
170
51
119
170
51
119
170
51
119
170
51
119
170
51
119
170
51
119
170
51
119
170
51
119
170
51
119
170
51
119
170
51
119
170
51
119
170
51
119
170
51
119
170
51
119
170
51
119
170
51
119
170
51
119
170
51
119
170
51
187
119
85
119
170
51
119
170
51
119
170
51
187
221
68
187
119
85
187
119
85
153
85
85
187
119
85
119
170
51
187
119
85
187
119
85
119
170
51
119
170
51
187
119
85
119
170
51
119
170
51
51
119
68
187
119
85
187
119
85
51
119
68
68
85
85
187
119
85
68
85
85
119
170
51
187
119
85
187
119
85
119
170
51
119
170
51
119
170
51
119
170
51
119
170
51
119
170
51
187
119
85
119
170
51
187
221
68
51
119
68
119
170
51
119
170
51
119
170
51
119
170
51
119
170
51
119
170
51
187
221
68
119
170
51
119
170
51
119
170
51
119
170
51
238
204
153
187
119
85
187
119
85
238
204
153
238
204
153
187
119
85
238
204
153
119
68
68
187
119
85
119
68
68
187
119
85
238
204
153
187
119
85
119
170
51
238
204
153
238
204
153
238
204
153
238
204
153
187
119
85
238
204
153
51
119
68
238
204
153
51
119
68
51
51
51
238
204
153
51
119
68
187
119
85
238
204
153
238
204
153
238
204
153
119
170
51
238
204
153
119
170
51
238
204
153
238
204
153
119
68
68
238
204
153
238
204
153
187
119
85
187
119
85
238
204
153
187
119
85
238
204
153
238
204
153
238
204
153
238
204
153
119
170
51
187
119
85
119
170
51
119
170
51
119
170
51
238
153
102
187
119
85
187
119
85
187
119
85
119
170
51
187
119
85
119
170
51
187
119
85
119
170
51
238
204
153
187
119
85
187
119
85
51
119
68
119
170
51
187
119
85
119
170
51
187
119
85
119
170
51
119
170
51
119
170
51
119
170
51
187
119
85
187
119
85
187
119
85
187
119
85
187
119
85
119
170
51
187
119
85
119
170
51
119
170
51
187
119
85
187
119
85
187
119
85
187
119
85
187
119
85
238
204
153
187
119
85
119
170
51
51
119
68
119
170
51
51
119
68
187
119
85
187
119
85
119
170
51
119
170
51
51
119
68
51
68
119
51
68
119
51
68
119
51
68
119
119
68
68
119
170
51
119
170
51
119
170
51
51
119
68
119
170
51
119
170
51
119
170
51
119
170
51
119
170
51
119
170
51
51
119
68
0
0
0
51
119
68
51
51
51
51
51
51
119
170
51
51
68
119
51
68
119
51
119
170
187
119
85
51
119
68
119
170
51
119
170
51
119
170
51
119
170
51
51
119
68
0
0
0
0
0
0
51
51
51
51
119
68
119
170
51
51
119
68
119
170
51
119
170
51
119
170
51
51
119
68
51
51
51
51
51
51
51
119
68
119
170
51
119
170
51
119
170
51
51
68
119
51
68
119
51
68
119
51
51
51
51
68
119
51
51
51
51
68
119
119
170
51
51
119
170
119
170
51
119
170
51
51
68
119
51
119
170
119
170
51
119
170
51
51
68
119
51
68
119
51
68
119
51
119
68
51
68
119
51
119
68
51
68
119
51
68
119
51
68
119
119
170
51
51
68
119
119
170
51
51
68
119
51
119
68
51
68
119
51
68
119
51
119
170
51
119
170
51
68
119
51
68
119
51
68
119
51
68
119
51
119
170
51
119
170
51
119
170
51
119
170
51
68
119
51
68
119
51
68
119
51
119
170
51
119
170
51
68
119
51
119
170
51
119
170
51
68
119
51
68
119
51
68
119
51
68
119
51
119
170
51
119
170
51
119
170
51
119
170
51
68
119
51
68
119
51
68
119
51
119
170
51
119
170
51
68
119
51
119
170
51
119
170
51
68
119
51
68
119
51
68
119
51
68
119
51
119
170
51
119
170
51
119
170
51
119
170
51
68
119
51
68
119
51
68
119
51
119
170
51
119
170
119
170
51
119
170
51
119
170
51
119
170
51
119
170
51
119
170
51
119
170
51
119
170
51
119
170
51
119
170
51
119
170
51
119
170
51
119
170
51
119
170
51
119
170
51
119
170
51
187
221
68
119
170
51
187
221
68
51
119
68
119
170
51
119
170
51
119
170
51
119
170
51
119
170
51
119
170
51
119
170
51
119
170
51
119
170
51
119
170
51
119
170
51
119
170
51
119
170
51
119
170
51
119
170
51
119
170
51
119
170
51
119
170
51
119
170
51
119
170
51
119
170
51
119
170
51
119
170
51
119
170
51
119
170
51
119
170
51
119
170
51
119
170
51
187
119
85
187
119
85
187
119
85
119
170
51
187
221
68
119
170
51
187
221
68
51
119
68
153
85
85
119
170
51
119
170
51
187
119
85
51
119
68
153
85
85
119
170
51
119
170
51
119
170
51
51
119
68
51
119
68
68
85
85
119
170
51
187
119
85
187
119
85
187
119
85
153
85
85
187
119
85
119
170
51
119
170
51
187
221
68
119
170
51
119
170
51
119
170
51
119
170
51
187
119
85
187
119
85
119
170
51
187
119
85
187
119
85
119
170
51
119
170
51
119
170
51
187
221
68
119
170
51
119
170
51
119
170
51
119
170
51
119
170
51
119
170
51
238
204
153
238
204
153
238
204
153
238
204
153
187
119
85
187
119
85
187
119
85
187
119
85
187
119
85
238
204
153
119
68
68
238
204
153
238
204
153
119
170
51
187
119
85
238
204
153
119
170
51
187
119
85
119
170
51
238
204
153
238
204
153
238
204
153
51
119
68
51
119
68
51
119
68
51
119
68
51
119
68
51
51
51
187
119
85
238
204
153
119
170
51
238
204
153
119
170
51
119
170
51
119
170
51
119
170
51
238
204
153
238
204
153
119
68
68
238
204
153
238
204
153
238
204
153
119
170
51
238
204
153
187
119
85
187
119
85
187
119
85
238
204
153
119
170
51
119
170
51
119
170
51
119
170
51
119
170
51
187
119
85
187
119
85
187
119
85
187
119
85
187
119
85
119
170
51
51
119
68
119
170
51
51
119
68
187
119
85
187
119
85
119
170
51
119
170
51
187
119
85
238
204
153
119
170
51
187
119
85
187
119
85
187
119
85
119
170
51
119
170
51
187
119
85
119
170
51
187
119
85
119
170
51
187
119
85
187
119
85
119
170
51
187
119
85
187
119
85
119
170
51
238
204
153
187
119
85
187
119
85
238
153
102
187
119
85
187
119
85
187
119
85
119
170
51
51
119
68
187
119
85
187
119
85
119
170
51
119
170
51
119
170
51
119
170
51
51
119
68
51
68
119
51
68
119
51
68
119
51
119
170
187
119
85
119
170
51
119
170
51
119
170
51
119
170
51
119
170
51
119
170
51
119
170
51
119
170
51
51
119
68
0
0
0
51
68
119
51
51
51
51
68
119
51
68
119
119
68
68
119
170
51
51
119
170
51
119
170
187
119
85
187
221
68
51
119
68
119
170
51
119
170
51
51
119
68
0
0
0
51
68
119
51
68
119
51
68
119
102
51
68
119
170
51
119
170
51
119
170
51
119
170
51
51
119
68
0
0
0
51
68
119
51
68
119
119
68
68
119
170
51
119
170
51
51
68
119
51
68
119
119
170
51
51
68
119
119
170
51
51
51
51
51
68
119
51
68
119
51
68
119
119
170
51
51
68
119
51
68
119
51
68
119
51
68
119
51
119
170
119
170
51
51
68
119
51
68
119
51
68
119
51
68
119
51
119
68
51
68
119
51
68
119
51
68
119
51
68
119
51
68
119
119
170
51
51
68
119
51
68
119
51
68
119
119
170
51
51
68
119
51
68
119
85
238
238
51
119
170
51
68
119
51
68
119
51
68
119
51
68
119
51
68
119
51
68
119
51
68
119
51
119
170
51
119
170
51
119
170
51
68
119
51
68
119
51
68
119
51
68
119
51
119
170
51
119
170
51
68
119
51
68
119
51
68
119
51
68
119
51
68
119
51
68
119
51
68
119
34
204
221
51
119
170
51
119
170
51
68
119
51
68
119
51
68
119
51
68
119
51
119
170
51
119
170
51
68
119
51
68
119
51
68
119
51
68
119
51
68
119
51
68
119
51
68
119
51
119
170
51
119
170
51
119
170
51
68
119
51
68
119
119
170
51
119
170
51
119
170
51
119
170
51
119
170
51
119
170
51
119
170
51
119
170
51
119
170
51
119
170
51
119
170
51
119
170
51
119
170
51
119
170
51
119
170
51
119
170
51
119
170
51
187
221
68
51
119
68
119
170
51
119
170
51
119
170
51
119
170
51
119
170
51
119
170
51
119
170
51
119
170
51
119
170
51
119
170
51
119
170
51
119
170
51
119
170
51
119
170
51
119
170
51
119
170
51
187
221
68
119
170
51
187
221
68
51
119
68
119
170
51
119
170
51
119
170
51
119
170
51
119
170
51
119
170
51
119
170
51
119
170
51
119
170
51
119
170
51
119
170
51
51
119
68
119
170
51
187
119
85
187
221
68
51
119
68
119
170
51
187
119
85
119
170
51
51
119
68
51
119
68
68
85
85
153
85
85
119
170
51
119
170
51
119
170
51
187
119
85
68
85
85
119
170
51
119
170
51
119
170
51
187
119
85
153
85
85
119
170
51
119
170
51
187
221
68
119
170
51
187
221
68
51
119
68
187
119
85
119
170
51
119
170
51
119
170
51
119
170
51
119
170
51
119
170
51
187
119
85
187
119
85
153
85
85
119
170
51
119
170
51
119
170
51
187
119
85
119
170
51
119
170
51
119
170
51
119
170
51
238
204
153
238
204
153
187
119
85
187
119
85
238
204
153
238
204
153
238
204
153
238
204
153
187
119
85
187
119
85
119
68
68
187
119
85
119
170
51
119
170
51
187
119
85
238
204
153
119
170
51
238
204
153
119
170
51
119
170
51
187
119
85
238
204
153
238
204
153
238
204
153
51
119
68
51
51
51
187
119
85
238
204
153
238
204
153
238
204
153
238
204
153
119
170
51
238
204
153
238
204
153
119
170
51
119
170
51
187
119
85
238
204
153
119
68
68
187
119
85
238
204
153
187
119
85
119
170
51
119
170
51
187
119
85
187
119
85
238
204
153
119
170
51
119
170
51
238
153
102
187
119
85
119
170
51
119
170
51
187
119
85
187
119
85
187
119
85
187
119
85
187
119
85
119
170
51
119
170
51
51
119
68
119
170
51
119
170
51
187
119
85
238
153
102
119
170
51
187
119
85
187
119
85
119
170
51
119
170
51
119
170
51
187
119
85
187
119
85
187
119
85
187
119
85
187
119
85
187
119
85
187
119
85
187
119
85
119
170
51
187
119
85
187
119
85
238
153
102
119
170
51
187
119
85
187
119
85
187
119
85
187
119
85
187
119
85
187
119
85
187
119
85
119
170
51
187
119
85
187
119
85
187
119
85
187
119
85
119
170
51
119
170
51
119
170
51
119
170
51
51
68
119
51
68
119
51
119
170
187
119
85
119
170
51
119
170
51
119
170
51
119
170
51
119
170
51
51
51
51
119
170
51
51
51
51
119
170
51
51
119
68
51
51
51
51
68
119
51
68
119
51
68
119
51
119
170
187
119
85
119
170
51
119
68
68
187
119
85
187
221
68
51
119
68
51
51
51
51
119
68
51
119
68
51
51
51
51
68
119
51
68
119
51
68
119
119
68
68
119
68
68
51
119
68
119
170
51
119
170
51
51
119
68
0
0
0
51
51
51
51
68
119
51
68
119
119
68
68
119
170
51
51
68
119
51
68
119
51
68
119
51
68
119
119
170
51
51
68
119
51
68
119
51
68
119
51
119
68
51
68
119
51
68
119
51
68
119
119
170
51
51
68
119
51
68
119
51
119
170
119
170
51
119
170
51
119
170
51
51
68
119
51
68
119
51
68
119
51
68
119
51
51
51
51
68
119
51
51
51
51
68
119
51
68
119
51
68
119
51
68
119
51
68
119
51
119
170
51
68
119
51
68
119
51
119
170
51
119
170
51
119
170
51
119
170
51
68
119
51
68
119
51
68
119
51
68
119
51
68
119
51
119
170
51
68
119
51
68
119
51
68
119
51
68
119
51
68
119
51
68
119
51
119
170
51
119
170
51
119
170
34
204
221
51
68
119
51
68
119
51
68
119
51
68
119
51
68
119
51
119
170
51
68
119
51
68
119
51
68
119
51
68
119
51
68
119
51
68
119
51
119
170
51
119
170
51
119
170
51
119
170
51
68
119
51
68
119
51
68
119
51
68
119
51
68
119
51
119
170
51
68
119
51
68
119
51
68
119
51
68
119
119
170
51
119
170
51
51
119
68
119
170
51
51
119
68
68
85
85
119
170
51
119
170
51
119
170
51
119
170
51
119
170
51
119
170
51
119
170
51
119
170
51
119
170
51
119
170
51
119
170
51
119
170
51
119
170
51
119
170
51
119
170
51
119
170
51
119
170
51
119
170
51
119
170
51
119
170
51
119
170
51
119
170
51
119
170
51
119
170
51
119
170
51
119
170
51
119
170
51
119
170
51
119
170
51
119
170
51
187
221
68
51
119
68
119
170
51
119
170
51
119
170
51
51
119
68
119
170
51
51
119
68
119
170
51
119
170
51
119
170
51
119
170
51
51
119
68
51
119
68
68
85
85
119
170
51
119
170
51
119
170
51
119
170
51
119
170
51
119
170
51
119
170
51
119
170
51
68
85
85
153
85
85
119
170
51
119
170
51
119
170
51
119
170
51
187
119
85
187
119
85
119
170
51
119
170
51
119
170
51
119
170
51
119
170
51
119
170
51
119
170
51
187
119
85
187
221
68
51
119
68
119
170
51
119
170
51
119
170
51
119
170
51
119
170
51
119
170
51
119
170
51
119
170
51
153
85
85
187
119
85
119
170
51
119
170
51
119
170
51
119
170
51
187
119
85
119
170
51
119
170
51
187
221
68
119
170
51
119
170
51
187
119
85
187
119
85
187
119
85
187
119
85
187
119
85
187
119
85
238
204
153
187
119
85
187
119
85
187
119
85
187
119
85
238
204
153
238
204
153
187
119
85
119
170
51
119
170
51
119
170
51
238
204
153
187
119
85
187
119
85
238
204
153
187
119
85
187
119
85
51
119
68
0
0
0
187
119
85
187
119
85
119
170
51
119
170
51
187
119
85
119
170
51
238
204
153
187
119
85
238
204
153
238
204
153
187
119
85
238
204
153
238
204
153
238
204
153
238
204
153
187
119
85
238
204
153
187
119
85
187
119
85
187
119
85
187
119
85
119
170
51
119
170
51
187
119
85
187
119
85
119
170
51
187
119
85
238
204
153
187
119
85
187
119
85
187
119
85
238
153
102
187
119
85
119
170
51
119
170
51
187
119
85
187
119
85
187
119
85
119
170
51
187
119
85
187
119
85
187
119
85
187
119
85
119
170
51
238
153
102
119
170
51
187
119
85
119
170
51
187
119
85
119
170
51
51
119
68
187
119
85
51
119
68
119
170
51
187
119
85
187
119
85
187
119
85
187
119
85
51
119
68
187
119
85
51
119
68
187
119
85
187
119
85
238
153
102
119
170
51
119
170
51
238
153
102
187
119
85
187
119
85
187
119
85
119
170
51
51
51
51
119
170
51
51
51
51
119
170
51
51
119
170
51
119
170
187
119
85
119
170
51
119
170
51
51
119
68
51
119
68
119
170
51
119
170
51
51
51
51
119
170
51
119
170
51
119
170
51
51
68
119
51
68
119
51
119
170
136
136
170
187
119
85
187
221
68
51
119
68
0
0
0
51
51
51
51
119
68
51
51
51
51
68
119
51
119
68
51
119
68
0
0
0
51
68
119
51
68
119
51
68
119
51
119
170
51
119
170
187
119
85
119
170
51
119
170
51
51
119
68
0
0
0
51
68
119
51
68
119
51
68
119
51
119
170
187
119
85
119
170
51
51
68
119
51
68
119
51
68
119
51
68
119
51
68
119
51
68
119
51
68
119
51
68
119
51
119
68
51
119
68
51
68
119
119
170
51
119
170
51
51
119
170
119
170
51
51
68
119
119
170
51
51
68
119
51
68
119
51
68
119
51
68
119
51
68
119
51
68
119
51
51
51
51
68
119
51
119
68
51
68
119
51
119
68
51
68
119
51
119
170
119
170
51
51
68
119
51
119
170
51
119
170
51
68
119
51
68
119
51
119
170
51
119
170
51
119
170
51
119
170
51
119
170
51
119
170
221
238
238
51
119
170
51
68
119
51
68
119
51
68
119
51
68
119
51
119
170
51
119
170
51
68
119
51
68
119
51
119
170
51
119
170
51
119
170
51
119
170
51
119
170
51
119
170
51
119
170
51
119
170
51
68
119
51
68
119
51
68
119
51
68
119
51
119
170
51
119
170
51
68
119
51
68
119
51
119
170
51
119
170
51
119
170
221
238
238
51
119
170
51
119
170
51
119
170
51
119
170
51
68
119
51
68
119
51
68
119
119
170
51
119
170
51
119
170
51
51
119
68
68
85
85
119
170
51
119
170
51
119
170
51
119
170
51
119
170
51
119
170
51
119
170
51
119
170
51
119
170
51
119
170
51
119
170
51
119
170
51
119
170
51
119
170
51
119
170
51
119
170
51
119
170
51
119
170
51
119
170
51
119
170
51
119
170
51
187
221
68
119
170
51
187
221
68
51
119
68
119
170
51
119
170
51
119
170
51
119
170
51
119
170
51
119
170
51
119
170
51
119
170
51
119
170
51
51
119
68
119
170
51
51
119
68
51
119
68
119
170
51
119
170
51
119
170
51
119
170
51
119
170
51
119
170
51
68
85
85
119
170
51
119
170
51
119
170
51
187
119
85
119
170
51
119
170
51
119
170
51
119
170
51
187
221
68
119
170
51
187
119
85
187
119
85
187
119
85
119
170
51
187
119
85
119
170
51
119
170
51
119
170
51
187
221
68
119
170
51
119
170
51
119
170
51
119
170
51
119
170
51
119
170
51
187
119
85
119
170
51
119
170
51
119
170
51
187
119
85
119
170
51
119
170
51
187
221
68
119
170
51
119
170
51
187
119
85
51
119
68
119
170
51
51
119
68
119
170
51
187
119
85
187
119
85
119
170
51
119
170
51
119
170
51
119
170
51
119
170
51
187
119
85
187
119
85
187
119
85
187
119
85
187
119
85
187
119
85
187
119
85
187
119
85
238
204
153
238
204
153
187
119
85
187
119
85
238
204
153
187
119
85
119
170
51
187
119
85
238
204
153
238
204
153
187
119
85
238
204
153
187
119
85
187
119
85
238
204
153
51
119
68
0
0
0
238
204
153
238
204
153
238
204
153
119
170
51
187
119
85
119
170
51
119
170
51
187
119
85
187
119
85
187
119
85
238
204
153
187
119
85
238
204
153
238
204
153
187
119
85
187
119
85
187
119
85
238
204
153
238
204
153
187
119
85
238
204
153
119
170
51
187
119
85
187
119
85
119
170
51
119
170
51
119
170
51
187
119
85
187
119
85
187
119
85
187
119
85
187
119
85
187
119
85
187
119
85
119
170
51
187
119
85
187
119
85
119
170
51
187
119
85
187
119
85
187
119
85
238
153
102
187
119
85
119
170
51
119
170
51
51
119
68
119
170
51
51
119
68
187
119
85
187
119
85
187
119
85
51
119
68
119
170
51
187
119
85
119
170
51
187
119
85
187
119
85
187
119
85
187
119
85
51
119
68
187
119
85
187
119
85
187
119
85
187
119
85
187
119
85
187
119
85
187
119
85
187
119
85
238
204
153
187
119
85
119
170
51
119
170
51
51
51
51
119
170
51
119
170
51
119
68
68
119
68
68
119
170
51
51
119
68
51
119
68
51
51
51
51
51
51
51
119
68
119
170
51
119
170
51
119
170
51
119
170
51
119
170
51
119
170
51
51
119
170
119
68
68
187
119
85
187
221
68
51
51
51
51
119
68
51
51
51
51
68
119
51
51
51
51
68
119
51
119
170
119
68
68
51
119
68
51
119
68
0
0
0
51
68
119
51
68
119
51
68
119
51
119
170
187
119
85
51
119
68
119
170
51
51
119
68
51
51
51
51
68
119
51
68
119
51
119
170
187
119
85
187
221
68
119
170
51
119
170
51
51
68
119
51
68
119
51
119
68
51
68
119
51
119
68
51
68
119
51
68
119
51
119
68
51
68
119
51
68
119
51
68
119
119
170
51
119
170
51
119
170
51
51
68
119
51
51
51
51
68
119
51
51
51
51
68
119
119
170
51
51
68
119
119
170
51
51
68
119
51
68
119
51
68
119
51
119
68
51
68
119
51
68
119
51
119
170
119
170
51
51
119
170
51
68
119
51
68
119
51
68
119
51
68
119
51
68
119
51
68
119
51
68
119
51
119
170
51
119
170
51
68
119
51
68
119
51
68
119
51
119
170
51
119
170
51
119
170
51
119
170
51
68
119
51
68
119
51
68
119
51
68
119
51
68
119
51
68
119
51
68
119
51
119
170
51
119
170
51
68
119
51
68
119
51
68
119
51
119
170
51
119
170
51
119
170
51
119
170
51
68
119
51
68
119
51
68
119
51
68
119
51
68
119
51
68
119
51
68
119
51
119
170
51
119
170
51
68
119
51
68
119
51
68
119
51
119
170
51
119
170
51
119
170
119
170
51
119
170
51
119
170
51
119
170
51
119
170
51
119
170
51
119
170
51
119
170
51
119
170
51
119
170
51
187
221
68
119
170
51
119
170
51
119
170
51
119
170
51
119
170
51
119
170
51
119
170
51
119
170
51
119
170
51
119
170
51
119
170
51
119
170
51
119
170
51
119
170
51
119
170
51
119
170
51
187
221
68
51
119
68
119
170
51
119
170
51
119
170
51
119
170
51
119
170
51
119
170
51
119
170
51
119
170
51
119
170
51
119
170
51
119
170
51
51
119
68
51
119
68
68
85
85
119
170
51
119
170
51
119
170
51
119
170
51
119
170
51
119
170
51
119
170
51
119
170
51
187
221
68
119
170
51
187
119
85
187
119
85
119
170
51
119
170
51
119
170
51
119
170
51
119
170
51
119
170
51
187
119
85
119
170
51
119
170
51
119
170
51
119
170
51
119
170
51
119
170
51
119
170
51
119
170
51
119
170
51
119
170
51
119
170
51
119
170
51
51
119
68
187
119
85
187
119
85
119
170
51
119
170
51
187
119
85
119
170
51
119
170
51
119
170
51
119
170
51
51
119
68
119
170
51
51
119
68
51
119
68
119
170
51
119
170
51
187
119
85
187
221
68
119
170
51
119
170
51
187
119
85
187
119
85
238
204
153
119
170
51
238
204
153
238
204
153
187
119
85
187
119
85
187
119
85
119
170
51
238
204
153
238
204
153
238
204
153
187
119
85
238
204
153
187
119
85
238
204
153
238
204
153
119
170
51
187
119
85
238
204
153
238
204
153
238
204
153
238
204
153
187
119
85
187
119
85
238
204
153
187
119
85
187
119
85
187
119
85
238
204
153
238
204
153
238
204
153
187
119
85
119
170
51
238
204
153
238
204
153
238
204
153
187
119
85
238
204
153
187
119
85
187
119
85
187
119
85
187
119
85
238
204
153
187
119
85
187
119
85
238
204
153
187
119
85
119
170
51
187
119
85
187
119
85
187
119
85
119
170
51
119
170
51
187
119
85
187
119
85
119
170
51
119
170
51
187
119
85
187
119
85
187
119
85
119
170
51
187
119
85
187
119
85
119
170
51
187
119
85
119
170
51
187
119
85
187
119
85
187
119
85
187
119
85
187
119
85
119
170
51
51
119
68
119
170
51
187
119
85
187
119
85
119
170
51
187
119
85
119
170
51
119
170
51
119
170
51
238
153
102
187
119
85
187
119
85
187
119
85
187
119
85
187
119
85
187
119
85
187
119
85
187
119
85
187
119
85
238
153
102
187
119
85
187
119
85
187
119
85
119
170
51
119
170
51
119
170
51
119
170
51
119
170
51
119
170
51
119
170
51
119
170
51
51
119
68
0
0
0
51
51
51
51
68
119
51
68
119
119
68
68
119
170
51
119
170
51
119
170
51
119
170
51
119
170
51
119
170
51
119
170
51
119
170
51
51
119
68
51
51
51
51
68
119
51
51
51
51
68
119
51
68
119
51
68
119
51
119
170
51
119
170
119
68
68
119
170
51
51
119
68
0
0
0
51
68
119
51
119
170
51
119
170
136
136
170
187
119
85
119
170
51
51
119
68
0
0
0
51
51
51
51
68
119
51
68
119
187
119
85
187
221
68
119
170
51
119
170
51
51
68
119
51
68
119
51
68
119
51
68
119
51
119
68
51
68
119
119
170
51
51
119
170
119
170
51
51
68
119
51
68
119
51
68
119
51
68
119
51
119
170
119
170
51
119
170
51
51
68
119
51
51
51
51
68
119
51
68
119
51
68
119
119
170
51
51
68
119
51
68
119
51
68
119
51
68
119
51
68
119
51
68
119
51
119
170
119
170
51
119
170
51
51
119
170
51
119
170
51
68
119
51
68
119
51
68
119
51
68
119
51
68
119
51
68
119
51
68
119
51
119
170
51
119
170
51
68
119
51
68
119
51
68
119
51
68
119
51
68
119
51
119
170
51
119
170
51
68
119
51
68
119
51
68
119
51
68
119
51
68
119
51
68
119
51
68
119
221
238
238
51
119
170
51
68
119
51
68
119
51
68
119
51
68
119
51
68
119
51
119
170
51
119
170
51
68
119
51
68
119
51
68
119
51
68
119
51
68
119
51
68
119
51
68
119
51
119
170
51
119
170
51
68
119
51
68
119
51
68
119
51
68
119
51
68
119
119
170
51
119
170
51
119
170
51
119
170
51
119
170
51
119
170
51
119
170
51
119
170
51
187
221
68
119
170
51
187
221
68
51
119
68
119
170
51
119
170
51
119
170
51
119
170
51
119
170
51
119
170
51
119
170
51
119
170
51
119
170
51
119
170
51
187
221
68
119
170
51
119
170
51
119
170
51
119
170
51
119
170
51
119
170
51
119
170
51
119
170
51
119
170
51
119
170
51
51
119
68
119
170
51
119
170
51
51
119
68
119
170
51
119
170
51
119
170
51
119
170
51
119
170
51
119
170
51
119
170
51
119
170
51
119
170
51
119
170
51
119
170
51
119
170
51
119
170
51
187
119
85
187
119
85
187
119
85
187
119
85
187
119
85
187
119
85
119
170
51
119
170
51
119
170
51
187
119
85
119
170
51
119
170
51
119
170
51
119
170
51
119
170
51
119
170
51
187
221
68
119
170
51
187
221
68
51
119
68
119
170
51
119
170
51
51
119
68
51
119
68
68
85
85
187
119
85
119
170
51
119
170
51
119
170
51
119
170
51
119
170
51
119
170
51
119
170
51
119
170
51
119
170
51
51
119
68
51
119
68
68
85
85
119
170
51
187
221
68
119
170
51
187
221
68
119
170
51
187
119
85
187
119
85
119
170
51
238
204
153
238
204
153
51
119
68
238
204
153
51
119
68
238
204
153
119
170
51
119
170
51
238
204
153
187
119
85
238
204
153
187
119
85
238
204
153
187
119
85
238
204
153
119
170
51
238
204
153
187
119
85
238
204
153
51
119
68
238
204
153
238
204
153
187
119
85
187
119
85
238
204
153
238
204
153
187
119
85
187
119
85
187
119
85
238
204
153
119
170
51
238
204
153
119
170
51
119
170
51
238
204
153
187
119
85
187
119
85
187
119
85
187
119
85
187
119
85
238
204
153
238
204
153
187
119
85
187
119
85
238
204
153
119
68
68
238
204
153
238
204
153
119
170
51
187
119
85
119
170
51
187
119
85
51
119
68
187
119
85
51
119
68
187
119
85
119
170
51
238
204
153
187
119
85
119
170
51
119
170
51
119
170
51
119
170
51
119
170
51
119
170
51
51
119
68
119
170
51
51
119
68
187
119
85
187
119
85
187
119
85
187
119
85
119
170
51
187
119
85
187
119
85
238
153
102
119
170
51
187
119
85
187
119
85
119
170
51
187
119
85
187
119
85
187
119
85
119
170
51
119
170
51
238
204
153
187
119
85
238
153
102
187
119
85
187
119
85
187
119
85
187
119
85
119
170
51
119
170
51
187
119
85
187
119
85
119
170
51
119
170
51
119
170
51
119
170
51
119
170
51
119
170
51
51
119
68
0
0
0
51
68
119
51
51
51
51
68
119
51
68
119
119
68
68
119
170
51
119
170
51
119
170
51
119
170
51
119
170
51
119
170
51
119
170
51
51
119
68
51
51
51
51
68
119
51
68
119
51
68
119
51
68
119
51
68
119
119
68
68
119
68
68
187
119
85
51
119
68
119
170
51
119
170
51
51
51
51
51
68
119
51
68
119
136
136
170
187
119
85
187
221
68
119
170
51
0
0
0
51
68
119
51
68
119
51
68
119
51
119
170
187
119
85
187
221
68
119
170
51
119
170
51
119
170
51
119
170
51
51
68
119
51
119
170
51
68
119
51
68
119
51
119
170
119
170
51
51
68
119
51
68
119
119
170
51
51
68
119
119
170
51
51
68
119
51
119
170
119
170
51
51
119
68
51
68
119
51
119
68
51
68
119
51
68
119
51
68
119
51
68
119
51
68
119
51
68
119
51
68
119
51
51
51
51
68
119
51
51
51
51
68
119
119
170
51
51
68
119
51
119
170
51
119
170
51
119
170
51
68
119
51
68
119
51
68
119
51
119
170
51
119
170
51
68
119
51
68
119
51
119
170
51
119
170
51
119
170
51
68
119
51
68
119
51
68
119
51
119
170
51
119
170
51
119
170
51
68
119
51
68
119
51
68
119
51
119
170
51
119
170
51
68
119
51
68
119
51
119
170
51
119
170
51
119
170
51
68
119
51
68
119
51
68
119
51
119
170
51
119
170
51
119
170
51
68
119
51
68
119
51
68
119
51
119
170
51
119
170
51
68
119
51
68
119
51
119
170
51
119
170
85
238
238
51
68
119
51
68
119
119
170
51
119
170
51
119
170
51
119
170
51
119
170
51
119
170
51
119
170
51
119
170
51
119
170
51
187
221
68
51
119
68
119
170
51
119
170
51
119
170
51
119
170
51
119
170
51
119
170
51
187
221
68
187
221
68
119
170
51
119
170
51
187
221
68
119
170
51
119
170
51
187
221
68
187
221
68
119
170
51
119
170
51
119
170
51
119
170
51
119
170
51
119
170
51
119
170
51
119
170
51
51
119
68
119
170
51
51
119
68
119
170
51
119
170
51
51
119
68
119
170
51
119
170
51
119
170
51
119
170
51
119
170
51
119
170
51
119
170
51
119
170
51
119
170
51
119
170
51
187
119
85
187
119
85
153
85
85
153
85
85
187
119
85
51
119
68
119
170
51
51
119
68
187
119
85
187
119
85
187
119
85
119
170
51
119
170
51
119
170
51
119
170
51
119
170
51
119
170
51
187
221
68
51
119
68
187
119
85
119
170
51
119
170
51
187
119
85
68
85
85
187
119
85
187
119
85
187
119
85
153
85
85
119
170
51
119
170
51
119
170
51
119
170
51
119
170
51
119
170
51
119
170
51
119
170
51
119
170
51
187
119
85
187
119
85
187
119
85
187
221
68
51
119
68
119
170
51
187
119
85
153
85
85
119
170
51
119
170
51
238
204
153
187
119
85
51
119
68
187
119
85
238
204
153
187
119
85
187
119
85
187
119
85
187
119
85
238
204
153
238
204
153
187
119
85
119
170
51
238
204
153
238
204
153
119
170
51
238
204
153
238
204
153
238
204
153
51
119
68
238
204
153
238
204
153
238
204
153
187
119
85
238
204
153
238
204
153
238
204
153
238
204
153
238
204
153
187
119
85
238
204
153
119
170
51
119
170
51
187
119
85
187
119
85
187
119
85
187
119
85
238
204
153
238
204
153
187
119
85
187
119
85
238
204
153
119
68
68
119
68
68
187
119
85
187
119
85
187
119
85
119
170
51
187
119
85
119
170
51
119
170
51
187
119
85
51
119
68
119
170
51
187
119
85
119
170
51
119
170
51
119
170
51
187
119
85
187
119
85
119
170
51
119
170
51
119
170
51
187
119
85
119
170
51
51
119
68
119
170
51
187
119
85
119
170
51
187
119
85
119
170
51
187
119
85
187
119
85
119
170
51
119
170
51
187
119
85
187
119
85
187
119
85
119
170
51
187
119
85
187
119
85
187
119
85
119
170
51
187
119
85
187
119
85
187
119
85
187
119
85
187
119
85
119
170
51
119
170
51
119
170
51
119
170
51
187
119
85
119
170
51
187
119
85
119
170
51
119
170
51
119
170
51
51
119
68
119
170
51
51
119
68
51
119
68
51
51
51
51
68
119
51
68
119
51
68
119
51
68
119
51
119
170
187
119
85
119
170
51
119
170
51
51
119
68
119
170
51
51
119
68
119
170
51
119
170
51
51
119
68
51
51
51
51
68
119
51
68
119
136
136
170
51
119
170
51
68
119
51
119
170
187
119
85
187
221
68
119
170
51
119
170
51
119
170
51
102
51
68
51
119
170
119
68
68
187
221
68
119
170
51
119
170
51
51
51
51
51
68
119
51
68
119
51
68
119
51
119
170
51
119
68
119
170
51
51
119
68
119
170
51
51
68
119
119
170
51
51
119
170
119
170
51
51
68
119
51
68
119
51
68
119
51
119
68
51
68
119
51
68
119
51
68
119
119
170
51
51
68
119
51
119
170
119
170
51
119
170
51
51
68
119
51
119
68
51
68
119
51
68
119
51
68
119
51
68
119
51
68
119
51
68
119
51
68
119
51
68
119
51
68
119
51
51
51
51
68
119
119
170
51
119
170
51
51
119
170
51
68
119
51
68
119
51
119
170
51
119
170
34
204
221
51
119
170
51
68
119
51
68
119
51
68
119
51
68
119
51
68
119
51
68
119
51
119
170
34
204
221
51
119
170
51
119
170
51
68
119
51
68
119
51
119
170
51
119
170
51
119
170
51
119
170
51
68
119
51
68
119
51
68
119
51
68
119
51
68
119
51
68
119
51
119
170
51
119
170
51
119
170
51
119
170
51
68
119
51
68
119
51
119
170
51
119
170
51
119
170
51
119
170
51
68
119
51
68
119
51
68
119
51
68
119
51
68
119
51
68
119
51
119
170
51
119
170
51
119
170
119
170
51
119
170
51
119
170
51
119
170
51
119
170
51
119
170
51
119
170
51
119
170
51
119
170
51
119
170
51
119
170
51
119
170
51
119
170
51
119
170
51
119
170
51
119
170
51
119
170
51
51
119
68
119
170
51
187
221
68
51
119
68
119
170
51
51
119
68
187
221
68
119
170
51
51
119
68
119
170
51
119
170
51
119
170
51
119
170
51
119
170
51
119
170
51
119
170
51
119
170
51
119
170
51
51
119
68
51
119
68
51
119
68
51
119
68
68
85
85
119
170
51
119
170
51
119
170
51
119
170
51
119
170
51
119
170
51
119
170
51
119
170
51
119
170
51
119
170
51
119
170
51
153
85
85
119
170
51
51
119
68
187
119
85
51
119
68
51
119
68
119
170
51
187
221
68
187
119
85
187
221
68
51
119
68
119
170
51
187
119
85
119
170
51
119
170
51
119
170
51
187
119
85
187
119
85
187
119
85
187
119
85
119
170
51
119
170
51
119
170
51
119
170
51
51
119
68
187
119
85
51
119
68
68
85
85
119
170
51
187
119
85
187
119
85
119
170
51
119
170
51
119
170
51
119
170
51
187
119
85
187
119
85
187
119
85
153
85
85
119
170
51
119
170
51
119
170
51
51
119
68
119
170
51
119
170
51
119
170
51
238
204
153
187
119
85
187
119
85
187
119
85
238
204
153
187
119
85
187
119
85
187
119
85
187
119
85
187
119
85
187
119
85
187
119
85
119
170
51
119
170
51
238
204
153
119
170
51
119
170
51
187
119
85
187
119
85
51
51
51
187
119
85
187
119
85
187
119
85
187
119
85
187
119
85
187
119
85
187
119
85
187
119
85
238
204
153
238
204
153
119
170
51
119
170
51
238
204
153
187
119
85
187
119
85
51
119
68
187
119
85
51
119
68
119
170
51
238
204
153
187
119
85
238
204
153
238
204
153
119
68
68
238
204
153
187
119
85
119
170
51
119
170
51
119
170
51
119
170
51
119
170
51
187
119
85
187
119
85
119
170
51
187
119
85
187
119
85
119
170
51
119
170
51
119
170
51
119
170
51
238
153
102
119
170
51
187
119
85
119
170
51
238
153
102
187
119
85
187
119
85
187
119
85
119
170
51
187
119
85
187
119
85
187
119
85
187
119
85
119
170
51
187
119
85
238
204
153
187
119
85
238
153
102
187
119
85
187
119
85
187
119
85
187
119
85
119
170
51
119
170
51
187
119
85
187
119
85
187
119
85
187
119
85
187
119
85
119
170
51
119
170
51
119
170
51
119
170
51
119
170
51
119
170
51
119
170
51
119
170
51
119
170
51
119
170
51
51
119
68
119
170
51
51
119
68
51
51
51
51
51
51
51
68
119
51
119
170
51
119
170
136
136
170
187
119
85
119
170
51
119
170
51
119
170
51
51
119
68
119
170
51
119
170
51
51
119
68
51
51
51
51
68
119
51
119
170
51
119
170
187
119
85
187
119
85
51
119
170
187
119
85
187
221
68
119
170
51
119
170
51
119
170
51
119
170
51
119
170
51
119
68
68
119
170
51
119
170
51
119
170
51
119
170
51
119
170
51
119
170
51
119
68
68
51
119
170
136
136
170
187
119
85
187
221
68
119
170
51
119
170
51
51
68
119
51
68
119
119
170
51
119
170
51
51
68
119
51
51
51
51
68
119
51
51
51
51
68
119
51
68
119
51
68
119
51
119
170
51
119
68
119
170
51
51
119
68
119
170
51
119
170
51
51
68
119
51
68
119
119
170
51
51
68
119
51
68
119
51
119
68
51
68
119
51
119
68
51
68
119
119
170
51
51
68
119
51
68
119
119
170
51
51
68
119
51
68
119
51
68
119
51
68
119
51
68
119
51
68
119
51
119
170
51
68
119
51
68
119
51
68
119
51
68
119
51
68
119
51
68
119
51
68
119
51
68
119
51
119
170
51
68
119
51
68
119
51
68
119
51
68
119
51
68
119
51
68
119
51
119
170
51
68
119
51
68
119
51
68
119
51
68
119
51
68
119
51
68
119
51
68
119
51
68
119
51
119
170
51
68
119
51
68
119
51
68
119
51
68
119
51
68
119
51
68
119
51
119
170
51
68
119
51
68
119
51
68
119
51
68
119
51
68
119
51
68
119
51
68
119
51
68
119
51
119
170
51
68
119
119
170
51
119
170
51
119
170
51
119
170
51
119
170
51
119
170
51
119
170
51
119
170
51
119
170
51
119
170
51
119
170
51
119
170
51
119
170
51
119
170
51
119
170
51
119
170
51
119
170
51
119
170
51
51
119
68
119
170
51
68
85
85
119
170
51
68
85
85
119
170
51
51
119
68
119
170
51
119
170
51
119
170
51
119
170
51
119
170
51
119
170
51
119
170
51
119
170
51
119
170
51
119
170
51
51
119
68
68
85
85
119
170
51
68
85
85
119
170
51
119
170
51
187
221
68
119
170
51
187
221
68
51
119
68
119
170
51
119
170
51
119
170
51
119
170
51
119
170
51
119
170
51
119
170
51
119
170
51
119
170
51
51
119
68
51
119
68
68
85
85
187
119
85
187
119
85
187
221
68
51
119
68
187
119
85
187
119
85
119
170
51
119
170
51
119
170
51
187
119
85
187
119
85
187
119
85
153
85
85
119
170
51
119
170
51
187
221
68
119
170
51
119
170
51
119
170
51
51
119
68
68
85
85
187
119
85
119
170
51
119
170
51
187
119
85
187
119
85
187
221
68
119
170
51
187
221
68
51
119
68
153
85
85
153
85
85
187
221
68
119
170
51
51
119
68
51
119
68
68
85
85
187
119
85
119
170
51
119
170
51
238
204
153
238
204
153
238
204
153
187
119
85
187
119
85
238
204
153
187
119
85
187
119
85
238
204
153
119
170
51
119
170
51
187
119
85
187
119
85
238
204
153
119
170
51
187
119
85
119
170
51
238
204
153
187
119
85
238
204
153
238
204
153
187
119
85
187
119
85
187
119
85
187
119
85
238
204
153
187
119
85
238
204
153
238
204
153
119
170
51
187
119
85
119
170
51
238
204
153
238
204
153
187
119
85
187
119
85
51
119
68
238
204
153
119
170
51
187
119
85
119
170
51
119
170
51
238
204
153
119
68
68
187
119
85
187
119
85
119
170
51
119
170
51
187
119
85
119
170
51
119
170
51
187
119
85
187
119
85
187
119
85
238
153
102
187
119
85
187
119
85
119
170
51
187
119
85
119
170
51
119
170
51
187
119
85
187
119
85
119
170
51
119
170
51
187
119
85
187
119
85
187
119
85
187
119
85
187
119
85
51
119
68
187
119
85
51
119
68
187
119
85
187
119
85
187
119
85
187
119
85
187
119
85
119
170
51
119
170
51
187
119
85
119
170
51
187
119
85
119
170
51
119
170
51
187
119
85
187
119
85
51
119
68
187
119
85
51
119
68
187
119
85
119
170
51
119
170
51
187
119
85
119
170
51
119
170
51
119
170
51
119
170
51
119
170
51
119
170
51
51
119
68
51
51
51
51
68
119
51
68
119
51
119
170
51
119
170
136
136
170
187
119
85
187
221
68
119
170
51
119
170
51
119
170
51
119
170
51
119
170
51
119
170
51
119
170
51
119
170
51
119
68
68
119
68
68
187
119
85
187
221
68
187
221
68
119
170
51
119
170
51
119
170
51
119
170
51
51
119
68
119
170
51
51
119
68
119
170
51
119
170
51
51
119
68
119
170
51
51
119
68
119
170
51
119
170
51
119
170
51
119
170
51
187
119
85
187
119
85
187
221
68
119
170
51
119
170
51
51
119
68
51
68
119
51
119
68
51
68
119
119
170
51
119
170
51
51
68
119
51
51
51
51
68
119
51
68
119
51
119
170
119
170
51
119
170
51
51
68
119
51
119
68
119
170
51
119
170
51
51
68
119
51
68
119
51
68
119
51
68
119
51
68
119
51
68
119
51
68
119
51
119
68
51
68
119
51
68
119
51
119
170
119
170
51
51
68
119
51
68
119
119
170
51
51
119
170
51
68
119
51
68
119
51
68
119
51
68
119
51
119
170
51
68
119
51
68
119
51
68
119
51
68
119
51
68
119
51
68
119
51
68
119
51
68
119
51
68
119
51
119
170
51
119
170
51
68
119
51
68
119
51
68
119
51
68
119
51
119
170
51
68
119
51
68
119
51
68
119
51
68
119
51
68
119
51
68
119
51
68
119
51
68
119
51
68
119
85
238
238
51
119
170
51
68
119
51
68
119
51
68
119
51
68
119
51
119
170
51
68
119
51
68
119
51
68
119
51
68
119
51
68
119
51
68
119
51
68
119
51
68
119
51
68
119
51
119
170
119
170
51
119
170
51
119
170
51
119
170
51
119
170
51
119
170
51
119
170
51
119
170
51
119
170
51
119
170
51
119
170
51
119
170
51
119
170
51
119
170
51
119
170
51
119
170
51
119
170
51
119
170
51
119
170
51
119
170
51
119
170
51
119
170
51
119
170
51
119
170
51
119
170
51
119
170
51
119
170
51
119
170
51
119
170
51
119
170
51
119
170
51
119
170
51
119
170
51
119
170
51
119
170
51
119
170
51
119
170
51
119
170
51
119
170
51
119
170
51
119
170
51
119
170
51
187
221
68
51
119
68
119
170
51
119
170
51
119
170
51
119
170
51
119
170
51
119
170
51
119
170
51
187
119
85
187
119
85
187
119
85
119
170
51
119
170
51
187
221
68
119
170
51
119
170
51
119
170
51
119
170
51
119
170
51
187
119
85
119
170
51
119
170
51
119
170
51
119
170
51
153
85
85
153
85
85
119
170
51
119
170
51
119
170
51
119
170
51
119
170
51
119
170
51
119
170
51
187
119
85
187
119
85
187
119
85
119
170
51
119
170
51
119
170
51
187
119
85
187
119
85
187
221
68
51
119
68
119
170
51
119
170
51
119
170
51
119
170
51
119
170
51
119
170
51
68
85
85
187
119
85
119
170
51
119
170
51
187
119
85
187
119
85
187
119
85
238
204
153
238
204
153
238
204
153
187
119
85
238
204
153
238
204
153
238
204
153
119
170
51
119
170
51
238
204
153
187
119
85
238
204
153
187
119
85
187
119
85
238
204
153
238
204
153
238
204
153
238
204
153
238
204
153
187
119
85
187
119
85
238
204
153
238
204
153
238
204
153
238
204
153
238
204
153
238
204
153
119
170
51
238
204
153
119
170
51
187
119
85
238
204
153
238
204
153
238
204
153
238
204
153
238
204
153
238
204
153
187
119
85
187
119
85
119
170
51
238
204
153
238
204
153
187
119
85
238
204
153
119
170
51
187
119
85
187
119
85
187
119
85
187
119
85
119
170
51
119
170
51
119
170
51
119
170
51
187
119
85
187
119
85
119
170
51
187
119
85
187
119
85
187
119
85
187
119
85
119
170
51
119
170
51
119
170
51
238
204
153
187
119
85
119
170
51
119
170
51
119
170
51
187
119
85
51
119
68
187
119
85
119
170
51
187
119
85
119
170
51
119
170
51
187
119
85
119
170
51
119
170
51
238
153
102
119
170
51
119
170
51
119
170
51
238
153
102
187
119
85
187
119
85
187
119
85
51
119
68
187
119
85
187
119
85
187
119
85
119
170
51
187
119
85
119
170
51
119
170
51
119
170
51
119
170
51
119
170
51
51
119
68
119
170
51
51
51
51
51
68
119
51
119
170
119
68
68
187
119
85
187
119
85
187
221
68
119
170
51
119
170
51
119
170
51
119
170
51
119
170
51
51
51
51
119
170
51
51
51
51
119
170
51
119
170
51
119
170
51
119
170
51
51
119
68
119
170
51
51
119
68
119
170
51
119
170
51
119
170
51
51
119
68
51
119
68
119
170
51
119
170
51
119
170
51
119
170
51
51
119
68
119
170
51
119
170
51
119
170
51
119
170
51
119
170
51
119
170
51
119
170
51
119
170
51
119
170
51
119
170
51
51
68
119
51
119
68
51
68
119
51
119
170
51
119
170
51
68
119
51
68
119
51
68
119
119
170
51
51
119
170
119
170
51
51
68
119
51
68
119
51
68
119
51
119
170
119
170
51
51
119
68
51
68
119
51
119
68
51
68
119
119
170
51
119
170
51
51
68
119
51
68
119
51
68
119
51
119
170
51
119
170
51
119
68
51
68
119
51
119
68
51
68
119
119
170
51
51
119
170
51
119
170
51
119
170
51
119
170
51
119
170
51
68
119
51
119
170
51
119
170
51
119
170
51
119
170
51
119
170
51
68
119
51
68
119
51
68
119
51
119
170
51
119
170
51
119
170
51
119
170
51
119
170
51
119
170
51
119
170
51
68
119
51
119
170
51
119
170
51
119
170
51
119
170
51
119
170
51
68
119
51
68
119
51
68
119
51
119
170
51
119
170
51
119
170
51
119
170
51
119
170
51
119
170
51
119
170
51
68
119
51
119
170
51
119
170
51
119
170
51
119
170
51
119
170
51
68
119
51
68
119
51
68
119
51
119
170
51
119
170
119
170
51
119
170
51
51
119
68
119
170
51
119
170
51
119
170
51
119
170
51
119
170
51
119
170
51
119
170
51
119
170
51
119
170
51
119
170
51
119
170
51
119
170
51
119
170
51
119
170
51
119
170
51
119
170
51
119
170
51
119
170
51
119
170
51
119
170
51
119
170
51
119
170
51
119
170
51
119
170
51
119
170
51
119
170
51
119
170
51
119
170
51
119
170
51
119
170
51
119
170
51
119
170
51
119
170
51
119
170
51
119
170
51
119
170
51
119
170
51
119
170
51
119
170
51
119
170
51
119
170
51
119
170
51
119
170
51
119
170
51
119
170
51
119
170
51
119
170
51
119
170
51
187
119
85
119
170
51
119
170
51
119
170
51
119
170
51
119
170
51
119
170
51
119
170
51
119
170
51
119
170
51
119
170
51
119
170
51
119
170
51
119
170
51
119
170
51
119
170
51
119
170
51
119
170
51
119
170
51
119
170
51
119
170
51
119
170
51
119
170
51
187
119
85
187
119
85
187
119
85
119
170
51
119
170
51
119
170
51
119
170
51
119
170
51
119
170
51
119
170
51
119
170
51
119
170
51
119
170
51
119
170
51
119
170
51
119
170
51
119
170
51
119
170
51
187
119
85
187
119
85
119
170
51
119
170
51
238
204
153
187
119
85
187
119
85
119
170
51
119
170
51
238
204
153
238
204
153
119
170
51
119
170
51
238
204
153
238
204
153
119
170
51
119
170
51
238
204
153
238
204
153
238
204
153
119
170
51
238
204
153
187
119
85
238
204
153
119
170
51
119
170
51
238
204
153
238
204
153
119
170
51
187
119
85
238
204
153
119
170
51
119
170
51
238
204
153
187
119
85
119
170
51
119
170
51
119
170
51
187
119
85
238
204
153
119
170
51
119
170
51
119
170
51
119
170
51
238
204
153
238
204
153
119
170
51
119
170
51
238
204
153
238
204
153
119
170
51
119
170
51
187
119
85
187
119
85
187
119
85
119
170
51
119
170
51
119
170
51
187
119
85
187
119
85
119
170
51
119
170
51
119
170
51
119
170
51
187
119
85
187
119
85
119
170
51
119
170
51
119
170
51
187
119
85
119
170
51
119
170
51
119
170
51
187
119
85
119
170
51
119
170
51
119
170
51
119
170
51
119
170
51
119
170
51
119
170
51
119
170
51
119
170
51
119
170
51
119
170
51
119
170
51
119
170
51
119
170
51
187
119
85
119
170
51
119
170
51
187
119
85
187
119
85
187
119
85
187
119
85
187
119
85
119
170
51
119
170
51
119
170
51
119
170
51
119
170
51
119
170
51
119
170
51
119
170
51
119
170
51
119
170
51
119
170
51
119
170
51
119
170
51
119
170
51
119
170
51
119
170
51
119
170
51
119
170
51
119
170
51
119
170
51
119
170
51
119
170
51
119
170
51
51
51
51
119
170
51
119
170
51
119
170
51
119
170
51
119
170
51
119
170
51
51
119
68
119
170
51
119
170
51
119
170
51
119
170
51
119
170
51
119
170
51
119
170
51
119
170
51
119
170
51
119
170
51
119
170
51
119
170
51
119
170
51
119
170
51
119
170
51
119
170
51
119
170
51
119
170
51
119
170
51
119
170
51
119
170
51
51
68
119
51
68
119
51
119
170
119
170
51
119
170
51
119
170
51
51
68
119
51
119
170
51
119
170
119
170
51
119
170
51
119
170
51
51
119
170
51
119
170
119
170
51
119
170
51
51
68
119
51
119
68
119
170
51
119
170
51
51
68
119
119
170
51
119
170
51
51
68
119
51
119
170
119
170
51
119
170
51
51
68
119
51
119
68
119
170
51
119
170
51
119
170
51
119
170
51
119
170
51
51
68
119
51
68
119
119
170
51
119
170
51
51
68
119
51
68
119
119
170
51
119
170
51
119
170
51
119
170
51
51
68
119
119
170
51
119
170
51
119
170
51
119
170
51
119
170
51
238
204
68
119
170
51
238
153
102
119
170
51
238
204
68
119
170
51
119
170
51
119
170
51
119
170
51
119
170
51
119
170
51
119
170
51
119
170
51
119
170
51
119
170
51
119
170
51
119
170
51
119
170
51
119
170
51
119
170
51
119
170
51
119
170
51
119
170
51
119
170
51
119
170
51
119
170
51
119
170
51
119
170
51
119
170
51
119
170
51
119
170
51
119
170
51
119
170
51
238
204
68
119
170
51
119
170
51
119
170
51
119
170
51
119
170
51
119
170
51
119
170
51
119
170
51
119
170
51
119
170
51
119
170
51
119
170
51
119
170
51
119
170
51
119
170
51
119
170
51
119
68
68
119
68
68
119
68
68
51
119
68
119
170
51
119
170
51
119
68
68
102
51
68
119
68
68
51
119
68
119
170
51
119
170
51
119
170
51
119
170
51
119
68
68
51
119
68
119
170
51
119
170
51
119
68
68
119
68
68
51
119
68
51
119
68
119
170
51
119
170
51
119
170
51
119
68
68
51
119
68
119
170
51
119
68
68
119
68
68
51
119
68
119
170
51
119
68
68
119
68
68
51
119
68
51
119
68
119
170
51
119
170
51
119
68
68
119
68
68
51
119
68
51
119
68
119
170
51
119
170
51
119
170
51
119
170
51
221
238
238
221
238
238
119
170
51
119
170
51
119
170
51
119
68
68
119
68
68
119
68
68
119
170
51
119
170
51
119
170
51
221
238
238
119
170
51
119
170
51
119
170
51
119
170
51
119
68
68
119
68
68
119
170
51
119
170
51
119
68
68
119
170
51
119
170
51
119
68
68
187
187
221
119
170
51
119
170
51
119
68
68
119
68
68
119
170
51
119
68
68
119
68
68
119
170
51
119
170
51
119
68
68
119
68
68
119
170
51
119
170
51
119
170
51
119
68
68
119
68
68
119
170
51
119
170
51
119
170
51
119
68
68
119
68
68
119
170
51
221
238
238
119
170
51
119
170
51
119
170
51
221
238
238
119
170
51
119
170
51
119
170
51
221
238
238
255
255
255
255
255
255
187
187
221
221
238
238
119
170
51
119
170
51
119
170
51
119
170
51
119
170
51
255
255
255
187
187
221
221
238
238
221
238
238
255
255
255
119
170
51
119
170
51
119
170
51
221
238
238
221
238
238
255
255
255
255
255
255
119
170
51
119
170
51
221
238
238
255
255
255
221
238
238
221
238
238
221
238
238
187
187
221
119
68
68
119
170
51
119
170
51
221
238
238
221
238
238
255
255
255
255
255
255
255
255
255
119
170
51
119
170
51
119
170
51
187
119
85
119
170
51
119
170
51
119
170
51
187
119
85
119
170
51
119
170
51
119
170
51
119
170
51
119
170
51
119
170
51
119
170
51
119
170
51
119
170
51
119
170
51
119
170
51
119
170
51
119
170
51
119
170
51
187
119
85
119
170
51
119
170
51
187
119
85
187
119
85
187
119
85
187
119
85
187
119
85
119
170
51
119
170
51
119
170
51
119
170
51
119
170
51
119
170
51
119
170
51
119
170
51
119
170
51
119
170
51
119
170
51
119
170
51
119
170
51
119
170
51
119
170
51
119
170
51
119
170
51
119
170
51
119
170
51
119
170
51
51
119
68
187
221
68
119
170
51
187
221
68
51
119
68
119
170
51
119
170
51
51
119
68
119
170
51
119
170
51
51
119
68
187
221
68
119
170
51
119
170
51
119
170
51
119
170
51
119
170
51
119
170
51
51
119
68
187
221
68
119
170
51
119
170
51
119
170
51
51
119
68
187
221
68
119
170
51
187
221
68
51
119
68
51
119
68
119
170
51
119
170
51
119
170
51
187
119
85
51
119
68
119
170
51
119
170
51
187
221
68
119
170
51
51
119
68
51
119
68
187
119
85
119
170
51
119
170
51
187
221
68
51
119
68
119
170
51
119
170
51
119
170
51
51
119
68
119
170
51
119
170
51
51
119
68
119
170
51
119
170
51
119
170
51
119
170
51
51
119
68
119
170
51
51
119
68
119
170
51
119
170
51
119
170
51
119
170
51
119
170
51
51
68
119
51
68
119
51
68
119
51
119
170
51
119
68
51
68
119
51
119
68
51
68
119
51
68
119
51
119
68
119
170
51
51
119
68
51
68
119
51
68
119
119
170
51
238
204
68
119
170
51
119
170
51
238
204
68
238
153
102
238
204
68
119
170
51
238
153
102
119
170
51
119
170
51
119
170
51
119
170
51
119
170
51
119
170
51
119
170
51
119
170
51
119
170
51
119
170
51
119
170
51
119
170
51
119
170
51
119
170
51
119
170
51
119
170
51
238
204
68
119
170
51
238
153
102
119
170
51
238
204
68
119
170
51
119
170
51
119
170
51
238
204
68
119
170
51
187
119
85
238
204
68
238
153
102
119
170
51
238
204
68
119
170
51
119
170
51
119
170
51
119
170
51
119
170
51
119
170
51
119
170
51
119
170
51
119
170
51
119
170
51
119
170
51
119
170
51
119
68
68
119
68
68
119
68
68
119
68
68
51
119
68
119
170
51
119
68
68
119
68
68
119
68
68
102
51
68
119
68
68
51
119
68
119
170
51
119
170
51
187
119
85
119
68
68
119
68
68
51
119
68
119
68
68
119
68
68
119
68
68
119
68
68
51
119
68
119
68
68
51
119
68
119
68
68
119
68
68
51
119
68
119
170
51
119
68
68
51
119
68
119
68
68
187
119
85
119
68
68
187
119
85
119
68
68
119
68
68
119
68
68
119
68
68
119
68
68
119
68
68
119
68
68
119
68
68
119
68
68
119
170
51
119
170
51
221
238
238
221
238
238
187
187
221
119
68
68
119
68
68
119
68
68
119
68
68
119
68
68
119
68
68
119
68
68
119
68
68
221
238
238
119
119
119
221
238
238
119
170
51
119
170
51
221
238
238
221
238
238
119
68
68
119
68
68
119
170
51
119
68
68
119
68
68
221
238
238
221
238
238
119
68
68
119
68
68
119
68
68
119
170
51
119
170
51
119
170
51
119
68
68
119
68
68
119
68
68
119
68
68
119
68
68
119
68
68
187
187
221
221
238
238
119
170
51
119
170
51
119
170
51
119
68
68
119
68
68
119
68
68
238
204
153
119
68
68
119
170
51
119
170
51
221
238
238
221
238
238
119
170
51
119
170
51
187
187
221
221
238
238
119
170
51
119
68
68
255
255
255
255
255
255
255
255
255
187
187
221
221
238
238
119
170
51
119
170
51
119
170
51
119
170
51
119
170
51
187
187
221
119
68
68
187
187
221
221
238
238
255
255
255
119
170
51
119
170
51
119
170
51
187
187
221
221
238
238
255
255
255
255
255
255
255
255
255
255
255
255
221
238
238
187
187
221
119
68
68
221
238
238
255
255
255
187
187
221
119
68
68
119
68
68
221
238
238
221
238
238
255
255
255
221
238
238
255
255
255
255
255
255
119
170
51
119
170
51
119
170
51
119
170
51
119
170
51
119
170
51
119
170
51
119
170
51
119
170
51
119
170
51
119
170
51
119
170
51
119
170
51
119
170
51
119
170
51
119
170
51
119
170
51
119
170
51
119
170
51
119
170
51
119
170
51
119
170
51
119
170
51
119
170
51
119
170
51
119
170
51
119
170
51
119
170
51
119
170
51
119
170
51
119
170
51
51
119
68
119
170
51
119
170
51
119
170
51
119
170
51
119
170
51
119
170
51
119
170
51
119
170
51
119
170
51
119
170
51
119
170
51
119
170
51
119
170
51
119
170
51
119
170
51
119
170
51
119
170
51
119
68
68
187
221
68
187
221
68
51
119
68
119
170
51
187
119
85
51
119
68
187
221
68
119
170
51
187
221
68
51
119
68
153
85
85
238
153
102
119
170
51
119
170
51
119
170
51
119
170
51
187
221
68
187
221
68
187
221
68
187
221
68
187
119
85
51
119
68
51
119
68
51
119
68
119
170
51
187
119
85
51
119
68
238
153
102
187
221
68
119
170
51
119
170
51
238
153
102
187
221
68
119
170
51
187
221
68
119
170
51
119
170
51
119
170
51
187
119
85
187
221
68
238
153
102
187
221
68
187
221
68
119
170
51
187
221
68
119
170
51
119
170
51
119
170
51
51
119
68
51
119
68
119
170
51
51
119
68
119
170
51
187
221
68
119
170
51
187
221
68
51
119
68
51
119
68
51
119
68
51
119
68
51
119
68
119
170
51
51
68
119
51
68
119
119
170
51
51
68
119
51
68
119
51
119
170
51
119
68
51
68
119
51
68
119
51
68
119
119
170
51
51
119
68
119
170
51
119
170
51
119
170
51
119
170
51
119
170
51
238
204
68
238
153
102
238
204
68
238
153
102
238
204
68
238
153
102
119
170
51
119
170
51
119
170
51
119
170
51
119
170
51
119
170
51
119
170
51
119
170
51
119
170
51
119
170
51
119
170
51
119
170
51
119
170
51
119
170
51
119
170
51
238
204
68
238
153
102
119
170
51
238
204
68
238
153
102
238
204
68
119
170
51
238
153
102
119
170
51
119
170
51
238
204
68
119
170
51
238
204
68
238
204
68
238
153
102
238
204
68
119
170
51
119
170
51
238
153
102
119
170
51
119
170
51
119
170
51
119
170
51
119
170
51
119
170
51
119
170
51
119
170
51
119
170
51
119
170
51
119
170
51
119
68
68
51
119
68
119
68
68
119
68
68
51
119
68
119
68
68
187
187
221
119
68
68
102
51
68
119
68
68
51
119
68
119
170
51
119
170
51
119
68
68
119
68
68
119
68
68
119
68
68
119
68
68
119
68
68
102
51
68
102
51
68
119
68
68
51
119
68
119
68
68
187
187
221
119
68
68
119
68
68
51
119
68
51
119
68
119
170
51
119
170
51
119
68
68
187
119
85
119
68
68
119
68
68
119
68
68
238
153
102
119
68
68
187
187
221
119
68
68
119
68
68
119
170
51
119
170
51
119
170
51
119
170
51
119
68
68
221
238
238
119
68
68
119
68
68
119
68
68
187
187
221
119
68
68
153
153
136
119
68
68
153
153
136
119
68
68
187
187
221
221
238
238
119
68
68
119
170
51
119
170
51
221
238
238
119
68
68
119
68
68
119
68
68
119
68
68
119
68
68
187
187
221
221
238
238
119
68
68
119
68
68
119
68
68
153
153
136
119
68
68
153
153
136
119
170
51
119
68
68
119
68
68
238
204
153
119
68
68
119
68
68
187
187
221
221
238
238
119
119
119
119
68
68
119
68
68
119
170
51
119
68
68
187
187
221
119
68
68
119
68
68
119
170
51
119
170
51
255
255
255
187
187
221
221
238
238
255
255
255
119
170
51
119
68
68
119
68
68
187
187
221
119
68
68
187
187
221
221
238
238
255
255
255
119
68
68
255
255
255
119
170
51
119
170
51
221
238
238
255
255
255
255
255
255
221
238
238
187
187
221
119
68
68
119
68
68
221
238
238
255
255
255
119
170
51
119
170
51
255
255
255
119
68
68
187
187
221
255
255
255
119
170
51
255
255
255
255
255
255
187
187
221
119
68
68
119
68
68
187
187
221
255
255
255
119
68
68
187
187
221
187
187
221
119
68
68
187
187
221
255
255
255
221
238
238
255
255
255
119
170
51
238
153
102
119
170
51
204
204
187
119
170
51
119
170
51
119
170
51
119
170
51
119
170
51
119
170
51
119
170
51
119
170
51
119
170
51
119
170
51
119
170
51
119
170
51
119
170
51
187
119
85
119
170
51
119
170
51
119
170
51
51
119
68
51
119
68
119
170
51
51
119
68
119
170
51
204
204
187
153
153
136
119
170
51
119
170
51
187
119
85
119
170
51
119
170
51
119
170
51
119
170
51
119
170
51
119
170
51
119
170
51
238
153
102
119
170
51
51
119
68
119
170
51
51
119
68
119
170
51
119
170
51
119
170
51
119
170
51
119
170
51
187
221
68
153
85
85
187
119
85
51
119
68
119
170
51
119
170
51
238
153
102
187
221
68
187
221
68
187
221
68
119
170
51
119
170
51
238
153
102
187
221
68
119
170
51
119
170
51
51
119
68
51
119
68
119
170
51
119
170
51
51
119
68
51
119
68
187
221
68
187
221
68
119
170
51
119
170
51
51
119
68
187
221
68
119
170
51
187
221
68
187
221
68
187
221
68
51
119
68
119
170
51
119
170
51
187
221
68
51
119
68
51
119
68
51
119
68
51
119
68
238
153
102
187
221
68
119
170
51
119
170
51
119
170
51
119
170
51
119
170
51
119
170
51
119
170
51
51
119
68
51
119
68
51
119
68
51
119
68
119
170
51
119
170
51
51
119
68
187
221
68
119
170
51
51
119
68
153
85
85
119
68
68
119
68
68
51
119
68
119
170
51
51
68
119
51
68
119
51
119
170
119
170
51
51
68
119
51
68
119
119
170
51
51
68
119
51
51
51
51
68
119
51
51
51
51
68
119
119
170
51
51
68
119
119
170
51
51
119
170
119
170
51
238
204
68
238
153
102
238
204
68
187
119
85
238
204
68
187
119
85
119
170
51
238
204
68
238
153
102
119
170
51
238
204
68
238
153
102
119
170
51
238
204
68
119
170
51
119
170
51
119
170
51
119
170
51
119
170
51
119
170
51
119
170
51
119
170
51
238
204
68
238
153
102
238
204
68
238
153
102
238
204
68
238
153
102
119
170
51
119
170
51
119
170
51
119
170
51
238
204
68
187
119
85
238
204
68
238
204
68
187
119
85
238
204
68
187
119
85
119
170
51
119
170
51
238
204
68
119
170
51
238
153
102
119
170
51
238
204
68
119
170
51
119
170
51
119
68
68
51
119
68
119
68
68
51
119
68
119
68
68
119
68
68
119
68
68
119
68
68
119
68
68
119
68
68
119
68
68
119
68
68
51
119
68
119
68
68
119
170
51
119
68
68
51
119
68
119
68
68
119
68
68
51
119
68
119
68
68
51
119
68
119
68
68
102
51
68
238
153
102
119
68
68
119
68
68
119
68
68
102
51
68
119
68
68
119
68
68
51
119
68
119
68
68
51
119
68
119
68
68
119
68
68
187
187
221
119
68
68
51
119
68
119
68
68
51
119
68
119
68
68
119
68
68
51
119
68
119
68
68
119
68
68
51
119
68
119
170
51
119
68
68
119
68
68
119
68
68
119
68
68
221
238
238
221
238
238
187
187
221
119
68
68
153
153
136
119
68
68
119
68
68
119
68
68
187
187
221
119
68
68
119
170
51
119
68
68
119
68
68
119
68
68
153
153
136
119
68
68
153
153
136
119
68
68
238
204
153
119
68
68
119
68
68
221
238
238
119
68
68
119
68
68
153
153
136
119
68
68
119
170
51
119
68
68
119
68
68
119
68
68
153
153
136
119
68
68
153
153
136
221
238
238
119
68
68
221
238
238
119
170
51
119
170
51
119
68
68
221
238
238
221
238
238
119
68
68
119
170
51
119
170
51
119
68
68
255
255
255
187
187
221
221
238
238
255
255
255
221
238
238
119
68
68
119
68
68
187
187
221
119
68
68
187
187
221
255
255
255
221
238
238
119
68
68
221
238
238
255
255
255
255
255
255
187
187
221
255
255
255
255
255
255
119
68
68
119
68
68
187
187
221
119
68
68
255
255
255
221
238
238
221
238
238
255
255
255
187
187
221
119
68
68
255
255
255
119
170
51
255
255
255
255
255
255
255
255
255
187
187
221
119
68
68
119
68
68
187
187
221
255
255
255
255
255
255
119
68
68
119
68
68
119
68
68
221
238
238
255
255
255
187
187
221
119
170
51
119
170
51
204
204
187
119
119
119
51
119
68
119
170
51
51
119
68
51
119
68
119
170
51
51
119
68
119
170
51
119
170
51
51
119
68
119
170
51
119
170
51
119
170
51
51
119
68
119
170
51
119
170
51
119
170
51
119
170
51
119
170
51
51
119
68
51
119
68
119
170
51
187
119
85
119
119
119
85
85
85
51
119
68
119
170
51
187
119
85
187
119
85
119
170
51
119
170
51
51
119
68
119
170
51
51
119
68
119
170
51
119
170
51
119
170
51
119
170
51
51
119
68
51
119
68
187
119
85
119
170
51
51
119
68
119
170
51
119
170
51
187
221
68
187
119
85
187
221
68
153
85
85
187
119
85
51
119
68
187
221
68
119
170
51
187
221
68
51
119
68
51
119
68
119
170
51
187
221
68
187
221
68
187
221
68
153
85
85
187
221
68
187
221
68
119
170
51
51
119
68
119
170
51
187
221
68
187
221
68
51
119
68
51
119
68
51
119
68
51
119
68
187
221
68
187
221
68
119
170
51
119
170
51
187
221
68
119
170
51
119
170
51
187
221
68
187
221
68
119
170
51
187
221
68
51
119
68
187
119
85
51
119
68
119
170
51
119
170
51
187
221
68
119
170
51
119
170
51
51
119
68
119
170
51
51
119
68
153
85
85
119
68
68
119
68
68
51
119
68
51
119
68
119
170
51
119
170
51
119
170
51
51
119
68
119
170
51
119
170
51
51
119
170
51
119
170
153
85
85
51
119
68
51
119
170
51
119
170
119
170
51
119
170
51
119
170
51
51
68
119
119
170
51
51
68
119
51
68
119
51
51
51
119
170
51
119
170
51
119
170
51
119
170
51
51
68
119
51
119
170
119
170
51
238
204
68
187
119
85
238
153
102
187
119
85
238
204
68
187
119
85
51
119
68
51
119
68
238
204
68
238
153
102
238
204
68
238
153
102
238
204
68
119
170
51
238
153
102
119
170
51
119
170
51
119
170
51
119
170
51
119
170
51
119
170
51
119
170
51
238
204
68
238
153
102
238
204
68
187
119
85
238
204
68
187
119
85
119
170
51
119
170
51
119
170
51
238
153
102
238
204
68
238
153
102
238
204
68
238
204
68
238
153
102
238
204
68
187
119
85
238
204
68
119
170
51
119
170
51
238
204
68
238
153
102
238
204
68
119
170
51
238
153
102
119
68
68
119
68
68
119
68
68
119
68
68
119
68
68
119
68
68
187
187
221
119
68
68
119
68
68
51
119
68
119
68
68
51
119
68
119
68
68
119
68
68
119
68
68
51
119
68
119
68
68
51
119
68
119
68
68
119
68
68
119
68
68
51
119
68
119
68
68
119
68
68
119
68
68
119
68
68
119
68
68
119
68
68
102
51
68
102
51
68
51
119
68
119
68
68
51
119
68
51
119
68
119
170
51
119
170
51
119
68
68
119
68
68
119
68
68
119
68
68
51
119
68
119
68
68
119
68
68
51
119
68
119
68
68
51
119
68
119
68
68
119
68
68
119
170
51
119
68
68
119
68
68
119
68
68
221
238
238
119
119
119
221
238
238
119
68
68
119
68
68
119
68
68
221
238
238
187
187
221
119
68
68
119
68
68
119
68
68
119
68
68
119
170
51
119
68
68
119
68
68
119
68
68
153
153
136
119
68
68
119
68
68
119
68
68
119
68
68
221
238
238
119
119
119
221
238
238
119
68
68
119
68
68
221
238
238
119
170
51
119
170
51
119
68
68
119
68
68
119
68
68
153
153
136
221
238
238
119
119
119
221
238
238
119
68
68
119
68
68
119
68
68
187
187
221
221
238
238
119
68
68
119
68
68
119
170
51
119
68
68
255
255
255
255
255
255
119
68
68
119
68
68
255
255
255
255
255
255
255
255
255
221
238
238
221
238
238
119
68
68
119
68
68
187
187
221
255
255
255
221
238
238
255
255
255
255
255
255
187
187
221
119
68
68
119
68
68
187
187
221
221
238
238
187
187
221
119
68
68
119
68
68
187
187
221
255
255
255
221
238
238
187
187
221
119
68
68
119
68
68
187
187
221
221
238
238
187
187
221
255
255
255
255
255
255
255
255
255
187
187
221
187
187
221
119
68
68
221
238
238
255
255
255
187
187
221
119
68
68
119
68
68
187
187
221
221
238
238
119
68
68
119
170
51
51
119
68
85
85
85
85
85
85
119
170
51
119
170
51
187
119
85
51
119
68
51
119
68
119
170
51
187
119
85
51
119
68
119
170
51
51
119
68
119
170
51
119
170
51
119
170
51
119
170
51
119
170
51
51
119
68
119
170
51
119
170
51
119
170
51
119
170
51
119
170
51
119
170
51
51
119
68
119
170
51
51
119
68
51
119
68
119
170
51
119
170
51
119
170
51
119
170
51
119
170
51
51
119
68
187
119
85
119
170
51
119
170
51
119
170
51
187
119
85
187
119
85
187
119
85
119
170
51
119
170
51
238
153
102
51
119
68
119
170
51
119
170
51
187
221
68
187
221
68
51
119
68
238
153
102
119
170
51
187
221
68
187
221
68
187
221
68
119
68
68
187
119
85
187
221
68
119
170
51
119
170
51
187
221
68
119
170
51
187
119
85
119
170
51
119
170
51
187
221
68
187
221
68
187
221
68
119
170
51
51
119
68
119
170
51
119
68
68
51
119
68
51
119
68
119
68
68
153
85
85
51
119
68
119
170
51
119
170
51
187
221
68
187
221
68
51
119
68
187
119
85
187
221
68
187
221
68
119
170
51
51
119
68
119
170
51
187
221
68
187
221
68
119
170
51
119
68
68
187
221
68
119
170
51
51
119
68
119
68
68
51
119
170
51
119
170
153
85
85
51
119
68
51
119
68
51
119
68
119
170
51
51
119
68
119
68
68
51
119
170
34
204
221
34
204
221
238
204
153
51
119
68
119
170
51
119
170
51
51
68
119
51
119
170
119
170
51
51
68
119
51
68
119
119
170
51
119
170
51
51
68
119
51
119
170
51
119
170
119
170
51
51
68
119
51
68
119
119
170
51
51
119
68
238
153
102
238
204
68
51
119
68
238
204
68
238
153
102
153
85
85
51
119
68
51
119
68
238
204
68
238
204
68
238
153
102
238
204
68
238
153
102
187
119
85
119
170
51
119
170
51
119
170
51
119
170
51
119
170
51
238
204
68
119
170
51
119
170
51
238
204
68
187
119
85
238
153
102
187
119
85
238
204
68
187
119
85
51
119
68
51
119
68
119
170
51
238
153
102
238
204
68
238
153
102
187
119
85
238
204
68
238
153
102
187
119
85
153
85
85
51
119
68
238
204
68
238
153
102
238
204
68
238
153
102
238
204
68
238
153
102
119
170
51
119
68
68
119
68
68
119
68
68
119
68
68
119
68
68
119
68
68
119
68
68
119
68
68
119
68
68
119
68
68
119
170
51
119
68
68
119
68
68
119
68
68
119
68
68
51
119
68
119
170
51
119
68
68
102
51
68
119
68
68
119
68
68
119
68
68
119
68
68
187
187
221
119
68
68
187
119
85
119
68
68
187
119
85
119
68
68
119
68
68
51
119
68
119
170
51
51
119
68
119
68
68
119
68
68
51
119
68
119
68
68
119
68
68
119
68
68
102
51
68
119
68
68
119
68
68
119
68
68
119
68
68
119
68
68
119
170
51
119
68
68
119
68
68
119
170
51
119
68
68
119
68
68
119
68
68
187
187
221
221
238
238
119
68
68
119
68
68
119
68
68
119
68
68
119
68
68
221
238
238
187
187
221
119
68
68
119
68
68
119
68
68
119
170
51
119
170
51
119
68
68
119
68
68
119
68
68
119
68
68
119
68
68
119
68
68
119
68
68
119
68
68
119
68
68
119
68
68
119
68
68
221
238
238
221
238
238
119
68
68
119
170
51
221
238
238
119
68
68
119
68
68
119
68
68
187
187
221
119
68
68
119
68
68
238
204
153
119
68
68
119
68
68
119
68
68
119
68
68
119
68
68
119
68
68
119
68
68
119
68
68
119
68
68
255
255
255
255
255
255
119
68
68
119
68
68
187
187
221
221
238
238
255
255
255
221
238
238
119
68
68
187
187
221
221
238
238
255
255
255
187
187
221
119
68
68
255
255
255
255
255
255
187
187
221
119
68
68
119
68
68
255
255
255
221
238
238
255
255
255
187
187
221
119
68
68
187
187
221
255
255
255
255
255
255
255
255
255
187
187
221
119
68
68
255
255
255
221
238
238
187
187
221
187
187
221
255
255
255
255
255
255
221
238
238
187
187
221
255
255
255
221
238
238
255
255
255
187
187
221
119
68
68
119
68
68
187
187
221
119
68
68
119
170
51
119
170
51
119
170
51
119
170
51
119
170
51
119
170
51
119
170
51
119
170
51
119
170
51
119
170
51
51
119
68
51
119
68
187
119
85
119
170
51
119
170
51
119
170
51
119
170
51
119
170
51
187
119
85
119
170
51
51
119
68
187
119
85
119
170
51
238
153
102
119
170
51
119
170
51
51
119
68
51
119
68
119
170
51
119
170
51
119
170
51
51
119
68
119
170
51
119
170
51
119
170
51
119
170
51
119
170
51
119
170
51
119
170
51
204
204
187
119
170
51
119
170
51
187
119
85
119
170
51
119
170
51
119
170
51
119
170
51
119
170
51
119
170
51
119
170
51
119
170
51
51
119
68
119
170
51
187
221
68
187
221
68
187
221
68
51
119
68
238
153
102
119
170
51
187
221
68
119
170
51
51
119
68
119
170
51
119
170
51
119
170
51
119
170
51
187
221
68
187
221
68
187
221
68
119
68
68
119
170
51
51
119
68
119
68
68
187
119
85
238
153
102
119
170
51
187
221
68
187
119
85
51
119
68
119
170
51
119
170
51
187
221
68
187
221
68
51
119
68
51
119
68
51
119
68
187
221
68
51
119
68
51
119
68
51
119
68
187
221
68
119
68
68
119
170
51
153
85
85
187
119
85
187
221
68
51
119
68
119
68
68
51
119
170
34
204
221
51
119
170
153
85
85
51
119
68
51
119
68
119
170
51
51
119
68
153
85
85
34
204
221
34
204
221
255
255
255
238
153
102
51
119
68
119
170
51
51
68
119
51
68
119
51
68
119
51
119
170
51
119
68
119
170
51
51
119
68
119
170
51
51
68
119
51
68
119
51
68
119
51
119
170
51
68
119
51
68
119
51
119
170
119
170
51
51
119
68
51
119
68
119
170
51
51
119
68
51
119
68
51
119
68
119
170
51
119
170
51
238
153
102
238
204
68
187
119
85
238
204
68
238
153
102
187
119
85
119
170
51
119
170
51
238
204
68
119
170
51
187
119
85
238
204
68
238
153
102
119
170
51
238
204
68
238
204
68
51
119
68
238
204
68
238
153
102
153
85
85
51
119
68
51
119
68
51
119
68
51
119
68
238
153
102
187
119
85
51
119
68
238
153
102
187
119
85
51
119
68
51
119
68
51
119
68
238
204
68
238
153
102
238
204
68
187
119
85
238
204
68
187
119
85
119
170
51
51
119
68
119
68
68
187
187
221
119
68
68
102
51
68
102
51
68
238
153
102
119
68
68
119
68
68
119
68
68
119
68
68
119
68
68
119
68
68
102
51
68
119
68
68
119
68
68
119
170
51
102
51
68
119
68
68
187
187
221
119
68
68
119
68
68
119
68
68
119
68
68
119
68
68
119
68
68
187
119
85
119
68
68
187
187
221
187
119
85
119
68
68
51
119
68
119
170
51
119
68
68
187
187
221
119
68
68
119
68
68
102
51
68
102
51
68
119
68
68
187
119
85
119
68
68
187
119
85
119
68
68
119
170
51
119
68
68
119
68
68
119
68
68
119
68
68
119
68
68
153
153
136
119
68
68
153
153
136
119
68
68
119
68
68
119
68
68
119
68
68
187
187
221
187
187
221
221
238
238
119
68
68
119
68
68
119
68
68
119
68
68
119
68
68
221
238
238
221
238
238
119
68
68
119
68
68
119
68
68
221
238
238
119
68
68
153
153
136
119
68
68
153
153
136
119
68
68
187
187
221
221
238
238
119
119
119
119
68
68
119
170
51
221
238
238
221
238
238
119
68
68
119
68
68
119
68
68
119
68
68
119
68
68
119
68
68
119
68
68
119
68
68
153
153
136
119
68
68
153
153
136
119
68
68
119
68
68
119
68
68
119
68
68
187
187
221
255
255
255
255
255
255
119
68
68
119
68
68
187
187
221
255
255
255
255
255
255
221
238
238
255
255
255
255
255
255
255
255
255
119
68
68
119
170
51
119
170
51
255
255
255
255
255
255
187
187
221
119
68
68
119
68
68
187
187
221
119
68
68
255
255
255
187
187
221
255
255
255
255
255
255
221
238
238
255
255
255
221
238
238
255
255
255
187
187
221
221
238
238
255
255
255
119
68
68
187
187
221
255
255
255
255
255
255
187
187
221
187
187
221
255
255
255
221
238
238
255
255
255
119
68
68
187
187
221
187
187
221
187
187
221
119
170
51
119
170
51
51
119
68
119
170
51
51
119
68
119
170
51
119
170
51
119
170
51
119
170
51
187
119
85
187
119
85
187
119
85
119
170
51
238
153
102
119
170
51
119
170
51
119
170
51
119
170
51
119
170
51
51
119
68
51
119
68
51
119
68
119
170
51
119
170
51
119
170
51
119
170
51
119
170
51
119
170
51
119
170
51
119
170
51
51
119
68
119
170
51
119
170
51
119
170
51
238
153
102
119
170
51
119
170
51
119
170
51
204
204
187
119
119
119
51
119
68
119
170
51
119
170
51
119
170
51
119
170
51
51
119
68
119
170
51
119
170
51
119
170
51
119
170
51
119
170
51
187
221
68
187
221
68
187
221
68
187
221
68
119
170
51
51
119
68
51
119
68
51
119
68
187
221
68
187
119
85
51
119
68
187
221
68
119
170
51
119
170
51
51
119
68
51
119
68
187
221
68
119
68
68
187
119
85
187
221
68
187
119
85
119
170
51
187
119
85
238
153
102
187
221
68
187
221
68
238
153
102
187
221
68
119
170
51
51
119
68
51
119
68
51
119
68
187
221
68
119
170
51
187
221
68
51
119
68
51
119
68
187
221
68
119
170
51
119
68
68
187
119
85
119
170
51
238
153
102
238
153
102
187
119
85
51
119
68
153
85
85
51
119
170
34
204
221
34
204
221
34
204
221
238
204
153
51
119
68
51
119
68
51
119
68
51
119
68
238
204
153
255
255
255
51
119
68
51
119
68
51
119
68
119
170
51
51
68
119
51
68
119
51
68
119
51
68
119
51
68
119
51
119
68
119
170
51
51
68
119
119
170
51
51
68
119
51
68
119
51
51
51
51
68
119
51
51
51
51
119
170
119
170
51
119
170
51
119
170
51
119
170
51
119
170
51
119
170
51
119
170
51
119
170
51
119
170
51
238
204
68
238
153
102
153
85
85
238
204
68
51
119
68
153
85
85
51
119
68
51
119
68
238
204
68
119
170
51
238
204
68
238
204
68
238
153
102
238
204
68
51
119
68
51
119
68
238
153
102
51
119
68
51
119
68
51
119
68
119
170
51
119
170
51
119
170
51
119
170
51
51
119
68
51
119
68
119
170
51
51
119
68
51
119
68
51
119
68
119
170
51
119
170
51
238
204
68
187
119
85
238
153
102
187
119
85
238
204
68
187
119
85
51
119
68
119
170
51
119
68
68
119
68
68
119
68
68
119
68
68
102
51
68
119
68
68
119
68
68
187
119
85
119
68
68
187
119
85
119
68
68
102
51
68
102
51
68
119
68
68
119
68
68
119
68
68
102
51
68
102
51
68
119
68
68
119
68
68
119
68
68
119
68
68
119
68
68
119
68
68
119
68
68
119
68
68
119
68
68
119
68
68
119
68
68
187
119
85
119
68
68
119
170
51
187
119
85
119
68
68
187
119
85
119
68
68
119
68
68
102
51
68
119
68
68
119
68
68
187
119
85
119
68
68
187
187
221
119
68
68
187
187
221
119
68
68
51
119
68
119
68
68
119
68
68
119
68
68
153
153
136
119
68
68
119
68
68
238
204
153
119
68
68
187
187
221
221
238
238
153
153
136
119
68
68
153
153
136
119
68
68
119
68
68
119
170
51
119
68
68
221
238
238
187
187
221
119
68
68
221
238
238
119
119
119
119
68
68
119
68
68
119
68
68
153
153
136
119
68
68
119
68
68
187
187
221
221
238
238
119
68
68
119
170
51
221
238
238
187
187
221
119
68
68
119
68
68
238
204
153
119
68
68
119
68
68
187
187
221
119
68
68
119
68
68
119
68
68
119
68
68
153
153
136
221
238
238
119
68
68
119
68
68
119
68
68
187
187
221
187
187
221
187
187
221
221
238
238
255
255
255
119
68
68
255
255
255
187
187
221
119
68
68
255
255
255
255
255
255
255
255
255
221
238
238
119
68
68
119
170
51
119
170
51
119
170
51
255
255
255
255
255
255
255
255
255
187
187
221
119
68
68
119
68
68
119
68
68
187
187
221
221
238
238
255
255
255
119
170
51
255
255
255
255
255
255
221
238
238
221
238
238
221
238
238
255
255
255
187
187
221
119
68
68
119
68
68
255
255
255
255
255
255
187
187
221
187
187
221
255
255
255
255
255
255
255
255
255
221
238
238
187
187
221
221
238
238
119
170
51
119
170
51
119
170
51
51
119
68
119
170
51
51
119
68
119
170
51
119
170
51
119
170
51
119
170
51
119
170
51
187
119
85
119
170
51
119
170
51
119
170
51
119
170
51
51
119
68
119
170
51
119
170
51
119
170
51
119
170
51
119
170
51
119
170
51
119
170
51
51
119
68
119
170
51
51
119
68
119
170
51
119
170
51
119
170
51
187
119
85
51
119
68
119
170
51
119
170
51
119
170
51
119
170
51
119
170
51
51
119
68
85
85
85
85
85
85
119
170
51
119
170
51
187
119
85
119
170
51
51
119
68
187
119
85
119
170
51
119
170
51
119
170
51
187
119
85
51
119
68
187
221
68
187
221
68
51
119
68
51
119
68
51
119
68
187
221
68
119
170
51
187
221
68
187
221
68
187
119
85
187
221
68
119
170
51
119
170
51
119
170
51
51
119
68
119
68
68
153
85
85
187
119
85
187
119
85
238
153
102
119
170
51
119
170
51
238
153
102
187
221
68
187
221
68
187
221
68
119
170
51
187
221
68
51
119
68
119
68
68
51
119
68
51
119
68
51
119
68
119
170
51
119
68
68
51
119
68
187
221
68
187
221
68
153
85
85
187
119
85
238
153
102
51
119
68
119
170
51
187
221
68
119
170
51
119
170
51
51
119
68
153
85
85
34
204
221
34
204
221
34
204
221
255
255
255
51
119
68
51
119
68
119
170
51
51
119
68
51
119
68
51
119
68
51
119
68
51
119
68
119
170
51
119
170
51
119
170
51
51
119
68
51
68
119
51
119
68
51
68
119
119
170
51
119
170
51
51
68
119
51
68
119
51
68
119
51
68
119
51
68
119
51
51
51
51
68
119
119
170
51
119
170
51
119
170
51
119
170
51
119
170
51
119
170
51
238
204
68
119
170
51
119
170
51
51
119
68
238
153
102
51
119
68
51
119
68
238
153
102
51
119
68
51
119
68
51
119
68
51
119
68
119
170
51
238
204
68
187
119
85
238
204
68
238
204
68
187
119
85
238
204
68
187
119
85
51
119
68
51
119
68
119
170
51
119
170
51
119
170
51
119
170
51
119
170
51
119
170
51
119
170
51
119
170
51
119
170
51
119
170
51
119
170
51
119
170
51
119
170
51
51
119
68
238
153
102
238
204
68
51
119
68
238
204
68
238
153
102
153
85
85
51
119
68
119
170
51
119
68
68
187
119
85
119
68
68
187
119
85
119
68
68
119
68
68
187
187
221
119
68
68
187
119
85
119
68
68
119
68
68
119
68
68
119
68
68
119
68
68
119
68
68
119
68
68
119
68
68
119
68
68
119
68
68
187
119
85
119
68
68
187
119
85
119
68
68
238
153
102
119
68
68
187
187
221
119
68
68
119
68
68
187
187
221
119
68
68
119
68
68
119
68
68
119
68
68
187
119
85
119
68
68
119
68
68
238
153
102
119
68
68
119
68
68
119
68
68
119
68
68
119
68
68
119
68
68
119
68
68
119
68
68
102
51
68
51
119
68
119
170
51
119
68
68
119
68
68
119
68
68
119
68
68
119
68
68
119
68
68
119
68
68
221
238
238
119
68
68
119
68
68
153
153
136
119
68
68
119
68
68
119
68
68
221
238
238
119
170
51
119
170
51
187
187
221
119
68
68
119
68
68
119
68
68
119
68
68
119
68
68
119
68
68
119
68
68
119
68
68
119
68
68
119
68
68
187
187
221
119
170
51
119
170
51
119
68
68
119
68
68
187
187
221
119
68
68
119
68
68
119
68
68
221
238
238
221
238
238
187
187
221
238
204
153
119
68
68
119
68
68
221
238
238
119
119
119
221
238
238
119
68
68
119
68
68
187
187
221
187
187
221
187
187
221
187
187
221
255
255
255
255
255
255
119
68
68
221
238
238
187
187
221
119
68
68
255
255
255
255
255
255
187
187
221
221
238
238
119
170
51
119
170
51
119
170
51
221
238
238
255
255
255
255
255
255
255
255
255
187
187
221
119
68
68
187
187
221
119
68
68
221
238
238
255
255
255
119
170
51
119
170
51
255
255
255
119
170
51
221
238
238
255
255
255
255
255
255
119
68
68
119
68
68
187
187
221
119
68
68
187
187
221
119
68
68
221
238
238
255
255
255
255
255
255
221
238
238
255
255
255
221
238
238
255
255
255
119
170
51
119
170
51
119
170
51
119
170
51
119
170
51
119
170
51
119
170
51
187
119
85
119
170
51
119
170
51
119
170
51
119
170
51
119
170
51
119
170
51
119
170
51
119
170
51
119
170
51
51
119
68
119
170
51
119
170
51
119
170
51
204
204
187
119
170
51
119
170
51
119
170
51
51
119
68
51
119
68
187
119
85
119
170
51
119
170
51
119
170
51
119
170
51
119
170
51
119
170
51
119
170
51
51
119
68
119
170
51
119
170
51
119
170
51
119
170
51
119
170
51
119
170
51
119
170
51
51
119
68
51
119
68
51
119
68
119
170
51
119
170
51
119
170
51
187
221
68
119
170
51
119
170
51
51
119
68
187
221
68
119
170
51
187
221
68
51
119
68
187
221
68
187
221
68
51
119
68
187
221
68
187
221
68
51
119
68
51
119
68
51
119
68
119
170
51
187
221
68
187
221
68
238
153
102
187
221
68
51
119
68
119
170
51
51
119
68
187
221
68
187
221
68
119
170
51
187
221
68
187
221
68
119
170
51
119
170
51
187
221
68
187
221
68
187
221
68
187
119
85
51
119
68
187
221
68
187
119
85
51
119
68
187
119
85
238
153
102
238
153
102
119
170
51
187
221
68
187
221
68
119
170
51
119
170
51
119
170
51
187
119
85
51
119
68
238
204
153
255
255
255
255
255
255
238
153
102
51
119
68
119
170
51
51
119
68
119
170
51
119
170
51
119
170
51
187
119
85
119
170
51
119
170
51
51
68
119
51
68
119
51
68
119
51
119
68
51
68
119
51
68
119
119
170
51
51
68
119
51
119
68
51
68
119
51
119
68
51
68
119
51
68
119
51
119
68
51
119
170
119
170
51
119
170
51
119
170
51
238
204
68
119
170
51
187
119
85
238
204
68
238
153
102
119
170
51
238
204
68
51
119
68
119
170
51
119
170
51
51
119
68
119
170
51
119
170
51
119
170
51
119
170
51
238
153
102
238
204
68
238
153
102
238
204
68
238
204
68
238
153
102
238
204
68
187
119
85
238
153
102
119
170
51
238
204
68
238
153
102
119
170
51
238
204
68
119
170
51
119
170
51
119
170
51
119
170
51
238
204
68
119
170
51
238
153
102
119
170
51
238
204
68
119
170
51
51
119
68
51
119
68
119
170
51
51
119
68
51
119
68
51
119
68
119
170
51
119
170
51
119
68
68
119
68
68
187
119
85
119
68
68
119
68
68
119
68
68
119
68
68
119
68
68
119
68
68
119
68
68
238
153
102
187
187
221
119
68
68
119
68
68
51
119
68
119
68
68
51
119
68
119
68
68
119
68
68
119
68
68
187
119
85
119
68
68
119
68
68
119
68
68
119
68
68
119
68
68
119
68
68
119
68
68
119
68
68
51
119
68
51
119
68
119
68
68
119
68
68
119
68
68
119
68
68
51
119
68
119
68
68
119
68
68
187
187
221
119
68
68
51
119
68
119
68
68
119
170
51
119
68
68
102
51
68
119
68
68
119
170
51
119
170
51
119
68
68
221
238
238
187
187
221
119
68
68
119
68
68
119
68
68
221
238
238
119
119
119
221
238
238
221
238
238
119
68
68
119
68
68
119
68
68
187
187
221
119
119
119
221
238
238
119
68
68
119
68
68
119
68
68
238
204
153
119
68
68
119
68
68
187
187
221
119
68
68
119
68
68
119
68
68
238
204
153
187
187
221
119
68
68
119
68
68
119
170
51
119
68
68
119
68
68
119
68
68
119
68
68
119
68
68
119
68
68
119
68
68
221
238
238
119
68
68
119
68
68
119
119
119
221
238
238
221
238
238
221
238
238
119
170
51
119
68
68
187
187
221
221
238
238
119
68
68
119
68
68
187
187
221
221
238
238
255
255
255
255
255
255
255
255
255
221
238
238
255
255
255
255
255
255
187
187
221
119
68
68
255
255
255
119
170
51
221
238
238
119
170
51
119
170
51
221
238
238
221
238
238
187
187
221
187
187
221
187
187
221
221
238
238
187
187
221
187
187
221
255
255
255
221
238
238
119
170
51
119
170
51
119
170
51
119
68
68
187
187
221
255
255
255
255
255
255
187
187
221
119
68
68
119
68
68
119
68
68
187
187
221
255
255
255
187
187
221
255
255
255
255
255
255
221
238
238
255
255
255
119
170
51
119
170
51
119
170
51
238
153
102
119
170
51
119
170
51
51
119
68
187
119
85
119
170
51
119
170
51
119
170
51
51
119
68
51
119
68
119
170
51
51
119
68
119
170
51
119
170
51
119
170
51
119
170
51
119
170
51
119
170
51
204
204
187
119
119
119
51
119
68
119
170
51
187
119
85
187
119
85
187
119
85
119
170
51
119
119
119
204
204
187
119
119
119
119
170
51
119
170
51
119
170
51
51
119
68
119
170
51
51
119
68
119
170
51
119
170
51
51
119
68
119
170
51
51
119
68
119
170
51
119
170
51
119
170
51
119
170
51
119
170
51
119
170
51
119
170
51
187
221
68
51
119
68
51
119
68
51
119
68
187
221
68
119
170
51
119
170
51
187
221
68
187
221
68
187
221
68
187
119
85
187
221
68
119
68
68
238
153
102
119
170
51
187
221
68
187
221
68
187
221
68
187
119
85
187
221
68
187
221
68
187
221
68
119
170
51
187
221
68
119
170
51
51
119
68
187
119
85
187
221
68
119
170
51
119
170
51
187
119
85
119
170
51
51
119
68
187
221
68
51
119
68
51
119
68
187
221
68
119
68
68
153
85
85
238
153
102
187
221
68
119
170
51
119
170
51
187
221
68
187
221
68
119
170
51
119
170
51
119
170
51
119
170
51
51
119
68
51
119
68
238
204
153
238
204
153
51
119
68
51
119
68
119
170
51
51
119
68
187
119
85
119
170
51
51
119
68
187
221
68
51
119
68
187
221
68
51
68
119
51
68
119
51
68
119
51
68
119
119
170
51
51
68
119
51
68
119
51
68
119
51
68
119
51
119
68
51
68
119
51
68
119
51
68
119
51
119
68
51
119
68
51
68
119
119
170
51
119
170
51
238
204
68
119
170
51
238
204
68
238
204
68
238
153
102
238
204
68
119
170
51
119
170
51
238
153
102
119
170
51
119
170
51
119
170
51
119
170
51
119
170
51
119
170
51
238
153
102
238
204
68
238
153
102
187
119
85
238
204
68
238
153
102
187
119
85
153
85
85
238
204
68
238
153
102
238
204
68
238
153
102
238
204
68
119
170
51
238
153
102
119
170
51
238
204
68
119
170
51
119
170
51
238
204
68
238
153
102
238
204
68
119
170
51
238
204
68
238
153
102
119
170
51
238
204
68
238
153
102
119
170
51
238
204
68
119
170
51
119
170
51
119
68
68
119
68
68
51
119
68
119
68
68
51
119
68
119
68
68
119
68
68
102
51
68
119
68
68
102
51
68
119
68
68
119
68
68
119
68
68
119
68
68
51
119
68
119
170
51
119
170
51
119
68
68
238
153
102
119
68
68
119
68
68
119
68
68
119
68
68
102
51
68
102
51
68
119
68
68
51
119
68
119
68
68
51
119
68
119
170
51
119
170
51
51
119
68
119
68
68
119
68
68
51
119
68
119
170
51
187
119
85
119
68
68
187
119
85
119
68
68
119
68
68
51
119
68
119
68
68
119
68
68
102
51
68
119
68
68
119
170
51
119
170
51
221
238
238
119
68
68
221
238
238
187
187
221
153
153
136
119
68
68
153
153
136
221
238
238
187
187
221
119
68
68
119
68
68
119
68
68
119
68
68
221
238
238
221
238
238
119
170
51
119
68
68
119
68
68
221
238
238
221
238
238
119
68
68
187
187
221
221
238
238
119
68
68
221
238
238
221
238
238
119
68
68
221
238
238
187
187
221
119
68
68
119
170
51
119
68
68
119
68
68
153
153
136
119
68
68
153
153
136
119
68
68
119
68
68
119
68
68
119
68
68
187
187
221
221
238
238
221
238
238
119
68
68
221
238
238
119
170
51
119
170
51
255
255
255
255
255
255
255
255
255
119
68
68
187
187
221
187
187
221
221
238
238
255
255
255
255
255
255
255
255
255
221
238
238
119
68
68
119
68
68
255
255
255
255
255
255
221
238
238
255
255
255
255
255
255
119
170
51
119
170
51
221
238
238
119
68
68
187
187
221
255
255
255
221
238
238
187
187
221
221
238
238
221
238
238
255
255
255
221
238
238
119
170
51
119
170
51
119
68
68
187
187
221
187
187
221
221
238
238
221
238
238
187
187
221
187
187
221
221
238
238
255
255
255
255
255
255
221
238
238
187
187
221
255
255
255
255
255
255
221
238
238
119
170
51
119
170
51
119
170
51
119
170
51
119
170
51
119
170
51
119
170
51
119
170
51
119
170
51
119
170
51
119
170
51
119
170
51
51
119
68
51
119
68
119
170
51
187
119
85
119
170
51
119
170
51
238
153
102
119
170
51
51
119
68
85
85
85
85
85
85
119
170
51
119
170
51
119
170
51
119
170
51
187
119
85
119
170
51
119
119
119
85
85
85
85
85
85
187
119
85
119
170
51
119
170
51
119
170
51
119
170
51
119
170
51
119
170
51
119
170
51
119
170
51
51
119
68
51
119
68
119
170
51
51
119
68
119
170
51
51
119
68
119
170
51
119
170
51
187
221
68
119
170
51
51
119
68
119
170
51
187
221
68
119
170
51
119
170
51
119
68
68
51
119
68
187
119
85
119
170
51
119
68
68
153
85
85
187
119
85
238
153
102
187
221
68
119
170
51
187
221
68
187
119
85
238
153
102
119
170
51
119
170
51
187
221
68
119
170
51
119
170
51
119
170
51
187
221
68
187
221
68
119
170
51
119
170
51
119
170
51
119
170
51
119
170
51
51
119
68
119
170
51
119
68
68
51
119
68
51
119
68
119
68
68
238
153
102
238
153
102
119
170
51
119
170
51
187
221
68
187
221
68
51
119
68
51
119
68
51
119
68
51
119
68
119
170
51
119
170
51
51
119
68
51
119
68
51
119
68
119
170
51
119
170
51
51
119
68
51
119
68
153
85
85
153
85
85
51
119
68
51
119
68
187
221
68
119
170
51
119
170
51
51
68
119
51
119
170
119
170
51
51
68
119
51
68
119
51
68
119
51
68
119
51
68
119
51
68
119
51
68
119
119
170
51
119
170
51
51
68
119
51
68
119
51
119
170
119
170
51
119
170
51
119
170
51
238
204
68
187
119
85
238
204
68
238
204
68
187
119
85
238
204
68
187
119
85
119
170
51
119
170
51
119
170
51
119
170
51
119
170
51
119
170
51
119
170
51
51
119
68
238
153
102
187
119
85
51
119
68
238
153
102
187
119
85
51
119
68
51
119
68
238
204
68
238
204
68
238
153
102
238
204
68
238
153
102
187
119
85
119
170
51
119
170
51
119
170
51
238
204
68
238
153
102
238
204
68
238
153
102
238
204
68
238
153
102
119
170
51
238
204
68
238
153
102
238
204
68
238
153
102
238
204
68
119
170
51
238
153
102
119
68
68
119
68
68
187
187
221
119
68
68
51
119
68
119
68
68
119
68
68
119
68
68
119
68
68
102
51
68
119
68
68
119
68
68
119
68
68
187
119
85
119
68
68
187
119
85
119
170
51
119
68
68
119
68
68
119
68
68
119
68
68
119
68
68
119
68
68
102
51
68
102
51
68
119
68
68
119
68
68
119
68
68
119
170
51
119
68
68
119
68
68
51
119
68
119
170
51
102
51
68
119
68
68
51
119
68
119
68
68
119
68
68
187
119
85
119
68
68
119
68
68
119
68
68
119
68
68
119
68
68
119
68
68
119
68
68
119
68
68
119
170
51
221
238
238
221
238
238
119
68
68
119
119
119
221
238
238
119
68
68
153
153
136
119
68
68
119
68
68
119
68
68
119
68
68
238
204
153
119
68
68
221
238
238
119
68
68
119
170
51
119
170
51
119
170
51
119
68
68
119
68
68
221
238
238
119
68
68
221
238
238
119
119
119
119
68
68
187
187
221
119
119
119
221
238
238
119
68
68
119
68
68
119
68
68
119
170
51
119
170
51
119
68
68
119
68
68
153
153
136
221
238
238
119
119
119
119
68
68
119
68
68
238
204
153
119
68
68
187
187
221
187
187
221
119
170
51
119
170
51
119
170
51
119
170
51
255
255
255
255
255
255
255
255
255
255
255
255
119
68
68
255
255
255
221
238
238
255
255
255
221
238
238
255
255
255
119
68
68
187
187
221
119
68
68
187
187
221
255
255
255
255
255
255
187
187
221
221
238
238
255
255
255
255
255
255
221
238
238
187
187
221
119
68
68
221
238
238
255
255
255
221
238
238
119
68
68
187
187
221
221
238
238
255
255
255
255
255
255
119
170
51
255
255
255
187
187
221
119
68
68
187
187
221
221
238
238
255
255
255
221
238
238
255
255
255
255
255
255
255
255
255
255
255
255
119
68
68
187
187
221
221
238
238
255
255
255
255
255
255
119
170
51
119
170
51
119
170
51
119
170
51
119
170
51
119
170
51
119
170
51
119
170
51
204
204
187
153
153
136
119
170
51
119
170
51
119
170
51
119
170
51
119
170
51
119
170
51
119
170
51
119
170
51
119
170
51
119
170
51
119
170
51
119
170
51
119
170
51
119
170
51
119
170
51
119
170
51
119
170
51
119
170
51
119
170
51
51
119
68
187
119
85
119
170
51
119
170
51
119
170
51
119
170
51
204
204
187
153
153
136
119
170
51
119
170
51
119
170
51
187
119
85
51
119
68
51
119
68
119
170
51
187
119
85
119
170
51
51
119
68
119
170
51
119
68
68
119
170
51
187
221
68
187
221
68
187
221
68
51
119
68
51
119
68
51
119
68
51
119
68
51
119
68
51
119
68
187
119
85
238
153
102
238
153
102
119
170
51
119
170
51
119
170
51
187
119
85
119
170
51
119
170
51
119
68
68
187
119
85
119
170
51
119
170
51
119
170
51
187
221
68
187
221
68
187
221
68
187
221
68
119
170
51
51
119
68
119
170
51
187
221
68
51
119
68
119
68
68
187
119
85
238
153
102
119
170
51
187
221
68
119
170
51
119
170
51
187
221
68
51
119
68
187
221
68
119
170
51
119
170
51
119
170
51
51
119
68
119
170
51
187
221
68
51
119
68
187
221
68
51
119
68
119
170
51
51
119
68
51
119
68
153
85
85
119
68
68
51
119
170
153
85
85
51
119
68
51
119
68
187
119
85
119
170
51
119
170
51
51
119
170
119
170
51
119
170
51
51
51
51
51
68
119
51
51
51
119
170
51
51
68
119
51
68
119
51
68
119
51
68
119
119
170
51
51
119
170
51
119
170
119
170
51
119
170
51
119
170
51
238
153
102
238
204
68
238
153
102
238
204
68
238
204
68
238
153
102
238
204
68
187
119
85
119
170
51
119
170
51
119
170
51
119
170
51
119
170
51
119
170
51
119
170
51
119
170
51
51
119
68
51
119
68
119
170
51
51
119
68
51
119
68
119
170
51
119
170
51
238
153
102
238
204
68
187
119
85
238
204
68
238
153
102
187
119
85
51
119
68
119
170
51
119
170
51
238
204
68
238
153
102
238
204
68
187
119
85
238
204
68
187
119
85
119
170
51
238
204
68
238
204
68
238
153
102
238
204
68
238
153
102
187
119
85
119
170
51
119
68
68
119
68
68
119
68
68
119
68
68
238
153
102
119
68
68
51
119
68
119
68
68
119
68
68
102
51
68
102
51
68
119
68
68
119
68
68
51
119
68
187
119
85
119
68
68
119
170
51
119
170
51
119
68
68
51
119
68
119
68
68
187
187
221
119
68
68
119
68
68
102
51
68
119
68
68
187
187
221
119
68
68
119
68
68
119
68
68
119
68
68
119
68
68
119
170
51
119
68
68
102
51
68
119
170
51
119
68
68
119
68
68
119
68
68
51
119
68
119
170
51
119
68
68
119
68
68
119
68
68
238
153
102
119
68
68
187
119
85
51
119
68
221
238
238
187
187
221
119
68
68
119
68
68
119
68
68
119
68
68
119
68
68
119
68
68
119
68
68
119
68
68
119
68
68
119
68
68
119
68
68
221
238
238
221
238
238
119
170
51
119
68
68
119
170
51
119
68
68
119
68
68
119
68
68
119
68
68
119
68
68
221
238
238
119
68
68
119
68
68
119
68
68
119
68
68
119
68
68
119
68
68
187
187
221
119
170
51
119
170
51
119
68
68
119
68
68
119
68
68
187
187
221
221
238
238
119
68
68
119
68
68
119
68
68
119
68
68
119
68
68
119
68
68
119
68
68
119
68
68
119
170
51
119
170
51
119
170
51
187
187
221
255
255
255
255
255
255
255
255
255
255
255
255
119
68
68
221
238
238
255
255
255
221
238
238
255
255
255
255
255
255
187
187
221
119
68
68
187
187
221
255
255
255
221
238
238
119
68
68
187
187
221
255
255
255
255
255
255
221
238
238
187
187
221
255
255
255
255
255
255
187
187
221
119
68
68
119
68
68
187
187
221
221
238
238
255
255
255
255
255
255
255
255
255
221
238
238
119
68
68
119
68
68
187
187
221
221
238
238
255
255
255
255
255
255
221
238
238
255
255
255
255
255
255
187
187
221
119
68
68
119
68
68
187
187
221
255
255
255
119
170
51
119
170
51
51
119
68
119
170
51
51
119
68
119
170
51
119
170
51
187
119
85
119
119
119
85
85
85
187
119
85
119
170
51
119
170
51
119
170
51
119
170
51
119
170
51
119
170
51
204
204
187
119
119
119
51
119
68
119
170
51
119
170
51
119
170
51
119
170
51
119
170
51
204
204
187
119
119
119
119
170
51
119
170
51
119
170
51
119
170
51
238
153
102
119
170
51
119
170
51
187
119
85
119
119
119
85
85
85
187
119
85
119
170
51
119
170
51
119
170
51
119
170
51
119
170
51
119
170
51
119
170
51
119
170
51
119
170
51
119
170
51
187
119
85
187
221
68
187
221
68
119
170
51
119
68
68
187
221
68
187
221
68
119
170
51
119
68
68
187
119
85
119
170
51
119
170
51
119
170
51
119
170
51
119
170
51
51
119
68
119
170
51
187
221
68
119
68
68
187
119
85
238
153
102
119
170
51
119
170
51
119
170
51
51
119
68
187
221
68
187
221
68
51
119
68
51
119
68
51
119
68
187
221
68
119
170
51
51
119
68
187
119
85
119
170
51
238
153
102
238
153
102
187
221
68
187
221
68
119
170
51
187
221
68
187
221
68
187
221
68
119
170
51
51
119
68
187
119
85
119
170
51
187
221
68
119
170
51
51
119
68
187
221
68
119
170
51
119
170
51
51
119
68
51
119
68
153
85
85
119
68
68
51
119
170
34
204
221
34
204
221
238
153
102
51
119
68
51
119
68
119
170
51
119
170
51
51
119
170
119
170
51
119
170
51
51
68
119
51
51
51
51
68
119
51
68
119
119
170
51
51
68
119
51
68
119
51
68
119
119
170
51
119
170
51
119
170
51
119
170
51
119
170
51
119
170
51
238
153
102
238
204
68
238
153
102
187
119
85
238
204
68
238
153
102
187
119
85
153
85
85
51
119
68
51
119
68
119
170
51
119
170
51
119
170
51
119
170
51
119
170
51
119
170
51
119
170
51
119
170
51
119
170
51
119
170
51
119
170
51
119
170
51
119
170
51
238
204
68
238
153
102
153
85
85
238
204
68
51
119
68
153
85
85
51
119
68
119
170
51
119
170
51
238
204
68
187
119
85
238
153
102
187
119
85
238
204
68
187
119
85
51
119
68
238
153
102
238
204
68
187
119
85
238
204
68
238
153
102
187
119
85
119
170
51
51
119
68
119
68
68
102
51
68
102
51
68
119
68
68
51
119
68
119
170
51
119
170
51
119
68
68
187
187
221
119
68
68
119
68
68
51
119
68
119
68
68
119
68
68
51
119
68
119
170
51
119
68
68
51
119
68
119
68
68
119
68
68
119
68
68
119
68
68
119
68
68
119
68
68
119
68
68
119
68
68
119
68
68
187
119
85
119
68
68
187
119
85
119
68
68
119
170
51
119
68
68
102
51
68
119
68
68
119
68
68
187
187
221
119
68
68
119
68
68
119
68
68
51
119
68
51
119
68
119
68
68
119
68
68
187
119
85
119
68
68
51
119
68
119
170
51
187
187
221
119
68
68
119
68
68
119
68
68
119
68
68
187
187
221
119
68
68
119
68
68
153
153
136
119
68
68
153
153
136
119
68
68
187
187
221
221
238
238
119
170
51
119
68
68
153
153
136
119
68
68
153
153
136
119
68
68
119
68
68
119
68
68
119
68
68
238
204
153
119
68
68
153
153
136
119
68
68
153
153
136
187
187
221
221
238
238
119
68
68
119
170
51
119
68
68
119
68
68
119
68
68
119
68
68
119
170
51
119
170
51
187
187
221
119
68
68
153
153
136
119
68
68
153
153
136
119
68
68
119
68
68
119
170
51
119
170
51
119
170
51
255
255
255
187
187
221
221
238
238
255
255
255
255
255
255
187
187
221
119
68
68
119
68
68
221
238
238
255
255
255
255
255
255
255
255
255
221
238
238
221
238
238
119
170
51
221
238
238
187
187
221
119
68
68
119
68
68
221
238
238
255
255
255
221
238
238
119
170
51
255
255
255
255
255
255
187
187
221
187
187
221
119
68
68
221
238
238
255
255
255
255
255
255
255
255
255
255
255
255
221
238
238
119
68
68
119
68
68
187
187
221
221
238
238
255
255
255
119
68
68
187
187
221
255
255
255
221
238
238
119
68
68
187
187
221
119
68
68
187
187
221
119
170
51
119
170
51
119
170
51
51
119
68
51
119
68
187
119
85
119
170
51
119
170
51
51
119
68
51
119
68
51
119
68
119
170
51
119
170
51
119
170
51
238
153
102
119
170
51
119
170
51
85
85
85
85
85
85
187
119
85
85
85
85
51
119
68
119
170
51
119
170
51
119
119
119
119
119
119
85
85
85
187
119
85
187
119
85
119
170
51
119
170
51
119
170
51
119
170
51
119
170
51
119
170
51
51
119
68
119
170
51
119
170
51
119
170
51
238
153
102
119
170
51
119
170
51
119
170
51
51
119
68
119
170
51
119
170
51
119
170
51
119
170
51
51
119
68
51
119
68
119
170
51
119
170
51
153
85
85
238
153
102
187
221
68
187
221
68
119
170
51
119
170
51
187
221
68
119
170
51
119
170
51
119
170
51
187
221
68
187
221
68
119
170
51
119
68
68
187
119
85
238
153
102
119
170
51
119
170
51
119
170
51
187
221
68
187
221
68
187
221
68
119
170
51
119
68
68
51
119
68
51
119
68
51
119
68
119
170
51
187
221
68
119
170
51
119
170
51
119
170
51
51
119
68
187
221
68
119
170
51
187
221
68
51
119
68
187
221
68
119
170
51
51
119
68
51
119
68
51
119
68
51
119
68
119
170
51
119
170
51
119
170
51
119
170
51
119
170
51
187
119
85
119
170
51
51
119
68
153
85
85
51
119
170
34
204
221
34
204
221
34
204
221
255
255
255
51
119
68
119
170
51
51
119
68
51
119
68
119
170
51
51
119
68
51
68
119
51
68
119
51
68
119
51
119
170
119
170
51
51
68
119
51
68
119
51
68
119
51
119
170
119
170
51
51
68
119
119
170
51
119
170
51
119
170
51
51
119
68
51
119
68
238
153
102
187
119
85
51
119
68
238
153
102
187
119
85
51
119
68
51
119
68
51
119
68
51
119
68
51
119
68
119
170
51
119
170
51
119
170
51
119
170
51
119
170
51
119
170
51
119
170
51
119
170
51
119
170
51
119
170
51
119
170
51
51
119
68
238
153
102
51
119
68
51
119
68
238
153
102
51
119
68
51
119
68
51
119
68
51
119
68
51
119
68
238
153
102
238
204
68
51
119
68
238
204
68
238
153
102
153
85
85
51
119
68
238
204
68
238
153
102
153
85
85
238
204
68
51
119
68
153
85
85
51
119
68
119
170
51
119
68
68
102
51
68
119
68
68
119
68
68
119
68
68
119
170
51
119
170
51
119
68
68
119
68
68
119
68
68
119
68
68
51
119
68
119
68
68
119
68
68
119
170
51
119
170
51
119
68
68
119
68
68
51
119
68
119
170
51
119
68
68
51
119
68
119
68
68
51
119
68
119
68
68
51
119
68
119
170
51
119
68
68
187
119
85
119
68
68
51
119
68
119
170
51
119
68
68
119
68
68
119
68
68
119
68
68
119
68
68
119
68
68
119
68
68
51
119
68
119
68
68
119
170
51
119
68
68
119
68
68
119
68
68
119
68
68
119
68
68
119
68
68
119
68
68
119
68
68
119
68
68
119
68
68
221
238
238
221
238
238
119
68
68
119
68
68
119
68
68
153
153
136
119
68
68
187
187
221
119
68
68
119
68
68
119
170
51
119
170
51
119
170
51
153
153
136
119
68
68
119
68
68
119
68
68
221
238
238
221
238
238
119
68
68
119
68
68
119
68
68
153
153
136
119
68
68
221
238
238
221
238
238
119
170
51
119
170
51
119
68
68
119
68
68
238
204
153
119
68
68
119
170
51
221
238
238
119
68
68
119
68
68
119
68
68
153
153
136
119
68
68
119
68
68
119
68
68
119
68
68
119
170
51
119
170
51
119
170
51
119
68
68
119
68
68
255
255
255
255
255
255
255
255
255
187
187
221
119
68
68
187
187
221
221
238
238
255
255
255
255
255
255
119
170
51
119
170
51
119
170
51
221
238
238
221
238
238
119
68
68
187
187
221
119
68
68
255
255
255
119
170
51
119
170
51
119
170
51
255
255
255
255
255
255
255
255
255
187
187
221
255
255
255
221
238
238
255
255
255
221
238
238
255
255
255
255
255
255
221
238
238
187
187
221
119
68
68
221
238
238
255
255
255
187
187
221
119
68
68
221
238
238
255
255
255
221
238
238
119
68
68
187
187
221
119
68
68
119
170
51
119
170
51
187
119
85
187
119
85
187
119
85
119
170
51
119
170
51
119
170
51
119
170
51
51
119
68
119
170
51
119
170
51
51
119
68
119
170
51
119
170
51
119
170
51
119
170
51
51
119
68
119
170
51
119
170
51
119
170
51
119
170
51
119
170
51
187
119
85
51
119
68
51
119
68
51
119
68
119
170
51
119
170
51
119
170
51
119
170
51
119
170
51
119
170
51
119
170
51
51
119
68
119
170
51
119
170
51
51
119
68
119
170
51
119
170
51
119
170
51
51
119
68
119
170
51
187
119
85
119
170
51
51
119
68
119
170
51
119
170
51
119
170
51
119
170
51
119
170
51
119
68
68
238
153
102
238
153
102
187
119
85
187
221
68
187
221
68
187
221
68
187
221
68
51
119
68
51
119
68
187
221
68
187
221
68
119
170
51
187
221
68
238
153
102
187
221
68
187
221
68
119
170
51
51
119
68
51
119
68
119
170
51
187
221
68
51
119
68
51
119
68
187
221
68
187
221
68
119
170
51
119
170
51
51
119
68
119
170
51
119
170
51
51
119
68
51
119
68
187
221
68
187
119
85
119
170
51
153
85
85
153
85
85
187
221
68
119
170
51
119
68
68
187
221
68
119
170
51
187
221
68
119
170
51
119
170
51
187
119
85
119
170
51
51
119
68
119
170
51
51
119
68
51
119
68
51
119
68
238
204
153
238
204
153
255
255
255
255
255
255
51
119
68
51
119
68
51
119
68
119
170
51
119
170
51
51
119
68
119
170
51
119
170
51
51
119
170
51
119
170
119
170
51
119
170
51
119
170
51
119
170
51
51
119
170
51
119
170
119
170
51
119
170
51
119
170
51
119
170
51
119
170
51
119
170
51
119
170
51
51
119
68
51
119
68
119
170
51
51
119
68
51
119
68
51
119
68
119
170
51
119
170
51
119
170
51
119
170
51
119
170
51
119
170
51
119
170
51
119
170
51
119
170
51
119
170
51
119
170
51
119
170
51
119
170
51
119
170
51
119
170
51
119
170
51
51
119
68
51
119
68
119
170
51
51
119
68
51
119
68
119
170
51
119
170
51
119
170
51
119
170
51
51
119
68
51
119
68
119
170
51
51
119
68
51
119
68
51
119
68
51
119
68
238
153
102
51
119
68
51
119
68
238
153
102
51
119
68
51
119
68
51
119
68
119
68
68
119
68
68
102
51
68
119
68
68
51
119
68
119
170
51
119
68
68
119
68
68
119
68
68
51
119
68
119
170
51
119
68
68
119
68
68
51
119
68
119
170
51
119
170
51
119
68
68
119
68
68
51
119
68
119
170
51
119
170
51
119
170
51
119
170
51
119
68
68
119
68
68
51
119
68
119
170
51
119
68
68
51
119
68
119
170
51
119
170
51
119
170
51
119
170
51
119
170
51
119
68
68
119
68
68
119
68
68
51
119
68
119
68
68
119
68
68
119
68
68
119
68
68
119
68
68
119
68
68
51
119
68
119
170
51
119
68
68
119
68
68
119
68
68
119
68
68
119
68
68
119
170
51
119
170
51
221
238
238
119
68
68
119
68
68
119
68
68
119
170
51
119
170
51
119
68
68
119
68
68
119
68
68
119
170
51
119
170
51
119
170
51
119
170
51
119
170
51
119
68
68
119
68
68
119
170
51
119
170
51
221
238
238
119
170
51
119
68
68
119
68
68
119
170
51
119
170
51
119
68
68
119
68
68
119
170
51
119
170
51
119
170
51
119
68
68
119
68
68
119
170
51
119
170
51
221
238
238
119
119
119
221
238
238
119
68
68
119
68
68
119
68
68
119
170
51
119
170
51
119
170
51
119
170
51
119
170
51
119
170
51
119
170
51
119
170
51
119
68
68
255
255
255
255
255
255
255
255
255
221
238
238
119
68
68
187
187
221
255
255
255
119
170
51
221
238
238
119
170
51
119
170
51
119
170
51
221
238
238
255
255
255
255
255
255
187
187
221
221
238
238
255
255
255
255
255
255
119
170
51
119
170
51
255
255
255
255
255
255
255
255
255
255
255
255
255
255
255
119
170
51
119
170
51
255
255
255
255
255
255
255
255
255
221
238
238
221
238
238
187
187
221
221
238
238
119
68
68
119
170
51
119
170
51
255
255
255
255
255
255
221
238
238
221
238
238
119
170
51
119
170
51
119
170
51
119
170
51
119
170
51
187
119
85
119
170
51
119
170
51
238
153
102
119
170
51
119
170
51
119
170
51
119
170
51
119
170
51
51
119
68
119
170
51
119
170
51
51
119
68
119
119
119
85
85
85
51
119
68
119
170
51
238
153
102
119
170
51
119
170
51
119
170
51
51
119
68
51
119
68
119
170
51
51
119
68
119
170
51
51
119
68
119
170
51
119
170
51
238
153
102
119
170
51
187
119
85
51
119
68
187
119
85
119
170
51
119
170
51
51
119
68
51
119
68
187
119
85
119
170
51
238
153
102
119
170
51
119
170
51
119
170
51
119
170
51
51
119
68
51
119
68
51
119
68
187
221
68
119
170
51
119
170
51
119
170
51
187
221
68
187
119
85
51
119
68
187
221
68
187
119
85
187
221
68
119
170
51
119
170
51
119
170
51
187
221
68
119
170
51
119
170
51
153
85
85
187
221
68
187
221
68
119
170
51
51
119
68
119
170
51
187
221
68
187
221
68
51
119
68
119
170
51
187
221
68
119
170
51
119
170
51
119
170
51
187
221
68
119
170
51
51
119
68
119
170
51
119
170
51
187
221
68
51
119
68
187
119
85
119
170
51
187
119
85
51
119
68
119
170
51
119
170
51
119
170
51
119
170
51
119
170
51
119
170
51
119
170
51
51
119
68
119
170
51
119
170
51
51
119
68
51
119
68
238
153
102
238
204
153
51
119
68
119
170
51
119
170
51
51
119
68
119
170
51
119
170
51
187
119
85
119
170
51
51
119
68
51
119
68
51
119
68
119
170
51
119
170
51
119
170
51
119
170
51
119
170
51
119
170
51
119
170
51
119
170
51
119
170
51
119
170
51
119
170
51
119
170
51
119
170
51
119
170
51
51
119
68
51
119
68
119
170
51
119
170
51
51
119
68
51
119
68
51
119
68
51
119
68
51
119
68
119
170
51
119
170
51
119
170
51
119
170
51
119
170
51
119
170
51
119
170
51
119
170
51
51
119
68
119
170
51
119
170
51
51
119
68
51
119
68
238
153
102
238
204
153
51
119
68
119
170
51
119
170
51
51
119
68
119
170
51
119
170
51
119
170
51
119
170
51
119
170
51
51
119
68
51
119
68
119
170
51
119
170
51
119
170
51
51
119
68
51
119
68
51
119
68
51
119
68
119
170
51
119
170
51
119
170
51
119
170
51
119
170
51
119
170
51
187
221
68
187
119
85
119
170
51
51
119
68
119
170
51
119
170
51
119
170
51
119
170
51
119
170
51
119
170
51
119
170
51
119
170
51
119
170
51
119
170
51
119
170
51
119
170
51
119
170
51
119
170
51
119
170
51
119
170
51
119
170
51
119
170
51
119
170
51
119
170
51
119
170
51
119
170
51
119
170
51
119
170
51
119
170
51
119
170
51
119
170
51
119
170
51
119
170
51
119
170
51
119
170
51
119
170
51
119
170
51
119
170
51
119
170
51
119
170
51
119
170
51
187
221
68
119
170
51
119
170
51
119
170
51
119
170
51
119
170
51
119
170
51
119
170
51
119
170
51
119
170
51
119
170
51
119
170
51
119
170
51
119
170
51
119
170
51
119
170
51
187
221
68
119
170
51
187
221
68
51
119
68
119
170
51
119
170
51
119
170
51
119
170
51
119
170
51
119
170
51
119
170
51
119
119
119
119
119
119
51
34
51
119
170
51
119
170
51
119
170
51
119
170
51
119
170
51
119
170
51
119
170
51
119
170
51
119
170
51
119
170
51
119
170
51
119
170
51
119
170
51
119
170
51
119
170
51
85
85
85
85
85
85
119
170
51
119
170
51
119
170
51
119
170
51
119
170
51
119
170
51
119
170
51
119
170
51
119
170
51
119
170
51
119
170
51
119
119
119
119
170
51
119
170
51
119
170
51
119
170
51
119
170
51
119
170
51
119
170
51
119
170
51
119
170
51
119
170
51
119
170
51
119
170
51
119
170
51
119
170
51
119
170
51
119
170
51
85
85
85
85
85
85
119
170
51
119
170
51
119
170
51
119
170
51
119
170
51
119
170
51
119
170
51
119
170
51
119
170
51
119
170
51
119
170
51
119
170
51
119
170
51
119
119
119
119
170
51
119
170
51
119
170
51
119
170
51
119
170
51
119
170
51
119
170
51
119
170
51
119
170
51
119
170
51
119
170
51
119
170
51
119
170
51
119
170
51
119
170
51
119
119
119
119
170
51
119
170
51
119
170
51
119
170
51
119
170
51
119
170
51
119
170
51
119
170
51
119
170
51
119
170
51
119
170
51
119
170
51
119
170
51
119
170
51
119
170
51
119
170
51
119
170
51
119
170
51
119
170
51
119
170
51
119
170
51
119
170
51
119
170
51
187
221
68
119
170
51
187
221
68
51
119
68
119
170
51
119
119
119
119
119
119
119
119
119
119
170
51
119
170
51
119
170
51
119
170
51
119
170
51
119
170
51
119
170
51
119
170
51
119
170
51
119
170
51
119
170
51
119
170
51
119
170
51
119
170
51
119
170
51
119
170
51
119
170
51
119
170
51
119
170
51
119
170
51
119
170
51
119
170
51
119
170
51
119
170
51
119
170
51
119
170
51
119
170
51
119
170
51
119
170
51
119
170
51
119
170
51
119
119
119
119
119
119
85
85
85
119
170
51
119
170
51
119
170
51
119
170
51
119
170
51
119
170
51
119
170
51
119
170
51
119
170
51
119
170
51
119
170
51
119
170
51
119
170
51
119
119
119
85
85
85
51
51
51
119
170
51
119
170
51
119
170
51
119
170
51
119
170
51
119
170
51
119
170
51
119
170
51
119
170
51
119
170
51
119
170
51
119
170
51
119
170
51
119
170
51
119
119
119
119
119
119
85
85
85
119
170
51
119
170
51
119
170
51
119
170
51
119
170
51
119
170
51
119
170
51
119
170
51
51
119
68
51
119
68
51
119
68
51
119
68
51
119
68
51
119
68
51
119
68
119
170
51
187
119
85
119
170
51
51
119
68
51
119
68
119
170
51
51
119
68
119
170
51
51
119
68
187
119
85
51
119
68
119
170
51
119
170
51
51
119
68
51
119
68
119
68
68
119
68
68
153
85
85
153
85
85
51
119
68
51
119
68
187
119
85
119
170
51
119
170
51
119
170
51
119
170
51
51
119
68
119
170
51
119
170
51
51
119
68
119
170
51
187
119
85
119
170
51
119
170
51
119
170
51
119
170
51
119
170
51
119
170
51
119
170
51
119
170
51
119
170
51
119
170
51
51
119
68
119
170
51
119
170
51
51
119
68
119
170
51
187
119
85
119
170
51
119
170
51
119
170
51
119
170
51
119
170
51
119
170
51
119
170
51
119
170
51
119
170
51
119
170
51
51
119
68
119
170
51
119
170
51
51
119
68
119
170
51
187
119
85
119
170
51
119
170
51
119
170
51
119
170
51
119
170
51
119
170
51
119
170
51
119
170
51
119
170
51
119
170
51
119
170
51
119
170
51
119
170
51
119
170
51
119
170
51
119
170
51
119
170
51
119
170
51
119
170
51
119
170
51
119
170
51
119
170
51
119
170
51
119
170
51
119
170
51
119
170
51
119
170
51
119
170
51
119
170
51
119
170
51
119
170
51
119
170
51
119
170
51
119
170
51
119
170
51
119
170
51
187
221
68
119
170
51
119
170
51
119
170
51
119
170
51
119
170
51
119
170
51
119
170
51
119
170
51
119
170
51
119
170
51
119
170
51
119
170
51
119
170
51
119
170
51
119
170
51
187
221
68
119
170
51
187
221
68
51
119
68
119
170
51
119
170
51
119
170
51
119
170
51
119
170
51
119
170
51
119
170
51
119
170
51
119
170
51
119
170
51
119
170
51
119
170
51
119
170
51
119
170
51
119
170
51
119
170
51
119
170
51
119
170
51
119
170
51
119
170
51
119
170
51
119
170
51
119
170
51
119
170
51
119
170
51
119
170
51
119
170
51
119
170
51
119
170
51
187
221
68
119
170
51
119
170
51
119
170
51
119
170
51
119
170
51
119
170
51
119
170
51
119
170
51
119
170
51
119
170
51
119
170
51
119
170
51
119
170
51
119
170
51
119
170
51
187
221
68
119
170
51
187
221
68
119
170
51
119
170
51
119
170
51
119
170
51
119
170
51
119
170
51
119
119
119
119
119
119
51
34
51
119
170
51
119
170
51
119
170
51
119
170
51
119
170
51
119
170
51
119
170
51
119
170
51
119
170
51
119
170
51
119
170
51
119
170
51
119
170
51
119
170
51
119
170
51
85
85
85
85
85
85
119
170
51
119
170
51
119
170
51
119
170
51
119
170
51
119
170
51
119
170
51
119
170
51
119
170
51
119
170
51
119
170
51
119
170
51
119
170
51
119
119
119
119
170
51
119
170
51
119
170
51
119
170
51
119
170
51
119
170
51
119
170
51
119
170
51
119
170
51
119
170
51
119
170
51
119
170
51
119
170
51
119
170
51
119
170
51
119
170
51
119
170
51
119
170
51
119
170
51
119
170
51
119
170
51
119
170
51
119
170
51
119
170
51
187
221
68
119
170
51
187
221
68
51
119
68
119
170
51
119
119
119
119
119
119
119
119
119
119
170
51
119
170
51
119
170
51
119
170
51
119
170
51
119
170
51
119
170
51
119
170
51
119
170
51
119
170
51
119
170
51
119
170
51
119
170
51
119
170
51
119
170
51
119
170
51
119
170
51
119
170
51
119
170
51
119
170
51
119
170
51
119
170
51
119
170
51
119
170
51
119
170
51
119
170
51
119
170
51
119
170
51
85
85
85
119
119
119
119
119
119
119
119
119
51
51
51
119
170
51
119
170
51
119
170
51
119
170
51
119
170
51
119
170
51
187
221
68
119
170
51
187
221
68
51
119
68
119
170
51
119
119
119
153
153
136
85
85
85
85
85
85
51
51
51
119
170
51
119
170
51
119
170
51
119
170
51
119
170
51
119
170
51
119
170
51
119
170
51
119
170
51
119
170
51
119
170
51
119
170
51
119
170
51
153
153
136
119
119
119
119
119
119
51
34
51
119
170
51
187
221
68
119
170
51
187
221
68
51
119
68
119
170
51
51
119
68
51
119
68
119
68
68
153
85
85
51
119
68
51
119
68
119
170
51
51
119
68
51
119
68
119
170
51
119
170
51
51
119
68
51
119
68
51
119
68
119
170
51
119
170
51
51
119
68
51
119
68
119
170
51
119
170
51
51
119
68
51
119
68
119
68
68
51
119
170
51
119
170
51
119
170
51
119
170
238
153
102
51
119
68
51
119
68
119
170
51
51
119
68
119
170
51
51
119
68
51
119
68
51
119
68
51
119
68
51
119
68
51
119
68
119
170
51
51
119
68
119
170
51
119
170
51
119
170
51
51
119
68
119
170
51
119
170
51
119
170
51
119
170
51
51
119
68
51
119
68
51
119
68
51
119
68
51
119
68
51
119
68
119
170
51
51
119
68
119
170
51
119
170
51
119
170
51
51
119
68
119
170
51
119
170
51
119
170
51
119
170
51
51
119
68
51
119
68
51
119
68
51
119
68
51
119
68
51
119
68
119
170
51
51
119
68
119
170
51
119
170
51
119
170
51
51
119
68
119
170
51
119
170
51
119
170
51
119
170
51
119
170
51
187
221
68
119
170
51
187
221
68
51
119
68
119
170
51
119
170
51
119
170
51
119
170
51
119
170
51
119
170
51
119
170
51
119
170
51
119
170
51
119
170
51
119
170
51
119
170
51
119
170
51
187
221
68
119
170
51
187
221
68
51
119
68
119
170
51
119
170
51
119
170
51
119
170
51
187
221
68
187
221
68
119
170
51
187
221
68
187
221
68
119
170
51
119
170
51
119
170
51
119
170
51
119
170
51
119
170
51
119
170
51
119
170
51
119
170
51
119
170
51
119
170
51
119
170
51
119
170
51
187
221
68
51
119
68
119
170
51
119
170
51
119
170
51
119
170
51
187
221
68
119
170
51
187
221
68
51
119
68
119
170
51
119
170
51
119
170
51
119
170
51
119
170
51
119
170
51
119
170
51
119
170
51
119
170
51
119
170
51
119
170
51
119
170
51
119
170
51
187
221
68
119
170
51
187
221
68
51
119
68
119
170
51
119
170
51
119
170
51
119
170
51
187
221
68
187
221
68
119
170
51
187
221
68
187
221
68
119
170
51
119
170
51
119
170
51
119
170
51
119
170
51
119
170
51
119
170
51
119
170
51
119
170
51
119
170
51
119
170
51
119
170
51
119
170
51
187
221
68
51
119
68
187
221
68
119
170
51
187
221
68
51
119
68
119
170
51
85
85
85
119
119
119
85
85
85
119
119
119
51
34
51
119
170
51
119
170
51
119
170
51
119
170
51
119
170
51
119
170
51
187
221
68
119
170
51
187
221
68
51
119
68
119
170
51
119
170
51
119
170
51
119
170
51
85
85
85
204
204
187
51
34
51
119
170
51
119
170
51
119
170
51
119
170
51
119
170
51
119
170
51
119
170
51
119
170
51
119
170
51
119
170
51
119
170
51
119
119
119
119
119
119
51
34
51
187
221
68
119
170
51
187
221
68
51
119
68
119
170
51
119
170
51
119
170
51
187
221
68
119
170
51
187
221
68
51
119
68
119
170
51
119
119
119
119
119
119
119
119
119
119
119
119
85
85
85
119
170
51
119
170
51
119
170
51
119
170
51
119
170
51
119
170
51
119
170
51
187
221
68
51
119
68
119
170
51
119
119
119
204
204
187
153
153
136
153
153
136
85
85
85
119
170
51
119
170
51
187
221
68
119
170
51
187
221
68
51
119
68
119
170
51
119
170
51
119
170
51
119
170
51
119
170
51
119
170
51
119
170
51
119
119
119
119
119
119
119
119
119
119
119
119
119
170
51
119
170
51
187
221
68
119
170
51
187
221
68
187
221
68
119
170
51
187
221
68
51
119
68
119
170
51
85
85
85
153
153
136
85
85
85
85
85
85
51
51
51
119
170
51
119
170
51
119
170
51
119
170
51
119
170
51
119
170
51
119
170
51
187
221
68
51
119
68
119
170
51
119
119
119
153
153
136
153
153
136
85
85
85
85
85
85
51
34
51
119
170
51
119
170
51
119
170
51
119
170
51
119
170
51
119
170
51
119
170
51
119
170
51
119
170
51
119
170
51
119
170
51
119
170
51
85
85
85
153
153
136
119
119
119
85
85
85
51
34
51
119
170
51
119
170
51
187
221
68
51
119
68
119
170
51
51
119
68
51
119
68
119
68
68
51
119
170
51
119
170
153
85
85
51
119
68
51
119
68
51
119
68
119
170
51
187
221
68
51
119
68
187
221
68
119
170
51
119
170
51
119
170
51
51
119
68
119
170
51
187
221
68
51
119
68
187
221
68
51
119
68
119
68
68
51
119
170
51
119
170
34
204
221
34
204
221
34
204
221
238
204
153
51
119
68
51
119
68
119
170
51
119
170
51
51
119
68
119
170
51
51
119
68
51
34
51
51
34
51
119
68
68
51
119
68
51
119
68
119
170
51
187
221
68
51
119
68
187
221
68
51
119
68
119
170
51
187
119
85
119
170
51
51
119
68
119
170
51
51
119
68
51
34
51
51
34
51
119
68
68
51
119
68
51
119
68
119
170
51
187
221
68
51
119
68
187
221
68
51
119
68
119
170
51
187
119
85
119
170
51
51
119
68
119
170
51
51
119
68
51
34
51
51
34
51
119
68
68
51
119
68
51
119
68
119
170
51
187
221
68
51
119
68
187
221
68
51
119
68
119
170
51
187
119
85
119
170
51
119
170
51
119
170
51
119
170
51
187
221
68
51
119
68
119
170
51
119
170
51
119
170
51
119
170
51
119
170
51
119
170
51
119
170
51
119
170
51
119
170
51
119
170
51
119
170
51
119
170
51
119
170
51
119
170
51
119
170
51
187
221
68
51
119
68
119
170
51
119
170
51
119
170
51
119
170
51
119
170
51
119
170
51
51
119
68
187
221
68
51
119
68
51
119
68
119
170
51
119
170
51
119
170
51
119
170
51
119
170
51
119
170
51
119
170
51
119
170
51
119
119
119
119
119
119
119
119
119
119
170
51
119
170
51
119
170
51
119
170
51
119
170
51
51
119
68
119
170
51
119
170
51
119
170
51
187
221
68
51
119
68
119
170
51
119
170
51
119
170
51
119
170
51
119
170
51
119
170
51
119
170
51
119
170
51
119
170
51
119
170
51
119
170
51
119
170
51
119
170
51
119
170
51
119
170
51
187
221
68
51
119
68
119
170
51
119
170
51
119
170
51
119
170
51
119
170
51
119
170
51
51
119
68
187
221
68
51
119
68
51
119
68
119
170
51
119
170
51
119
170
51
119
170
51
119
170
51
119
170
51
119
170
51
119
170
51
153
85
85
153
85
85
119
119
119
119
170
51
119
170
51
119
170
51
119
170
51
119
170
51
187
221
68
51
119
68
119
170
51
85
85
85
119
119
119
119
119
119
119
119
119
51
34
51
85
85
85
51
34
51
119
170
51
119
170
51
119
170
51
119
170
51
119
170
51
119
170
51
187
221
68
51
119
68
119
170
51
119
170
51
119
170
51
119
119
119
51
34
51
204
204
187
204
204
187
85
85
85
85
85
85
119
170
51
119
170
51
119
170
51
119
170
51
119
170
51
187
221
68
119
170
51
187
221
68
51
119
68
119
170
51
153
153
136
119
119
119
51
34
51
119
170
51
187
221
68
51
119
68
119
170
51
119
170
51
119
170
51
119
170
51
119
170
51
187
221
68
51
119
68
119
170
51
119
119
119
153
153
136
153
153
136
153
153
136
119
119
119
119
119
119
85
85
85
119
170
51
187
221
68
119
170
51
187
221
68
51
119
68
119
170
51
119
170
51
119
170
51
119
119
119
255
255
255
221
238
238
204
204
187
153
153
136
119
119
119
51
34
51
119
170
51
119
170
51
187
221
68
51
119
68
119
170
51
119
170
51
187
221
68
119
170
51
187
221
68
51
119
68
119
170
51
119
119
119
204
204
187
153
153
136
153
153
136
153
153
136
85
85
85
119
170
51
119
170
51
187
221
68
51
119
68
119
170
51
187
221
68
51
119
68
119
170
51
85
85
85
119
119
119
153
153
136
85
85
85
51
51
51
51
51
51
51
34
51
119
170
51
187
221
68
119
170
51
187
221
68
51
119
68
119
170
51
119
170
51
119
170
51
119
170
51
85
85
85
119
119
119
119
119
119
85
85
85
85
85
85
51
51
51
51
51
51
119
170
51
119
170
51
119
170
51
119
170
51
119
170
51
187
221
68
119
170
51
187
221
68
51
119
68
119
170
51
119
170
51
119
119
119
119
119
119
85
85
85
119
119
119
51
51
51
51
119
68
119
170
51
119
170
51
119
170
51
119
170
51
51
119
68
119
68
68
51
119
170
51
119
170
34
204
221
34
204
221
153
85
85
51
119
68
51
119
68
51
119
68
51
119
68
187
221
68
51
119
68
119
170
51
51
119
68
119
170
51
51
119
68
51
119
68
119
170
51
187
221
68
51
119
68
51
119
68
119
68
68
51
119
170
34
204
221
34
204
221
34
204
221
34
204
221
255
255
255
51
119
68
51
119
68
119
170
51
51
119
68
119
170
51
51
119
68
51
34
51
102
51
68
119
68
68
102
51
68
153
85
85
51
119
68
119
170
51
119
170
51
187
221
68
51
119
68
119
170
51
119
170
51
119
170
51
119
170
51
119
170
51
51
119
68
51
34
51
102
51
68
119
68
68
102
51
68
153
85
85
51
119
68
119
170
51
119
170
51
187
221
68
51
119
68
119
170
51
119
170
51
119
170
51
119
170
51
119
170
51
51
119
68
51
34
51
102
51
68
119
68
68
102
51
68
153
85
85
51
119
68
119
170
51
119
170
51
187
221
68
51
119
68
119
170
51
119
170
51
119
170
51
119
170
51
119
170
51
119
170
51
119
170
51
119
170
51
119
170
51
119
170
51
119
170
51
119
170
51
119
170
51
119
119
119
119
119
119
119
170
51
187
221
68
119
170
51
187
221
68
51
119
68
119
170
51
119
170
51
119
170
51
119
170
51
119
170
51
119
170
51
119
170
51
119
119
119
119
119
119
119
119
119
85
85
85
119
170
51
51
119
68
119
170
51
51
119
68
119
170
51
119
170
51
119
170
51
119
170
51
119
170
51
119
170
51
119
170
51
119
170
51
119
119
119
153
153
136
119
119
119
119
119
119
85
85
85
119
170
51
119
170
51
119
170
51
119
170
51
119
170
51
119
170
51
119
170
51
119
170
51
119
170
51
119
170
51
119
170
51
119
170
51
119
170
51
119
170
51
153
85
85
153
85
85
119
170
51
187
221
68
119
170
51
187
221
68
51
119
68
119
170
51
119
170
51
119
170
51
119
170
51
119
170
51
119
170
51
119
170
51
119
119
119
153
85
85
153
85
85
102
51
68
119
170
51
51
119
68
119
170
51
51
119
68
119
170
51
119
170
51
119
170
51
119
170
51
119
170
51
119
170
51
119
170
51
119
170
51
119
119
119
153
153
136
170
17
17
153
85
85
102
51
68
119
170
51
119
170
51
119
170
51
119
170
51
119
170
51
119
170
51
119
119
119
119
119
119
119
119
119
153
153
136
119
119
119
119
119
119
51
34
51
85
85
85
51
34
51
119
170
51
119
170
51
119
170
51
119
170
51
119
170
51
119
170
51
119
170
51
119
170
51
119
170
51
119
119
119
51
34
51
119
119
119
204
204
187
153
153
136
153
153
136
85
85
85
119
119
119
119
170
51
119
170
51
119
170
51
119
170
51
119
170
51
187
221
68
51
119
68
119
170
51
119
119
119
204
204
187
153
153
136
119
119
119
51
34
51
119
170
51
119
170
51
119
170
51
119
170
51
119
170
51
119
170
51
119
170
51
119
170
51
119
170
51
153
153
136
204
204
187
153
153
136
153
153
136
153
153
136
153
153
136
119
119
119
85
85
85
51
34
51
119
170
51
187
221
68
51
119
68
119
170
51
119
170
51
119
170
51
119
170
51
119
119
119
221
238
238
153
153
136
85
85
85
119
119
119
153
153
136
85
85
85
51
34
51
119
170
51
119
170
51
119
170
51
119
170
51
119
170
51
119
170
51
187
221
68
51
119
68
119
170
51
119
119
119
204
204
187
204
204
187
204
204
187
153
153
136
153
153
136
119
119
119
85
85
85
119
170
51
119
170
51
119
170
51
119
170
51
119
170
51
119
170
51
119
170
51
85
85
85
119
119
119
119
119
119
85
85
85
119
119
119
85
85
85
51
34
51
119
170
51
119
170
51
187
221
68
51
119
68
119
170
51
119
170
51
119
170
51
119
170
51
119
119
119
85
85
85
153
153
136
85
85
85
85
85
85
119
119
119
85
85
85
51
51
51
51
34
51
119
170
51
119
170
51
119
170
51
119
170
51
119
170
51
187
221
68
51
119
68
119
170
51
119
170
51
85
85
85
153
153
136
119
119
119
119
119
119
119
119
119
51
51
51
51
34
51
119
170
51
119
170
51
119
170
51
119
170
51
51
119
68
119
68
68
51
119
170
34
204
221
34
204
221
34
204
221
34
204
221
238
153
102
51
119
68
51
119
68
119
170
51
187
119
85
119
170
51
51
119
68
119
170
51
119
170
51
51
119
68
119
170
51
51
119
68
119
170
51
51
119
68
51
119
68
153
85
85
51
119
170
34
204
221
34
204
221
34
204
221
34
204
221
255
255
255
51
119
68
51
119
68
119
170
51
119
170
51
51
119
68
51
119
68
51
34
51
102
51
68
102
51
68
119
68
68
187
119
85
51
119
68
51
119
68
119
170
51
119
170
51
119
170
51
119
170
51
119
170
51
119
170
51
119
170
51
51
119
68
51
119
68
51
34
51
102
51
68
102
51
68
119
68
68
187
119
85
51
119
68
51
119
68
119
170
51
119
170
51
119
170
51
119
170
51
119
170
51
119
170
51
119
170
51
51
119
68
51
119
68
51
34
51
102
51
68
102
51
68
119
68
68
187
119
85
51
119
68
51
119
68
119
170
51
119
170
51
119
170
51
119
170
51
119
170
51
119
170
51
119
170
51
119
170
51
119
170
51
119
170
51
119
170
51
119
170
51
119
170
51
119
119
119
119
119
119
119
119
119
153
153
136
85
85
85
85
85
85
119
170
51
187
221
68
51
119
68
119
170
51
119
170
51
119
170
51
119
170
51
119
170
51
119
170
51
119
119
119
153
153
136
204
204
187
153
153
136
119
119
119
119
119
119
85
85
85
119
170
51
119
170
51
119
170
51
119
170
51
119
170
51
119
170
51
119
170
51
119
170
51
119
170
51
119
119
119
153
153
136
204
204
187
153
153
136
153
153
136
119
119
119
119
119
119
51
34
51
119
170
51
119
170
51
119
170
51
119
170
51
119
170
51
119
170
51
119
170
51
119
170
51
119
170
51
119
170
51
119
119
119
153
85
85
153
85
85
153
153
136
119
34
34
102
51
68
119
170
51
187
221
68
51
119
68
119
170
51
119
170
51
119
170
51
119
170
51
119
170
51
119
170
51
119
119
119
153
153
136
204
204
187
153
153
136
153
85
85
119
34
34
102
51
68
119
170
51
119
170
51
119
170
51
119
170
51
119
170
51
119
170
51
119
170
51
119
170
51
119
170
51
153
85
85
153
153
136
204
204
187
153
153
136
187
119
85
170
17
17
119
34
34
51
34
51
119
170
51
119
170
51
119
170
51
119
170
51
119
170
51
119
119
119
119
119
119
153
153
136
119
119
119
119
119
119
119
119
119
51
34
51
85
85
85
85
85
85
85
85
85
119
170
51
119
170
51
119
170
51
119
170
51
119
170
51
119
170
51
119
119
119
85
85
85
51
34
51
85
85
85
204
204
187
153
153
136
153
153
136
119
119
119
85
85
85
204
204
187
85
85
85
119
119
119
119
170
51
119
170
51
119
170
51
119
170
51
119
170
51
119
170
51
204
204
187
153
153
136
153
153
136
119
119
119
51
34
51
85
85
85
119
170
51
119
170
51
119
170
51
119
170
51
119
170
51
119
170
51
119
170
51
119
170
51
85
85
85
119
119
119
221
238
238
204
204
187
153
153
136
153
153
136
51
34
51
119
119
119
51
34
51
119
170
51
119
170
51
119
170
51
119
170
51
119
170
51
119
170
51
119
119
119
153
153
136
119
119
119
85
85
85
119
119
119
153
153
136
85
85
85
119
119
119
85
85
85
51
34
51
119
170
51
119
170
51
119
170
51
119
170
51
119
170
51
119
170
51
119
170
51
119
170
51
119
119
119
255
255
255
204
204
187
51
34
51
85
85
85
119
119
119
153
153
136
85
85
85
51
34
51
119
170
51
119
170
51
119
170
51
119
170
51
119
170
51
119
170
51
85
85
85
153
153
136
119
119
119
119
119
119
119
119
119
85
85
85
51
34
51
51
34
51
119
170
51
119
170
51
119
170
51
119
170
51
119
170
51
119
170
51
119
170
51
51
51
51
119
119
119
153
153
136
85
85
85
85
85
85
119
119
119
51
34
51
85
85
85
51
34
51
119
170
51
119
170
51
119
170
51
119
170
51
119
170
51
119
170
51
119
170
51
119
170
51
119
170
51
85
85
85
153
153
136
85
85
85
119
119
119
119
119
119
51
51
51
51
34
51
119
170
51
119
170
51
119
170
51
119
170
51
51
119
68
153
85
85
51
119
170
34
204
221
34
204
221
34
204
221
34
204
221
238
204
153
51
119
68
51
119
68
119
170
51
51
119
68
51
119
68
51
119
68
51
119
68
119
170
51
51
119
68
119
170
51
51
119
68
187
119
85
119
170
51
51
119
68
51
119
68
238
153
102
238
204
153
238
204
153
255
255
255
255
255
255
51
119
68
51
119
68
119
170
51
119
170
51
119
170
51
119
170
51
51
119
68
102
51
68
102
51
68
119
68
68
102
51
68
187
119
85
51
119
68
119
170
51
187
119
85
119
170
51
119
170
51
187
221
68
51
119
68
187
221
68
51
119
68
119
170
51
51
119
68
102
51
68
102
51
68
119
68
68
102
51
68
187
119
85
51
119
68
119
170
51
187
119
85
119
170
51
119
170
51
187
221
68
51
119
68
187
221
68
51
119
68
119
170
51
51
119
68
119
68
68
102
51
68
119
68
68
102
51
68
187
119
85
51
119
68
119
170
51
187
119
85
119
170
51
119
170
51
187
221
68
51
119
68
187
221
68
51
119
68
119
170
51
119
170
51
119
170
51
119
170
51
119
170
51
119
119
119
153
153
136
204
204
187
153
153
136
119
119
119
119
119
119
119
119
119
51
34
51
119
170
51
119
170
51
119
170
51
119
170
51
119
170
51
119
170
51
119
170
51
119
119
119
153
153
136
204
204
187
153
153
136
153
153
136
119
119
119
119
119
119
119
119
119
51
34
51
119
170
51
119
170
51
119
170
51
119
170
51
119
170
51
119
170
51
119
119
119
119
119
119
153
153
136
204
204
187
153
153
136
153
153
136
119
119
119
119
119
119
119
119
119
119
119
119
51
34
51
119
170
51
119
170
51
119
170
51
119
170
51
119
170
51
119
170
51
119
170
51
119
170
51
153
85
85
153
153
136
204
204
187
153
153
136
153
85
85
170
17
17
119
34
34
51
34
51
119
170
51
119
170
51
119
170
51
119
170
51
119
170
51
119
170
51
119
170
51
119
119
119
153
153
136
204
204
187
153
153
136
187
119
85
170
17
17
170
17
17
119
119
119
51
34
51
119
170
51
119
170
51
119
170
51
119
170
51
119
170
51
119
170
51
153
85
85
153
85
85
153
153
136
204
204
187
153
153
136
187
119
85
170
17
17
119
34
34
119
119
119
119
68
68
51
34
51
119
170
51
119
170
51
119
170
51
119
119
119
85
85
85
119
119
119
153
153
136
119
119
119
85
85
85
119
119
119
119
119
119
85
85
85
51
34
51
85
85
85
119
170
51
119
170
51
119
170
51
119
170
51
119
119
119
85
85
85
85
85
85
85
85
85
85
85
85
204
204
187
119
119
119
204
204
187
85
85
85
119
119
119
204
204
187
153
153
136
51
34
51
85
85
85
119
119
119
119
170
51
119
170
51
119
170
51
119
170
51
119
119
119
204
204
187
153
153
136
119
119
119
119
119
119
51
34
51
51
34
51
119
170
51
119
170
51
119
170
51
119
170
51
119
170
51
119
170
51
119
170
51
119
170
51
85
85
85
119
119
119
204
204
187
221
238
238
119
119
119
51
34
51
85
85
85
119
119
119
85
85
85
51
34
51
119
170
51
119
170
51
119
170
51
119
170
51
119
170
51
119
119
119
153
153
136
255
255
255
51
34
51
119
119
119
51
34
51
119
119
119
153
153
136
204
204
187
51
34
51
119
170
51
119
170
51
119
170
51
119
170
51
119
170
51
119
170
51
119
170
51
119
119
119
255
255
255
221
238
238
119
119
119
51
34
51
85
85
85
119
119
119
119
119
119
85
85
85
85
85
85
51
34
51
119
170
51
119
170
51
119
170
51
119
170
51
51
51
51
119
119
119
119
119
119
85
85
85
85
85
85
51
51
51
85
85
85
51
34
51
51
34
51
51
34
51
119
170
51
119
170
51
119
170
51
119
170
51
119
170
51
119
119
119
51
51
51
153
153
136
119
119
119
51
51
51
85
85
85
85
85
85
51
34
51
85
85
85
51
34
51
119
170
51
119
170
51
119
170
51
119
170
51
119
170
51
119
170
51
119
170
51
119
170
51
51
119
68
85
85
85
119
119
119
51
51
51
119
119
119
85
85
85
51
51
51
51
51
51
51
34
51
119
170
51
119
170
51
119
170
51
51
119
68
51
119
68
153
85
85
34
204
221
34
204
221
221
238
238
255
255
255
51
119
68
51
119
68
119
170
51
51
119
68
51
119
68
51
119
68
51
119
68
51
119
68
119
170
51
51
119
68
119
170
51
51
119
68
119
170
51
51
119
68
51
119
68
51
119
68
51
119
68
51
119
68
51
119
68
51
119
68
51
119
68
51
119
68
51
119
68
119
170
51
119
170
51
119
170
51
119
170
51
51
119
68
119
68
68
119
68
68
102
51
68
187
119
85
51
119
68
51
119
68
51
119
68
119
170
51
119
170
51
119
170
51
119
170
51
187
221
68
51
119
68
119
170
51
119
170
51
51
119
68
119
68
68
119
68
68
102
51
68
187
119
85
51
119
68
51
119
68
51
119
68
119
170
51
119
170
51
119
170
51
119
170
51
187
221
68
51
119
68
119
170
51
119
170
51
51
119
68
119
68
68
119
68
68
102
51
68
187
119
85
51
119
68
51
119
68
51
119
68
119
170
51
119
170
51
119
170
51
119
170
51
187
221
68
51
119
68
119
170
51
119
170
51
119
170
51
119
170
51
119
119
119
119
119
119
153
153
136
204
204
187
153
153
136
119
119
119
119
119
119
153
153
136
119
119
119
119
119
119
51
34
51
119
170
51
119
170
51
119
170
51
119
170
51
119
170
51
153
153
136
153
153
136
119
119
119
153
153
136
153
153
136
119
119
119
119
119
119
119
119
119
119
119
119
119
119
119
51
34
51
119
170
51
119
170
51
119
170
51
119
170
51
119
119
119
85
85
85
153
153
136
119
119
119
153
153
136
153
153
136
119
119
119
153
153
136
51
34
51
119
119
119
119
119
119
85
85
85
51
34
51
119
170
51
119
170
51
119
170
51
119
170
51
119
170
51
153
85
85
119
68
68
153
153
136
204
204
187
187
119
85
170
17
17
170
17
17
153
153
136
153
85
85
119
68
68
51
34
51
119
170
51
119
170
51
119
170
51
119
170
51
119
170
51
153
153
136
153
153
136
153
85
85
153
153
136
187
119
85
170
17
17
153
85
85
170
17
17
170
17
17
153
85
85
51
34
51
119
170
51
119
170
51
119
170
51
119
170
51
153
85
85
102
51
68
153
153
136
153
85
85
153
153
136
187
119
85
170
17
17
187
119
85
51
34
51
119
34
34
119
119
119
85
85
85
51
34
51
119
170
51
119
170
51
119
119
119
119
119
119
153
153
136
119
119
119
119
119
119
85
85
85
85
85
85
153
153
136
85
85
85
51
34
51
85
85
85
85
85
85
119
170
51
119
170
51
119
170
51
51
119
68
119
119
119
85
85
85
204
204
187
204
204
187
119
119
119
85
85
85
204
204
187
153
153
136
85
85
85
119
119
119
119
119
119
51
34
51
119
119
119
51
119
68
119
170
51
119
170
51
119
170
51
85
85
85
204
204
187
153
153
136
153
153
136
119
119
119
119
119
119
0
0
0
51
34
51
119
170
51
187
221
68
119
170
51
187
221
68
51
119
68
119
170
51
119
170
51
119
170
51
85
85
85
204
204
187
255
255
255
221
238
238
119
119
119
51
34
51
85
85
85
85
85
85
119
119
119
51
34
51
119
170
51
119
170
51
119
170
51
119
170
51
85
85
85
119
119
119
255
255
255
221
238
238
51
34
51
51
34
51
153
153
136
204
204
187
204
204
187
51
34
51
51
51
51
51
34
51
119
170
51
119
170
51
119
170
51
119
170
51
119
170
51
119
119
119
221
238
238
221
238
238
204
204
187
51
34
51
85
85
85
119
119
119
153
153
136
51
34
51
85
85
85
85
85
85
51
34
51
119
170
51
119
170
51
119
170
51
85
85
85
85
85
85
119
119
119
85
85
85
119
119
119
85
85
85
51
34
51
85
85
85
51
51
51
51
34
51
51
34
51
119
170
51
119
170
51
119
170
51
119
170
51
119
119
119
85
85
85
153
153
136
119
119
119
85
85
85
51
51
51
119
119
119
153
153
136
85
85
85
51
34
51
51
51
51
51
34
51
119
170
51
119
170
51
119
170
51
119
170
51
119
170
51
119
170
51
119
170
51
85
85
85
153
153
136
85
85
85
85
85
85
119
119
119
85
85
85
51
34
51
85
85
85
51
34
51
119
170
51
119
170
51
119
170
51
119
170
51
51
119
68
51
119
68
238
204
153
255
255
255
255
255
255
51
119
68
51
119
68
51
119
68
119
170
51
51
119
68
119
68
68
119
68
68
153
85
85
51
119
68
51
119
68
119
170
51
119
170
51
119
170
51
51
119
68
51
119
68
119
68
68
153
85
85
51
119
68
51
119
68
51
119
68
51
119
68
51
119
68
51
119
68
119
170
51
119
170
51
119
170
51
119
170
51
119
170
51
119
170
51
51
119
68
153
85
85
153
85
85
51
119
68
51
119
68
51
119
68
51
119
68
119
170
51
51
119
68
119
170
51
51
119
68
51
119
68
119
170
51
119
170
51
119
170
51
119
170
51
51
119
68
153
85
85
153
85
85
51
119
68
51
119
68
51
119
68
51
119
68
119
170
51
51
119
68
119
170
51
51
119
68
51
119
68
119
170
51
119
170
51
119
170
51
119
170
51
51
119
68
153
85
85
153
85
85
51
119
68
51
119
68
51
119
68
51
119
68
119
170
51
51
119
68
119
170
51
51
119
68
51
119
68
119
170
51
119
170
51
119
170
51
119
170
51
119
119
119
85
85
85
119
119
119
153
153
136
153
153
136
119
119
119
119
119
119
85
85
85
119
119
119
153
153
136
85
85
85
119
119
119
51
34
51
119
170
51
119
170
51
119
170
51
119
170
51
119
119
119
119
119
119
153
153
136
119
119
119
119
119
119
119
119
119
119
119
119
153
153
136
85
85
85
119
119
119
119
119
119
51
34
51
119
170
51
119
170
51
119
119
119
85
85
85
153
153
136
119
119
119
153
153
136
119
119
119
119
119
119
119
119
119
119
119
119
153
153
136
51
34
51
119
119
119
51
34
51
119
119
119
51
34
51
119
170
51
119
170
51
119
170
51
119
119
119
102
51
68
153
85
85
153
153
136
187
119
85
170
17
17
153
85
85
102
51
68
119
119
119
153
153
136
102
51
68
119
119
119
51
34
51
119
170
51
119
170
51
119
170
51
119
170
51
153
85
85
153
85
85
153
153
136
153
85
85
170
17
17
119
34
34
119
119
119
153
153
136
119
34
34
119
68
68
119
119
119
51
34
51
119
170
51
119
170
51
119
119
119
85
85
85
153
153
136
153
85
85
187
119
85
153
85
85
153
85
85
119
34
34
170
17
17
153
153
136
51
34
51
119
119
119
51
34
51
119
119
119
119
170
51
119
170
51
119
119
119
119
119
119
153
153
136
119
119
119
119
119
119
85
85
85
51
34
51
85
85
85
153
153
136
119
119
119
51
34
51
85
85
85
119
170
51
119
170
51
51
119
68
119
119
119
119
119
119
119
119
119
153
153
136
153
153
136
85
85
85
153
153
136
153
153
136
204
204
187
85
85
85
85
85
85
119
119
119
85
85
85
51
34
51
85
85
85
119
170
51
119
170
51
85
85
85
153
153
136
153
153
136
119
119
119
119
119
119
119
119
119
85
85
85
0
0
0
51
34
51
51
34
51
119
170
51
187
221
68
51
119
68
119
170
51
119
170
51
119
170
51
85
85
85
119
119
119
255
255
255
204
204
187
119
119
119
51
34
51
85
85
85
51
34
51
85
85
85
119
119
119
51
34
51
51
34
51
119
170
51
119
170
51
119
170
51
204
204
187
153
153
136
221
238
238
204
204
187
51
34
51
85
85
85
119
119
119
153
153
136
51
34
51
85
85
85
51
51
51
51
34
51
51
119
68
119
170
51
119
170
51
119
170
51
119
170
51
221
238
238
119
119
119
204
204
187
153
153
136
51
34
51
85
85
85
153
153
136
221
238
238
51
34
51
85
85
85
85
85
85
51
34
51
51
119
68
119
170
51
119
170
51
51
51
51
85
85
85
119
119
119
85
85
85
153
153
136
85
85
85
51
34
51
51
51
51
51
51
51
51
34
51
51
34
51
51
119
68
119
170
51
119
170
51
119
170
51
85
85
85
51
51
51
119
119
119
85
85
85
51
51
51
85
85
85
153
153
136
153
153
136
85
85
85
51
51
51
85
85
85
51
51
51
51
34
51
119
170
51
119
170
51
119
170
51
119
170
51
119
170
51
51
51
51
85
85
85
119
119
119
85
85
85
119
119
119
119
119
119
85
85
85
51
34
51
51
51
51
51
51
51
51
34
51
119
170
51
119
170
51
119
170
51
187
119
85
51
119
68
51
119
68
51
119
68
51
119
68
51
119
68
51
119
68
119
170
51
51
119
68
119
68
68
51
119
170
51
119
170
51
119
170
238
153
102
51
119
68
119
170
51
119
170
51
51
119
68
119
170
51
119
68
68
51
119
170
51
119
170
153
85
85
119
170
51
51
119
68
51
119
68
187
221
68
119
170
51
187
221
68
51
119
68
119
170
51
119
170
51
119
170
51
51
119
68
51
119
68
51
119
68
51
119
68
51
119
68
51
119
68
119
170
51
119
170
51
51
119
68
51
119
68
51
119
68
51
119
68
51
119
68
51
119
68
119
170
51
119
170
51
51
119
68
51
119
68
51
119
68
51
119
68
51
119
68
51
119
68
119
170
51
119
170
51
51
119
68
51
119
68
51
119
68
51
119
68
51
119
68
51
119
68
119
170
51
119
170
51
51
119
68
51
119
68
51
119
68
51
119
68
51
119
68
51
119
68
119
170
51
119
170
51
51
119
68
51
119
68
51
119
68
51
119
68
51
119
68
51
119
68
119
170
51
119
170
51
119
119
119
85
85
85
119
119
119
153
153
136
119
119
119
85
85
85
119
119
119
153
153
136
119
119
119
85
85
85
153
153
136
51
34
51
119
119
119
51
34
51
119
170
51
119
170
51
119
170
51
119
119
119
85
85
85
153
153
136
119
119
119
51
34
51
119
119
119
119
119
119
119
119
119
119
119
119
153
153
136
51
34
51
119
119
119
119
119
119
51
34
51
119
119
119
85
85
85
119
119
119
153
153
136
153
153
136
119
119
119
51
34
51
119
119
119
153
153
136
119
119
119
119
119
119
51
34
51
119
119
119
119
119
119
51
34
51
51
34
51
51
34
51
119
170
51
119
119
119
102
51
68
119
119
119
153
153
136
119
34
34
119
34
34
170
17
17
153
153
136
119
119
119
102
51
68
153
153
136
51
34
51
119
119
119
51
34
51
119
170
51
119
170
51
119
170
51
119
119
119
102
51
68
153
153
136
153
85
85
51
34
51
119
119
119
119
119
119
153
85
85
119
119
119
153
153
136
51
34
51
119
119
119
119
119
119
51
34
51
119
119
119
85
85
85
119
119
119
153
153
136
153
153
136
153
85
85
51
34
51
119
119
119
153
153
136
153
85
85
170
17
17
51
34
51
119
119
119
119
119
119
51
34
51
119
170
51
119
119
119
85
85
85
153
153
136
119
119
119
153
153
136
119
119
119
85
85
85
85
85
85
51
34
51
85
85
85
153
153
136
51
34
51
85
85
85
119
170
51
119
170
51
119
119
119
119
119
119
119
119
119
153
153
136
119
119
119
119
119
119
153
153
136
85
85
85
119
119
119
153
153
136
119
119
119
51
34
51
119
119
119
119
119
119
85
85
85
119
119
119
119
170
51
119
170
51
153
153
136
153
153
136
119
119
119
119
119
119
119
119
119
85
85
85
51
34
51
85
85
85
0
0
0
51
34
51
119
170
51
119
170
51
119
170
51
119
170
51
119
170
51
119
170
51
204
204
187
153
153
136
153
153
136
153
153
136
119
119
119
51
34
51
85
85
85
119
119
119
153
153
136
153
153
136
119
119
119
51
34
51
119
170
51
119
170
51
119
170
51
204
204
187
221
238
238
204
204
187
51
34
51
85
85
85
119
119
119
204
204
187
255
255
255
51
34
51
85
85
85
85
85
85
51
34
51
51
119
68
119
170
51
119
170
51
119
170
51
119
119
119
204
204
187
51
34
51
85
85
85
204
204
187
153
153
136
85
85
85
221
238
238
204
204
187
51
34
51
153
153
136
119
119
119
85
85
85
51
34
51
119
170
51
85
85
85
85
85
85
119
119
119
51
51
51
153
153
136
119
119
119
85
85
85
51
34
51
51
51
51
85
85
85
51
34
51
51
34
51
51
34
51
119
170
51
119
170
51
51
119
68
85
85
85
51
34
51
85
85
85
85
85
85
51
34
51
85
85
85
153
153
136
119
119
119
85
85
85
85
85
85
51
51
51
85
85
85
51
34
51
51
119
68
119
170
51
119
170
51
119
170
51
51
51
51
153
153
136
119
119
119
85
85
85
51
51
51
85
85
85
85
85
85
85
85
85
85
85
85
51
34
51
51
51
51
51
34
51
119
170
51
119
170
51
119
170
51
119
170
51
119
170
51
51
119
68
187
221
68
51
119
68
187
221
68
51
119
68
51
119
68
119
68
68
51
119
170
34
204
221
34
204
221
34
204
221
238
204
153
51
119
68
119
170
51
51
119
68
51
119
68
119
68
68
51
119
170
51
119
170
34
204
221
34
204
221
153
85
85
119
170
51
51
119
68
119
170
51
187
221
68
51
119
68
119
170
51
51
119
68
119
170
51
119
170
51
119
170
51
51
119
68
51
119
68
51
119
68
51
119
68
119
170
51
119
170
51
51
119
68
51
119
68
51
119
68
51
34
51
51
34
51
119
68
68
51
119
68
51
119
68
119
170
51
119
170
51
51
119
68
51
119
68
51
119
68
51
119
68
119
170
51
119
170
51
51
119
68
51
119
68
51
119
68
51
34
51
51
34
51
119
68
68
51
119
68
51
119
68
119
170
51
119
170
51
51
119
68
51
119
68
51
119
68
51
119
68
119
170
51
119
170
51
51
119
68
51
119
68
51
119
68
51
34
51
51
34
51
119
68
68
51
119
68
51
119
68
119
119
119
85
85
85
119
119
119
153
153
136
119
119
119
51
34
51
153
153
136
119
119
119
119
119
119
153
153
136
51
34
51
119
119
119
153
153
136
51
34
51
119
119
119
51
34
51
51
119
68
119
119
119
85
85
85
153
153
136
153
153
136
51
34
51
153
153
136
119
119
119
119
119
119
119
119
119
85
85
85
153
153
136
119
119
119
51
34
51
119
119
119
51
34
51
68
85
85
85
85
85
153
153
136
153
153
136
119
119
119
51
34
51
119
119
119
204
204
187
119
119
119
85
85
85
119
119
119
119
119
119
51
34
51
119
119
119
51
34
51
51
34
51
51
34
51
119
119
119
85
85
85
153
85
85
153
153
136
119
34
34
51
34
51
153
153
136
153
85
85
119
34
34
153
153
136
51
34
51
119
119
119
153
153
136
51
34
51
119
119
119
51
34
51
51
119
68
119
119
119
85
85
85
153
153
136
153
153
136
51
34
51
153
153
136
119
119
119
153
85
85
119
119
119
85
85
85
153
153
136
119
119
119
51
34
51
119
119
119
51
34
51
68
85
85
85
85
85
153
153
136
153
153
136
153
85
85
51
34
51
119
119
119
204
204
187
119
119
119
119
34
34
153
85
85
119
119
119
51
34
51
119
119
119
51
34
51
119
170
51
119
119
119
119
119
119
119
119
119
119
119
119
153
153
136
119
119
119
119
119
119
85
85
85
51
34
51
51
34
51
85
85
85
119
119
119
51
34
51
85
85
85
119
170
51
51
119
68
119
119
119
119
119
119
119
119
119
119
119
119
119
119
119
85
85
85
85
85
85
119
119
119
153
153
136
119
119
119
51
34
51
85
85
85
119
119
119
119
119
119
119
119
119
119
170
51
119
119
119
119
119
119
153
153
136
119
119
119
119
119
119
51
34
51
51
34
51
119
119
119
153
153
136
85
85
85
51
34
51
51
34
51
119
170
51
119
170
51
119
170
51
119
170
51
85
85
85
119
119
119
204
204
187
204
204
187
153
153
136
153
153
136
51
34
51
85
85
85
85
85
85
204
204
187
153
153
136
153
153
136
51
34
51
51
119
68
119
170
51
119
170
51
153
153
136
204
204
187
51
34
51
85
85
85
85
85
85
119
119
119
255
255
255
221
238
238
119
119
119
85
85
85
85
85
85
119
119
119
51
34
51
51
119
68
119
170
51
119
170
51
119
119
119
51
34
51
85
85
85
119
119
119
51
34
51
85
85
85
85
85
85
153
153
136
51
34
51
153
153
136
221
238
238
51
34
51
85
85
85
51
34
51
119
170
51
51
51
51
85
85
85
85
85
85
51
51
51
119
119
119
85
85
85
85
85
85
51
51
51
51
34
51
85
85
85
51
51
51
51
34
51
51
51
51
51
34
51
119
170
51
51
119
68
51
34
51
51
51
51
85
85
85
51
51
51
51
34
51
85
85
85
119
119
119
85
85
85
51
51
51
85
85
85
51
34
51
51
51
51
51
34
51
51
51
51
119
170
51
119
170
51
119
170
51
51
51
51
119
119
119
51
51
51
51
51
51
51
51
51
119
119
119
51
51
51
51
51
51
85
85
85
51
34
51
51
51
51
51
51
51
51
34
51
119
170
51
51
119
68
119
170
51
119
170
51
119
170
51
51
119
68
187
221
68
119
170
51
51
119
68
119
68
68
51
119
170
34
204
221
34
204
221
34
204
221
255
255
255
51
119
68
119
170
51
119
170
51
51
119
68
51
119
68
153
85
85
51
119
170
34
204
221
34
204
221
34
204
221
238
204
153
51
119
68
51
119
68
119
170
51
51
119
68
51
119
68
51
119
68
119
170
51
119
170
51
119
170
51
119
170
51
119
170
51
51
119
68
119
170
51
119
170
51
119
170
51
119
170
51
51
119
68
51
119
68
51
34
51
102
51
68
102
51
68
119
68
68
153
85
85
51
119
68
119
170
51
119
170
51
119
170
51
51
119
68
119
170
51
119
170
51
119
170
51
119
170
51
51
119
68
51
119
68
51
34
51
102
51
68
102
51
68
119
68
68
153
85
85
51
119
68
119
170
51
119
170
51
119
170
51
51
119
68
119
170
51
119
170
51
119
170
51
119
170
51
51
119
68
51
119
68
51
34
51
102
51
68
102
51
68
119
68
68
153
85
85
51
119
68
68
85
85
119
119
119
119
119
119
119
119
119
51
34
51
153
153
136
153
153
136
119
119
119
119
119
119
153
153
136
119
119
119
51
34
51
119
119
119
119
119
119
51
34
51
51
34
51
68
85
85
85
85
85
153
153
136
153
153
136
119
119
119
51
34
51
153
153
136
119
119
119
119
119
119
119
119
119
51
34
51
119
119
119
119
119
119
119
119
119
51
34
51
51
34
51
119
119
119
68
85
85
153
153
136
119
119
119
119
119
119
51
34
51
204
204
187
153
153
136
153
153
136
85
85
85
119
119
119
119
119
119
119
119
119
51
34
51
51
34
51
68
85
85
85
85
85
68
85
85
153
85
85
153
85
85
153
85
85
51
34
51
153
153
136
153
153
136
187
119
85
170
17
17
153
153
136
119
68
68
51
34
51
119
119
119
119
119
119
51
34
51
51
34
51
68
85
85
85
85
85
153
153
136
153
153
136
119
119
119
51
34
51
153
153
136
153
85
85
153
85
85
119
68
68
51
34
51
119
119
119
119
119
119
119
119
119
51
34
51
51
34
51
119
119
119
68
85
85
153
153
136
119
119
119
119
119
119
51
34
51
204
204
187
153
153
136
153
153
136
85
85
85
119
119
119
119
119
119
119
119
119
51
34
51
51
34
51
119
170
51
119
119
119
119
119
119
119
119
119
119
119
119
119
119
119
119
119
119
119
119
119
119
119
119
85
85
85
51
34
51
51
34
51
85
85
85
51
34
51
85
85
85
119
170
51
119
170
51
51
119
68
85
85
85
85
85
85
85
85
85
85
85
85
51
34
51
119
119
119
119
119
119
119
119
119
119
119
119
85
85
85
51
34
51
85
85
85
119
119
119
68
85
85
119
170
51
119
119
119
119
119
119
119
119
119
119
119
119
51
34
51
0
0
0
85
85
85
153
153
136
153
153
136
85
85
85
0
0
0
51
34
51
85
85
85
119
170
51
119
170
51
119
170
51
119
119
119
119
119
119
51
34
51
119
119
119
204
204
187
119
119
119
51
34
51
85
85
85
119
119
119
204
204
187
221
238
238
85
85
85
51
34
51
51
119
68
119
170
51
51
119
68
119
119
119
153
153
136
51
34
51
85
85
85
85
85
85
204
204
187
221
238
238
153
153
136
51
34
51
85
85
85
204
204
187
119
119
119
51
34
51
51
119
68
51
119
68
119
170
51
119
119
119
85
85
85
119
119
119
153
153
136
51
34
51
85
85
85
85
85
85
119
119
119
51
34
51
221
238
238
204
204
187
51
34
51
85
85
85
51
34
51
51
119
68
85
85
85
85
85
85
85
85
85
51
51
51
119
119
119
85
85
85
51
51
51
51
51
51
51
34
51
51
51
51
51
51
51
51
34
51
51
51
51
51
34
51
51
119
68
51
119
68
51
51
51
85
85
85
85
85
85
51
51
51
51
34
51
85
85
85
85
85
85
85
85
85
51
34
51
51
51
51
85
85
85
51
51
51
51
34
51
51
34
51
51
119
68
119
170
51
119
170
51
85
85
85
85
85
85
51
51
51
51
51
51
85
85
85
119
119
119
51
34
51
51
51
51
85
85
85
51
34
51
51
34
51
51
51
51
51
34
51
51
119
68
119
170
51
51
119
68
51
119
68
51
119
68
51
119
68
119
170
51
51
119
68
51
119
68
153
85
85
51
119
170
34
204
221
34
204
221
255
255
255
51
119
68
51
119
68
119
170
51
119
170
51
51
119
68
51
119
68
51
119
68
153
85
85
34
204
221
34
204
221
34
204
221
255
255
255
51
119
68
119
170
51
51
119
68
119
170
51
51
119
68
187
119
85
119
170
51
119
170
51
119
170
51
187
119
85
119
170
51
119
170
51
119
170
51
119
170
51
119
170
51
51
119
68
51
119
68
51
119
68
51
34
51
102
51
68
119
68
68
102
51
68
153
85
85
51
119
68
119
170
51
187
119
85
119
170
51
119
170
51
119
170
51
119
170
51
119
170
51
51
119
68
51
119
68
51
119
68
51
34
51
102
51
68
119
68
68
102
51
68
153
85
85
51
119
68
119
170
51
187
119
85
119
170
51
119
170
51
119
170
51
119
170
51
119
170
51
51
119
68
51
119
68
51
119
68
51
34
51
102
51
68
119
68
68
102
51
68
153
85
85
51
119
68
51
119
68
85
85
85
119
119
119
119
119
119
51
34
51
153
153
136
153
153
136
153
153
136
119
119
119
119
119
119
119
119
119
51
34
51
119
119
119
119
119
119
51
34
51
85
85
85
51
119
68
68
85
85
119
119
119
119
119
119
51
34
51
153
153
136
153
153
136
153
153
136
119
119
119
119
119
119
119
119
119
51
34
51
119
119
119
119
119
119
51
34
51
85
85
85
51
119
68
51
119
68
85
85
85
119
119
119
51
34
51
153
153
136
153
153
136
153
153
136
153
153
136
119
119
119
85
85
85
119
119
119
119
119
119
51
34
51
51
34
51
51
119
68
51
119
68
51
119
68
85
85
85
153
85
85
119
68
68
51
34
51
153
153
136
153
153
136
153
153
136
187
119
85
153
85
85
119
68
68
51
34
51
119
119
119
119
119
119
51
34
51
85
85
85
51
119
68
68
85
85
119
119
119
119
119
119
51
34
51
153
153
136
153
153
136
153
153
136
119
119
119
119
68
68
119
68
68
51
34
51
119
119
119
119
119
119
51
34
51
85
85
85
51
119
68
51
119
68
85
85
85
119
119
119
51
34
51
153
153
136
153
153
136
153
153
136
153
153
136
119
119
119
85
85
85
119
119
119
119
119
119
51
34
51
51
34
51
85
85
85
119
119
119
119
119
119
119
119
119
119
119
119
51
34
51
85
85
85
119
119
119
119
119
119
85
85
85
51
34
51
51
34
51
51
34
51
51
34
51
51
34
51
85
85
85
119
170
51
119
119
119
119
119
119
119
119
119
51
34
51
51
34
51
85
85
85
119
119
119
119
119
119
85
85
85
153
153
136
153
153
136
119
119
119
85
85
85
85
85
85
119
170
51
119
170
51
119
119
119
119
119
119
85
85
85
51
34
51
0
0
0
119
119
119
153
153
136
85
85
85
119
119
119
119
119
119
0
0
0
85
85
85
51
34
51
85
85
85
119
170
51
51
119
68
119
119
119
51
34
51
85
85
85
119
119
119
255
255
255
204
204
187
51
34
51
85
85
85
153
153
136
255
255
255
204
204
187
85
85
85
51
34
51
51
34
51
51
119
68
119
119
119
119
119
119
51
34
51
85
85
85
51
34
51
85
85
85
221
238
238
204
204
187
51
34
51
85
85
85
204
204
187
51
34
51
51
51
51
119
119
119
51
34
51
51
119
68
51
119
68
119
119
119
85
85
85
204
204
187
51
34
51
85
85
85
51
34
51
85
85
85
85
85
85
51
34
51
204
204
187
153
153
136
51
34
51
85
85
85
51
34
51
51
119
68
85
85
85
51
51
51
51
51
51
85
85
85
119
119
119
51
51
51
51
51
51
85
85
85
51
34
51
51
51
51
51
51
51
51
51
51
51
34
51
51
34
51
51
119
68
51
119
68
51
34
51
51
34
51
51
51
51
51
51
51
51
51
51
85
85
85
51
51
51
51
51
51
51
34
51
85
85
85
51
51
51
51
34
51
51
34
51
51
34
51
51
119
68
119
170
51
51
119
68
85
85
85
51
51
51
51
51
51
51
51
51
119
119
119
85
85
85
51
34
51
51
51
51
85
85
85
51
51
51
51
34
51
51
34
51
51
34
51
51
119
68
119
170
51
119
170
51
51
119
68
51
119
68
187
119
85
51
119
68
51
119
68
51
119
68
51
119
68
153
85
85
34
204
221
221
238
238
238
204
153
51
119
68
51
119
68
119
170
51
119
170
51
187
119
85
119
170
51
51
119
68
51
119
68
238
204
153
255
255
255
255
255
255
51
119
68
51
119
68
187
119
85
119
170
51
51
119
68
51
119
68
119
170
51
119
170
51
119
170
51
119
170
51
187
221
68
119
170
51
187
221
68
51
119
68
119
170
51
51
119
68
51
119
68
51
119
68
119
68
68
102
51
68
119
68
68
102
51
68
187
119
85
51
119
68
51
119
68
119
170
51
187
221
68
119
170
51
187
221
68
51
119
68
119
170
51
51
119
68
51
119
68
51
119
68
119
68
68
102
51
68
119
68
68
102
51
68
187
119
85
51
119
68
51
119
68
119
170
51
187
221
68
119
170
51
187
221
68
51
119
68
119
170
51
51
119
68
51
119
68
51
119
68
119
68
68
102
51
68
119
68
68
102
51
68
187
119
85
51
119
68
51
119
68
119
170
51
51
119
68
85
85
85
51
34
51
119
119
119
119
119
119
153
153
136
153
153
136
153
153
136
119
119
119
119
119
119
51
34
51
51
34
51
51
34
51
68
85
85
51
119
68
119
170
51
51
119
68
85
85
85
85
85
85
85
85
85
119
119
119
153
153
136
153
153
136
119
119
119
119
119
119
119
119
119
51
34
51
119
119
119
85
85
85
51
34
51
51
119
68
119
170
51
119
170
51
51
119
68
68
85
85
85
85
85
119
119
119
153
153
136
153
153
136
119
119
119
119
119
119
51
34
51
119
119
119
51
34
51
51
34
51
68
85
85
51
119
68
51
119
68
119
170
51
51
119
68
85
85
85
51
34
51
119
119
119
119
119
119
153
153
136
153
153
136
153
153
136
153
85
85
119
68
68
51
34
51
51
34
51
51
34
51
68
85
85
51
119
68
119
170
51
51
119
68
85
85
85
85
85
85
85
85
85
119
119
119
153
153
136
153
153
136
119
119
119
119
119
119
119
119
119
51
34
51
119
119
119
85
85
85
51
34
51
51
119
68
119
170
51
119
170
51
51
119
68
68
85
85
85
85
85
119
119
119
153
153
136
153
153
136
119
119
119
119
119
119
51
34
51
119
119
119
51
34
51
51
34
51
68
85
85
85
85
85
119
119
119
119
119
119
119
119
119
119
119
119
85
85
85
51
34
51
85
85
85
85
85
85
85
85
85
85
85
85
51
34
51
51
34
51
51
34
51
51
34
51
51
34
51
51
119
68
119
119
119
119
119
119
85
85
85
85
85
85
85
85
85
119
119
119
119
119
119
85
85
85
85
85
85
153
153
136
119
119
119
153
153
136
119
119
119
119
119
119
51
119
68
85
85
85
85
85
85
119
119
119
119
119
119
119
119
119
119
119
119
119
119
119
119
119
119
119
119
119
119
119
119
119
119
119
0
0
0
51
34
51
51
34
51
51
34
51
119
170
51
51
119
68
119
119
119
51
34
51
85
85
85
221
238
238
204
204
187
51
34
51
85
85
85
153
153
136
255
255
255
119
119
119
204
204
187
51
34
51
51
34
51
85
85
85
51
34
51
119
119
119
85
85
85
85
85
85
153
153
136
119
119
119
51
34
51
85
85
85
51
34
51
85
85
85
85
85
85
51
34
51
85
85
85
85
85
85
119
119
119
51
34
51
51
119
68
119
119
119
85
85
85
204
204
187
153
153
136
51
34
51
153
153
136
221
238
238
51
34
51
85
85
85
51
34
51
153
153
136
51
34
51
85
85
85
85
85
85
51
34
51
51
119
68
51
51
51
51
34
51
51
34
51
85
85
85
85
85
85
51
51
51
51
51
51
51
51
51
51
34
51
51
34
51
51
34
51
51
51
51
51
34
51
51
119
68
51
119
68
51
119
68
51
119
68
51
51
51
51
34
51
51
51
51
51
51
51
51
51
51
51
51
51
51
34
51
51
34
51
51
34
51
51
34
51
51
34
51
51
34
51
51
119
68
119
170
51
119
170
51
51
119
68
51
119
68
51
51
51
51
34
51
85
85
85
85
85
85
51
51
51
51
34
51
51
34
51
51
51
51
51
34
51
51
34
51
51
34
51
51
51
51
51
119
68
119
170
51
51
119
68
119
170
51
51
119
68
51
119
68
119
170
51
119
170
51
119
170
51
51
119
68
51
119
68
238
153
102
238
204
153
51
119
68
51
119
68
187
119
85
119
170
51
119
170
51
119
170
51
187
221
68
119
170
51
187
221
68
51
119
68
51
119
68
51
119
68
51
119
68
51
119
68
51
119
68
119
170
51
119
170
51
119
170
51
51
119
68
119
170
51
119
170
51
119
170
51
187
221
68
51
119
68
51
119
68
119
170
51
119
170
51
51
119
68
51
119
68
51
119
68
119
68
68
119
68
68
102
51
68
187
119
85
51
119
68
51
119
68
119
170
51
119
170
51
187
221
68
51
119
68
51
119
68
119
170
51
119
170
51
51
119
68
51
119
68
51
119
68
119
68
68
119
68
68
102
51
68
187
119
85
51
119
68
51
119
68
119
170
51
119
170
51
187
221
68
51
119
68
51
119
68
119
170
51
119
170
51
51
119
68
51
119
68
51
119
68
119
68
68
119
68
68
102
51
68
187
119
85
51
119
68
51
119
68
119
170
51
119
170
51
119
170
51
51
119
68
68
85
85
85
85
85
85
85
85
119
119
119
119
119
119
119
119
119
85
85
85
51
34
51
51
34
51
187
221
68
51
119
68
187
221
68
51
119
68
119
170
51
119
170
51
51
119
68
51
119
68
68
85
85
85
85
85
119
119
119
119
119
119
119
119
119
119
119
119
85
85
85
51
34
51
51
34
51
51
34
51
51
119
68
51
119
68
119
170
51
187
221
68
119
170
51
187
221
68
51
119
68
85
85
85
85
85
85
119
119
119
153
153
136
119
119
119
51
34
51
85
85
85
51
34
51
51
119
68
51
119
68
51
119
68
119
170
51
119
170
51
119
170
51
51
119
68
68
85
85
85
85
85
85
85
85
119
119
119
119
119
119
119
119
119
85
85
85
51
34
51
51
34
51
187
221
68
51
119
68
187
221
68
51
119
68
119
170
51
119
170
51
51
119
68
51
119
68
68
85
85
85
85
85
119
119
119
119
119
119
119
119
119
119
119
119
85
85
85
51
34
51
51
34
51
51
34
51
51
119
68
51
119
68
119
170
51
187
221
68
119
170
51
187
221
68
51
119
68
85
85
85
85
85
85
119
119
119
153
153
136
119
119
119
51
34
51
85
85
85
51
34
51
51
119
68
51
119
68
85
85
85
85
85
85
119
119
119
119
119
119
85
85
85
51
34
51
51
34
51
51
34
51
51
34
51
51
34
51
51
34
51
51
34
51
51
34
51
51
34
51
51
34
51
85
85
85
119
119
119
119
119
119
119
119
119
68
85
85
85
85
85
85
85
85
119
119
119
85
85
85
85
85
85
119
119
119
119
119
119
85
85
85
119
119
119
119
119
119
119
119
119
119
119
119
85
85
85
85
85
85
119
119
119
119
119
119
119
119
119
85
85
85
85
85
85
85
85
85
85
85
85
119
119
119
85
85
85
85
85
85
0
0
0
51
34
51
51
34
51
68
85
85
119
119
119
119
119
119
85
85
85
85
85
85
85
85
85
85
85
85
85
85
85
85
85
85
221
238
238
204
204
187
204
204
187
51
34
51
85
85
85
51
34
51
51
34
51
51
119
68
119
119
119
119
119
119
85
85
85
153
153
136
153
153
136
51
34
51
119
119
119
119
119
119
85
85
85
119
119
119
187
221
68
51
34
51
187
221
68
51
119
68
51
34
51
51
119
68
119
119
119
187
221
68
119
119
119
187
221
68
51
119
68
221
238
238
204
204
187
85
85
85
51
34
51
51
34
51
85
85
85
51
34
51
51
34
51
51
34
51
51
119
68
119
170
51
51
119
68
51
119
68
51
51
51
85
85
85
51
51
51
51
51
51
51
34
51
51
34
51
51
34
51
51
34
51
51
34
51
51
51
51
51
119
68
51
119
68
51
119
68
119
170
51
119
170
51
51
119
68
51
51
51
51
51
51
51
51
51
51
34
51
51
34
51
51
34
51
51
34
51
51
119
68
51
119
68
51
119
68
119
170
51
119
170
51
119
170
51
119
170
51
119
170
51
51
119
68
51
119
68
51
119
68
51
51
51
51
51
51
51
51
51
51
34
51
51
34
51
51
51
51
51
34
51
51
34
51
51
51
51
51
119
68
51
119
68
119
170
51
119
170
51
119
170
51
119
170
51
51
119
68
51
119
68
119
170
51
119
170
51
119
170
51
51
119
68
51
119
68
51
119
68
51
119
68
119
170
51
119
170
51
119
170
51
119
170
51
119
170
51
119
170
51
187
221
68
187
119
85
119
170
51
51
119
68
119
170
51
119
170
51
119
170
51
119
170
51
119
170
51
119
170
51
119
170
51
119
170
51
119
170
51
119
170
51
119
170
51
119
170
51
187
221
68
51
119
68
119
170
51
187
119
85
119
170
51
51
119
68
51
119
68
51
119
68
153
85
85
153
85
85
51
119
68
51
119
68
119
170
51
119
170
51
119
170
51
119
170
51
187
221
68
51
119
68
119
170
51
187
119
85
119
170
51
51
119
68
51
119
68
51
119
68
153
85
85
153
85
85
51
119
68
51
119
68
119
170
51
119
170
51
119
170
51
119
170
51
187
221
68
51
119
68
119
170
51
187
119
85
119
170
51
51
119
68
51
119
68
51
119
68
153
85
85
153
85
85
51
119
68
51
119
68
119
170
51
119
170
51
119
170
51
119
170
51
119
170
51
51
119
68
51
119
68
51
119
68
85
85
85
85
85
85
68
85
85
68
85
85
51
119
68
51
119
68
51
119
68
187
221
68
51
119
68
119
170
51
119
170
51
119
170
51
119
170
51
119
170
51
51
119
68
51
119
68
85
85
85
85
85
85
85
85
85
51
34
51
51
34
51
51
119
68
51
119
68
51
119
68
51
119
68
119
170
51
119
170
51
119
170
51
187
221
68
51
119
68
51
119
68
51
119
68
51
119
68
68
85
85
85
85
85
51
34
51
51
34
51
51
34
51
51
119
68
51
119
68
51
119
68
119
170
51
119
170
51
119
170
51
119
170
51
119
170
51
51
119
68
51
119
68
51
119
68
85
85
85
85
85
85
68
85
85
68
85
85
51
119
68
51
119
68
51
119
68
187
221
68
51
119
68
119
170
51
119
170
51
119
170
51
119
170
51
119
170
51
51
119
68
51
119
68
85
85
85
85
85
85
85
85
85
51
34
51
51
34
51
51
119
68
51
119
68
51
119
68
51
119
68
119
170
51
119
170
51
119
170
51
187
221
68
51
119
68
51
119
68
51
119
68
51
119
68
68
85
85
85
85
85
51
34
51
51
34
51
51
34
51
51
119
68
51
119
68
51
119
68
119
170
51
85
85
85
85
85
85
85
85
85
85
85
85
68
85
85
68
85
85
51
119
68
51
119
68
51
34
51
51
34
51
85
85
85
51
34
51
51
34
51
85
85
85
51
34
51
119
170
51
51
119
68
51
119
68
119
170
51
68
85
85
119
119
119
119
119
119
119
119
119
119
119
119
119
119
119
119
119
119
119
119
119
85
85
85
68
85
85
51
119
68
119
170
51
119
170
51
85
85
85
85
85
85
85
85
85
85
85
85
68
85
85
68
85
85
51
119
68
51
119
68
85
85
85
51
34
51
51
34
51
51
34
51
51
34
51
68
85
85
51
119
68
119
170
51
51
119
68
51
119
68
187
221
68
51
119
68
187
221
68
51
119
68
51
119
68
119
119
119
119
119
119
85
85
85
51
34
51
51
34
51
51
119
68
51
119
68
51
119
68
119
170
51
51
119
68
153
153
136
119
119
119
119
119
119
119
119
119
51
119
68
51
119
68
119
119
119
51
34
51
51
34
51
187
221
68
51
119
68
51
119
68
51
119
68
51
119
68
119
170
51
51
119
68
187
221
68
51
119
68
85
85
85
51
34
51
51
34
51
51
34
51
51
119
68
51
119
68
51
34
51
187
221
68
51
34
51
187
221
68
51
119
68
119
170
51
119
170
51
119
170
51
119
170
51
51
119
68
51
119
68
51
119
68
51
119
68
51
119
68
51
119
68
119
170
51
119
170
51
119
170
51
119
170
51
119
170
51
119
170
51
119
170
51
119
170
51
119
170
51
51
119
68
51
119
68
51
119
68
51
119
68
51
119
68
51
119
68
51
119
68
51
119
68
51
119
68
119
170
51
119
170
51
119
170
51
119
170
51
51
119
68
51
119
68
51
119
68
51
119
68
51
119
68
51
119
68
51
119
68
51
119
68
51
119
68
51
119
68
51
119
68
51
119
68
51
119
68
51
119
68
51
119
68
119
170
51
119
170
51
119
170
51
119
170
51
119
170
51
119
170
51
119
170
51
119
170
51
255
255
255
255
255
255
119
170
51
119
170
51
119
170
51
119
170
51
119
170
51
119
170
51
119
170
51
119
170
51
119
170
51
119
170
51
119
170
51
119
170
51
119
170
51
119
170
51
204
204
187
255
255
255
204
204
187
119
170
51
119
170
51
119
170
51
119
170
51
119
170
51
119
170
51
119
170
51
119
170
51
119
170
51
119
170
51
119
170
51
119
170
51
119
170
51
204
204
187
204
204
187
153
153
136
119
170
51
119
170
51
119
170
51
119
170
51
119
170
51
119
170
51
119
170
51
51
119
68
51
119
68
51
119
68
119
170
51
119
170
51
119
170
51
119
170
51
119
170
51
119
170
51
119
170
51
119
170
51
51
119
68
51
119
68
68
85
85
119
170
51
119
170
51
119
170
51
119
170
51
51
119
68
51
119
68
68
85
85
119
170
51
119
170
51
119
170
51
51
119
68
51
119
68
68
85
85
119
170
51
119
170
51
119
170
51
119
170
51
119
170
51
119
170
51
119
170
51
119
170
51
119
170
51
119
170
51
119
170
51
51
119
68
51
119
68
51
119
68
51
119
68
51
119
68
119
170
51
119
170
51
119
170
51
119
170
51
119
170
51
119
170
51
119
170
51
119
170
51
119
170
51
119
170
51
119
170
51
51
119
68
51
119
68
51
119
68
51
119
68
51
119
68
51
119
68
119
170
51
119
170
51
119
170
51
119
170
51
119
170
51
119
170
51
119
170
51
119
170
51
119
170
51
119
170
51
119
170
51
51
119
68
51
119
68
51
119
68
51
119
68
51
119
68
51
119
68
119
170
51
119
170
51
119
170
51
119
170
51
119
170
51
119
170
51
119
170
51
119
170
51
119
170
51
119
170
51
51
119
68
51
119
68
51
119
68
51
119
68
51
119
68
119
170
51
119
170
51
119
170
51
119
170
51
119
170
51
119
170
51
119
170
51
119
170
51
119
170
51
119
170
51
119
170
51
51
119
68
51
119
68
51
119
68
51
119
68
51
119
68
51
119
68
119
170
51
119
170
51
119
170
51
119
170
51
119
170
51
119
170
51
119
170
51
119
170
51
119
170
51
119
170
51
119
170
51
51
119
68
51
119
68
51
119
68
51
119
68
51
119
68
51
119
68
119
170
51
119
170
51
119
170
51
119
170
51
51
119
68
51
119
68
51
119
68
51
119
68
51
119
68
51
119
68
51
119
68
51
119
68
68
85
85
68
85
85
68
85
85
51
119
68
51
119
68
119
170
51
119
170
51
119
170
51
119
170
51
119
170
51
119
170
51
119
119
119
119
119
119
51
119
68
119
170
51
119
119
119
51
119
68
119
119
119
119
119
119
119
119
119
119
170
51
119
170
51
119
170
51
119
170
51
119
170
51
51
119
68
51
119
68
51
119
68
51
119
68
51
119
68
51
119
68
51
119
68
51
119
68
68
85
85
68
85
85
51
119
68
119
170
51
119
170
51
119
170
51
119
170
51
119
170
51
51
119
68
187
221
68
51
119
68
119
170
51
51
119
68
51
119
68
51
119
68
51
119
68
51
119
68
51
119
68
51
119
68
51
119
68
119
170
51
119
170
51
119
170
51
51
119
68
51
119
68
51
119
68
51
119
68
51
119
68
51
119
68
51
119
68
51
119
68
51
119
68
51
119
68
51
119
68
119
170
51
119
170
51
119
170
51
119
170
51
119
170
51
119
170
51
51
119
68
51
119
68
51
119
68
51
119
68
51
119
68
119
170
51
119
170
51
51
119
68
51
119
68
187
221
68
51
119
68
51
119
68
119
170
51
119
170
51
119
170
51
119
170
51
119
170
51
119
170
51
119
170
51
119
170
51
119
170
51
51
119
68
51
119
68
51
119
68
119
170
51
119
170
51
119
170
51
119
170
51
119
170
51
119
170
51
119
170
51
119
170
51
119
170
51
119
170
51
119
170
51
119
170
51
119
119
119
51
119
68
119
170
51
119
170
51
119
170
51
119
170
51
119
170
51
119
170
51
119
170
51
119
170
51
119
170
51
119
170
51
119
170
51
119
170
51
119
170
51
119
170
51
119
170
51
119
170
51
119
170
51
119
170
51
119
170
51
119
170
51
119
170
51
119
170
51
119
170
51
119
170
51
119
170
51
119
170
51
119
170
51
119
170
51
221
238
238
255
255
255
221
238
238
136
136
170
119
170
51
119
170
51
187
221
68
119
170
51
187
221
68
51
119
68
119
170
51
119
170
51
119
170
51
119
170
51
119
170
51
119
170
51
119
170
51
255
255
255
221
238
238
221
238
238
153
153
136
119
170
51
187
221
68
119
170
51
187
221
68
51
119
68
119
170
51
119
170
51
119
170
51
119
170
51
119
170
51
119
170
51
119
170
51
255
255
255
255
255
255
204
204
187
119
170
51
119
170
51
187
221
68
119
170
51
187
221
68
51
119
68
119
170
51
119
170
51
119
170
51
238
204
153
238
204
153
238
204
153
238
204
153
238
204
153
119
170
51
238
204
153
238
204
153
238
153
102
119
170
51
238
153
102
238
204
153
119
170
51
119
170
51
119
170
51
119
170
51
238
204
153
238
204
153
238
204
153
238
204
153
238
204
153
238
204
153
238
204
153
238
204
153
119
170
51
119
170
51
119
170
51
119
170
51
119
170
51
119
170
51
119
170
51
119
170
51
119
170
51
119
170
51
119
170
51
238
204
153
238
204
153
238
204
153
238
204
153
119
170
51
119
170
51
119
170
51
119
170
51
119
170
51
119
170
51
119
170
51
51
119
68
51
119
68
51
119
68
119
170
51
119
170
51
119
170
51
119
170
51
119
170
51
119
170
51
119
170
51
119
170
51
51
119
68
51
119
68
68
85
85
119
170
51
119
170
51
119
170
51
119
170
51
51
119
68
51
119
68
68
85
85
119
170
51
119
170
51
119
170
51
51
119
68
51
119
68
68
85
85
119
170
51
119
170
51
119
170
51
119
170
51
119
170
51
51
119
68
51
119
68
68
85
85
119
170
51
119
170
51
119
170
51
119
170
51
51
119
68
51
119
68
51
119
68
119
170
51
119
170
51
119
170
51
119
170
51
119
170
51
119
170
51
119
170
51
119
170
51
119
170
51
51
119
68
51
119
68
68
85
85
119
170
51
187
119
85
119
170
51
119
170
51
119
170
51
119
170
51
119
170
51
119
170
51
119
170
51
119
170
51
119
170
51
119
170
51
119
170
51
119
170
51
119
170
51
119
170
51
119
170
51
119
170
51
187
119
85
119
170
51
119
170
51
119
170
51
119
170
51
119
170
51
119
170
51
119
170
51
119
170
51
51
119
68
51
119
68
68
85
85
119
170
51
119
170
51
119
170
51
119
170
51
187
119
85
119
170
51
119
170
51
119
170
51
187
119
85
119
170
51
119
170
51
238
204
153
187
119
85
119
170
51
238
204
153
187
119
85
119
170
51
119
170
51
238
204
153
187
119
85
119
170
51
119
170
51
238
204
153
119
170
51
119
170
51
238
204
153
238
204
153
187
119
85
238
204
153
238
204
153
119
170
51
119
170
51
238
204
153
187
119
85
119
170
51
238
204
153
68
85
85
68
85
85
119
170
51
238
204
153
187
119
85
238
204
153
119
170
51
187
119
85
119
170
51
238
204
153
238
204
153
119
170
51
238
204
153
238
204
153
238
204
153
68
85
85
68
85
85
119
170
51
187
119
85
238
204
153
119
170
51
119
170
51
119
170
51
119
170
51
119
170
51
119
170
51
119
170
51
187
119
85
51
119
68
119
170
51
187
119
85
187
119
85
119
170
51
119
170
51
119
170
51
119
170
51
187
119
85
187
119
85
119
170
51
119
170
51
119
170
51
119
170
51
187
119
85
119
170
51
119
170
51
119
170
51
187
119
85
119
170
51
119
170
51
187
119
85
119
170
51
238
204
153
119
170
51
119
170
51
119
170
51
119
170
51
119
170
51
119
170
51
119
170
51
119
170
51
187
119
85
187
119
85
119
170
51
119
170
51
187
119
85
187
119
85
187
119
85
187
119
85
119
170
51
119
170
51
119
170
51
119
170
51
51
119
68
119
170
51
51
119
68
119
170
51
119
170
51
119
170
51
119
170
51
51
119
68
51
119
68
51
119
68
119
170
51
119
170
51
119
170
51
119
170
51
119
170
51
119
170
51
119
170
51
119
170
51
119
170
51
119
170
51
119
170
51
119
170
51
119
170
51
119
170
51
119
170
51
51
119
68
119
170
51
119
170
51
51
119
68
51
119
68
51
119
68
187
221
68
119
170
51
187
221
68
51
119
68
119
170
51
119
170
51
255
255
255
221
238
238
204
204
187
204
204
187
119
119
119
119
170
51
119
170
51
187
221
68
51
119
68
119
170
51
119
170
51
119
170
51
119
170
51
119
170
51
119
170
51
119
170
51
204
204
187
255
255
255
221
238
238
204
204
187
153
153
136
119
170
51
119
170
51
187
221
68
51
119
68
119
170
51
187
221
68
119
170
51
187
221
68
51
119
68
119
170
51
119
170
51
255
255
255
221
238
238
221
238
238
204
204
187
153
153
136
119
170
51
119
170
51
187
221
68
51
119
68
119
170
51
119
170
51
119
170
51
238
204
153
238
153
102
238
204
153
238
204
153
238
204
153
238
204
153
238
204
153
238
204
153
238
204
153
238
204
153
238
153
102
238
204
153
119
170
51
119
170
51
238
204
153
119
170
51
238
204
153
238
153
102
238
204
153
238
204
153
238
204
153
238
153
102
238
204
153
238
204
153
238
204
153
238
204
153
238
204
153
119
170
51
119
170
51
119
170
51
119
170
51
119
170
51
119
170
51
238
204
153
238
204
153
238
204
153
238
204
153
238
204
153
238
204
153
238
204
153
238
204
153
238
204
153
238
204
153
119
170
51
119
170
51
119
170
51
51
119
68
51
119
68
119
170
51
68
85
85
51
119
68
119
170
51
51
119
68
51
119
68
51
119
68
119
170
51
119
170
51
51
119
68
51
119
68
119
170
51
51
119
68
68
85
85
119
170
51
119
170
51
51
119
68
51
119
68
119
170
51
51
119
68
51
119
68
51
119
68
68
85
85
51
119
68
51
119
68
51
119
68
51
51
51
119
170
51
119
170
51
119
170
51
51
119
68
119
170
51
68
85
85
51
119
68
51
51
51
119
170
51
119
170
51
51
119
68
119
170
51
51
119
68
51
119
68
51
119
68
51
119
68
68
85
85
51
119
68
119
170
51
119
170
51
119
170
51
187
119
85
51
119
68
51
119
68
119
170
51
51
119
68
68
85
85
119
170
51
51
119
68
187
119
85
51
119
68
68
85
85
187
119
85
119
170
51
119
170
51
119
170
51
119
170
51
119
170
51
119
170
51
51
119
68
119
170
51
51
119
68
51
119
68
68
85
85
119
170
51
187
221
68
119
170
51
119
170
51
119
170
51
119
170
51
119
170
51
119
170
51
51
119
68
51
119
68
119
170
51
51
119
68
68
85
85
119
170
51
119
170
51
187
119
85
119
170
51
187
221
68
119
170
51
187
221
68
51
119
68
187
119
85
119
170
51
187
119
85
238
204
153
238
204
153
238
204
153
119
170
51
68
85
85
68
85
85
68
85
85
187
119
85
119
170
51
238
204
153
187
119
85
238
204
153
238
204
153
187
119
85
238
204
153
119
170
51
187
119
85
238
204
153
238
204
153
238
204
153
119
170
51
119
170
51
238
204
153
51
119
68
119
170
51
187
221
68
51
51
51
238
204
153
238
204
153
238
204
153
119
170
51
119
170
51
238
204
153
238
204
153
187
119
85
187
119
85
238
204
153
187
119
85
238
204
153
51
119
68
119
170
51
187
221
68
51
51
51
238
204
153
119
170
51
238
204
153
119
170
51
119
170
51
187
119
85
119
170
51
187
119
85
51
119
68
119
170
51
68
85
85
187
119
85
119
170
51
187
119
85
187
119
85
187
119
85
51
119
68
187
119
85
187
119
85
119
170
51
119
170
51
187
119
85
187
119
85
187
119
85
187
119
85
119
170
51
187
119
85
51
119
68
187
119
85
187
119
85
119
170
51
119
170
51
119
170
51
119
170
51
51
119
68
187
119
85
119
170
51
187
119
85
119
170
51
119
170
51
187
119
85
51
119
68
187
119
85
51
119
68
187
119
85
119
170
51
187
119
85
238
153
102
119
170
51
187
119
85
187
119
85
119
170
51
187
119
85
119
170
51
51
119
68
119
170
51
119
170
51
51
51
51
51
68
119
119
68
68
119
170
51
51
119
68
51
51
51
119
170
51
119
170
51
119
170
51
119
170
51
119
170
51
119
170
51
119
119
119
51
119
68
119
170
51
51
119
68
119
170
51
119
170
51
119
170
51
119
170
51
51
119
68
51
51
51
51
119
68
51
119
68
51
119
68
153
153
136
51
119
68
119
170
51
187
221
68
51
119
68
119
170
51
255
255
255
153
153
136
255
255
255
187
187
221
221
238
238
204
204
187
85
85
85
119
170
51
119
170
51
119
170
51
119
170
51
119
170
51
187
221
68
119
170
51
187
221
68
51
119
68
119
170
51
119
170
51
255
255
255
255
255
255
204
204
187
221
238
238
187
187
221
153
153
136
119
170
51
119
170
51
119
170
51
119
170
51
119
170
51
187
221
68
51
119
68
119
170
51
119
170
51
204
204
187
255
255
255
221
238
238
204
204
187
204
204
187
153
153
136
119
119
119
119
170
51
119
170
51
119
170
51
119
170
51
119
170
51
238
204
153
238
153
102
238
204
153
34
204
221
85
238
238
34
204
221
238
204
153
238
204
153
238
204
153
34
204
221
34
204
221
238
204
153
238
153
102
238
204
153
119
170
51
238
153
102
238
204
153
238
153
102
238
204
153
34
204
221
34
204
221
34
204
221
238
204
153
34
204
221
34
204
221
238
204
153
238
204
153
238
153
102
238
204
153
119
170
51
119
170
51
119
170
51
119
170
51
238
204
153
238
153
102
238
204
153
238
204
153
238
204
153
34
204
221
34
204
221
51
119
170
238
204
153
238
204
153
238
153
102
238
204
153
119
170
51
119
170
51
51
119
68
119
170
51
68
85
85
51
119
68
68
85
85
51
119
68
51
119
68
119
170
51
68
85
85
51
119
68
51
119
68
51
119
68
68
85
85
51
119
68
68
85
85
51
51
51
119
170
51
119
170
51
51
119
68
68
85
85
51
119
68
51
119
68
51
119
68
119
170
51
51
119
68
68
85
85
51
51
51
51
119
68
68
85
85
51
119
68
68
85
85
119
170
51
51
119
68
68
85
85
51
119
68
68
85
85
0
0
0
119
170
51
119
170
51
51
119
68
51
119
68
51
119
68
68
85
85
51
119
68
119
170
51
51
119
68
68
85
85
51
51
51
119
170
51
119
170
51
153
85
85
51
119
68
68
85
85
51
119
68
68
85
85
51
51
51
119
170
51
119
170
51
51
119
68
68
85
85
119
170
51
187
119
85
119
170
51
119
170
51
119
170
51
187
119
85
119
170
51
119
170
51
119
170
51
51
119
68
51
119
68
119
170
51
51
119
68
68
85
85
51
119
68
119
170
51
119
170
51
119
170
51
119
170
51
119
170
51
119
170
51
51
119
68
68
85
85
51
119
68
68
85
85
51
51
51
187
221
68
119
170
51
153
85
85
119
170
51
51
119
68
51
119
68
68
85
85
187
119
85
187
119
85
119
170
51
238
204
153
238
204
153
187
119
85
187
119
85
68
85
85
187
221
68
187
221
68
119
170
51
51
51
51
238
204
153
119
170
51
238
204
153
187
119
85
238
204
153
187
119
85
238
204
153
119
170
51
238
204
153
68
85
85
68
85
85
68
85
85
51
119
68
238
204
153
68
85
85
119
170
51
187
221
68
187
221
68
51
51
51
187
119
85
238
204
153
238
204
153
187
119
85
238
204
153
238
204
153
187
119
85
187
119
85
187
119
85
187
119
85
187
119
85
51
119
68
119
170
51
187
221
68
187
221
68
51
51
51
187
119
85
119
170
51
187
119
85
119
170
51
187
119
85
187
119
85
119
170
51
51
119
68
51
119
68
187
221
68
68
85
85
187
119
85
119
170
51
187
119
85
187
119
85
51
119
68
119
170
51
68
85
85
119
170
51
119
170
51
119
170
51
187
119
85
187
119
85
119
170
51
238
153
102
119
170
51
51
119
68
119
170
51
68
85
85
51
119
68
187
119
85
51
119
68
187
119
85
51
119
68
119
170
51
68
85
85
119
170
51
187
119
85
187
119
85
119
170
51
187
119
85
187
119
85
51
119
68
119
170
51
68
85
85
119
170
51
119
170
51
119
170
51
187
119
85
187
119
85
187
119
85
187
119
85
238
153
102
119
170
51
119
170
51
119
170
51
51
51
51
51
68
119
51
68
119
51
68
119
119
68
68
102
51
68
119
170
51
51
119
68
119
170
51
51
119
68
51
119
68
51
119
68
119
170
51
51
119
68
51
119
68
51
119
68
119
170
51
119
170
51
51
119
68
51
119
68
119
170
51
51
51
51
51
68
119
119
68
68
51
119
68
153
153
136
51
119
68
51
51
51
119
170
51
119
170
51
119
170
51
119
170
51
255
255
255
204
204
187
221
238
238
153
153
136
187
187
221
204
204
187
136
136
170
85
85
85
119
170
51
119
170
51
119
170
51
119
170
51
119
170
51
187
221
68
51
119
68
119
170
51
119
170
51
221
238
238
255
255
255
221
238
238
221
238
238
221
238
238
187
187
221
153
153
136
119
170
51
119
170
51
119
170
51
119
170
51
119
170
51
119
170
51
119
170
51
119
170
51
119
170
51
255
255
255
221
238
238
221
238
238
221
238
238
204
204
187
153
153
136
153
153
136
119
170
51
119
170
51
119
170
51
119
170
51
119
170
51
238
204
153
238
204
153
34
204
221
85
238
238
51
119
170
51
119
170
51
119
170
51
119
170
51
119
170
51
119
170
85
238
238
34
204
221
238
204
153
238
153
102
238
204
153
119
170
51
238
153
102
238
204
153
34
204
221
85
238
238
85
238
238
51
119
170
51
119
170
51
119
170
34
204
221
34
204
221
34
204
221
238
204
153
238
153
102
238
204
153
119
170
51
119
170
51
238
204
153
238
153
102
238
204
153
34
204
221
85
238
238
85
238
238
51
119
170
51
119
170
51
119
170
51
119
170
34
204
221
238
204
153
238
153
102
238
204
153
119
170
51
51
119
68
68
85
85
51
119
68
51
51
51
0
0
0
51
119
68
119
170
51
51
119
68
51
119
68
68
85
85
119
170
51
51
119
68
51
119
68
68
85
85
51
51
51
0
0
0
119
170
51
119
170
51
51
119
68
51
119
68
68
85
85
51
119
68
68
85
85
51
119
68
51
119
68
51
51
51
0
0
0
51
119
68
0
0
0
68
85
85
51
119
68
51
51
51
51
119
68
51
119
68
68
85
85
51
51
51
0
0
0
51
119
68
51
119
68
51
119
68
68
85
85
51
51
51
51
119
68
68
85
85
51
119
68
68
85
85
51
51
51
0
0
0
119
170
51
119
170
51
119
170
51
51
119
68
51
119
68
68
85
85
51
51
51
0
0
0
119
170
51
119
170
51
51
119
68
51
119
68
68
85
85
119
170
51
119
170
51
119
170
51
119
170
51
187
119
85
119
170
51
119
170
51
119
170
51
51
119
68
68
85
85
51
119
68
51
51
51
0
0
0
68
85
85
119
170
51
119
170
51
187
119
85
119
170
51
119
170
51
119
170
51
51
119
68
51
119
68
68
85
85
51
51
51
0
0
0
187
221
68
51
119
68
119
170
51
51
119
68
51
119
68
119
170
51
51
119
68
68
85
85
119
170
51
119
170
51
119
170
51
238
204
153
187
119
85
187
119
85
187
119
85
68
85
85
119
170
51
187
221
68
119
170
51
51
51
51
68
85
85
68
85
85
187
119
85
187
119
85
238
204
153
119
170
51
238
204
153
68
85
85
119
170
51
187
221
68
187
221
68
187
221
68
51
119
68
51
51
51
119
170
51
119
170
51
51
51
51
238
204
153
238
204
153
238
204
153
119
170
51
119
170
51
238
204
153
238
204
153
238
204
153
187
119
85
68
85
85
51
119
68
238
204
153
68
85
85
119
170
51
119
170
51
51
51
51
187
119
85
187
119
85
119
170
51
187
119
85
119
170
51
187
119
85
187
119
85
187
119
85
51
119
68
187
221
68
119
170
51
119
170
51
68
85
85
119
170
51
119
170
51
187
119
85
51
119
68
187
221
68
119
170
51
68
85
85
187
119
85
51
119
68
119
170
51
51
119
68
119
170
51
119
170
51
119
170
51
51
119
68
187
221
68
119
170
51
68
85
85
51
119
68
187
119
85
238
153
102
51
119
68
187
221
68
68
85
85
187
119
85
187
119
85
119
170
51
119
170
51
119
170
51
187
119
85
51
119
68
187
221
68
119
170
51
68
85
85
119
170
51
119
170
51
119
170
51
187
119
85
187
119
85
238
153
102
187
119
85
119
170
51
119
170
51
119
170
51
51
68
119
51
68
119
51
68
119
51
68
119
119
68
68
119
68
68
119
170
51
119
170
51
51
119
68
153
153
136
51
51
51
51
119
68
51
51
51
119
170
51
51
119
68
51
51
51
0
0
0
51
119
68
51
51
51
51
51
51
51
119
68
51
68
119
51
68
119
51
68
119
51
119
68
51
119
68
51
51
51
51
51
51
119
170
51
119
170
51
119
170
51
153
153
136
221
238
238
136
136
170
204
204
187
153
153
136
153
153
136
204
204
187
153
153
136
85
85
85
119
170
51
119
170
51
119
170
51
119
170
51
119
170
51
119
170
51
119
170
51
119
170
51
119
170
51
221
238
238
221
238
238
153
153
136
204
204
187
221
238
238
204
204
187
119
119
119
119
119
119
119
170
51
119
170
51
119
170
51
119
170
51
119
170
51
119
170
51
119
170
51
221
238
238
255
255
255
153
153
136
221
238
238
221
238
238
204
204
187
119
119
119
119
119
119
153
153
136
119
170
51
119
170
51
119
170
51
238
204
153
238
204
153
238
204
153
51
119
170
51
119
170
51
119
170
51
119
170
51
119
170
51
119
170
51
119
170
51
119
170
51
119
170
85
238
238
34
204
221
238
204
153
238
204
153
238
153
102
238
204
153
34
204
221
85
238
238
51
119
170
51
119
170
51
119
170
51
119
170
51
119
170
51
119
170
51
119
170
85
238
238
34
204
221
238
204
153
238
204
153
119
170
51
119
170
51
238
204
153
238
204
153
34
204
221
85
238
238
51
119
170
51
119
170
51
119
170
51
119
170
51
119
170
51
119
170
51
119
170
34
204
221
238
204
153
238
204
153
119
170
51
119
170
51
51
119
68
0
0
0
68
85
85
51
119
68
68
85
85
51
119
68
68
85
85
51
119
68
68
85
85
51
119
68
68
85
85
51
51
51
0
0
0
0
0
0
119
170
51
119
170
51
51
119
68
51
119
68
68
85
85
0
0
0
51
119
68
51
119
68
51
119
68
51
51
51
0
0
0
68
85
85
68
85
85
51
119
68
51
119
68
68
85
85
0
0
0
119
170
51
51
119
68
0
0
0
0
0
0
51
119
68
119
170
51
51
119
68
68
85
85
51
51
51
0
0
0
51
119
68
51
119
68
68
85
85
51
51
51
0
0
0
51
51
51
119
170
51
119
170
51
187
119
85
119
170
51
68
85
85
0
0
0
0
0
0
187
119
85
187
119
85
51
119
68
51
119
68
119
170
51
51
119
68
68
85
85
119
170
51
119
170
51
187
119
85
119
170
51
119
170
51
51
119
68
187
119
85
51
119
68
51
119
68
0
0
0
0
0
0
51
119
68
51
119
68
68
85
85
187
119
85
119
170
51
119
170
51
119
170
51
119
170
51
119
170
51
68
85
85
0
0
0
0
0
0
187
221
68
51
119
68
119
170
51
119
170
51
51
119
68
119
170
51
51
119
68
68
85
85
51
51
51
119
170
51
119
170
51
119
170
51
119
170
51
238
204
153
187
119
85
68
85
85
51
51
51
51
51
51
119
170
51
68
85
85
187
221
68
187
221
68
119
170
51
51
51
51
238
204
153
187
119
85
119
170
51
68
85
85
51
119
68
51
119
68
51
119
68
187
221
68
119
170
51
51
51
51
119
170
51
51
119
68
68
85
85
68
85
85
51
51
51
187
119
85
238
204
153
238
204
153
238
204
153
119
170
51
238
204
153
68
85
85
68
85
85
187
221
68
187
221
68
51
119
68
51
51
51
51
119
68
68
85
85
68
85
85
68
85
85
51
51
51
238
204
153
238
204
153
238
204
153
119
170
51
187
119
85
119
170
51
51
119
68
119
170
51
119
170
51
51
119
68
68
85
85
51
119
68
119
170
51
51
119
68
187
221
68
119
170
51
119
170
51
68
85
85
187
119
85
187
119
85
51
119
68
119
170
51
187
119
85
119
170
51
51
119
68
187
221
68
119
170
51
119
170
51
68
85
85
187
119
85
187
119
85
51
119
68
187
221
68
119
170
51
119
170
51
68
85
85
119
170
51
119
170
51
187
119
85
187
119
85
51
119
68
187
221
68
119
170
51
119
170
51
68
85
85
119
170
51
51
119
68
119
170
51
51
119
68
187
119
85
187
119
85
119
170
51
119
170
51
119
170
51
119
170
51
119
170
51
51
68
119
51
68
119
51
68
119
51
119
170
187
119
85
119
170
51
51
119
68
153
153
136
51
51
51
51
119
68
0
0
0
51
51
51
119
170
51
102
51
68
0
0
0
51
68
119
51
51
51
51
68
119
51
119
170
119
68
68
51
119
68
51
68
119
51
68
119
51
119
68
68
85
85
51
51
51
0
0
0
119
170
51
119
170
51
85
85
85
221
238
238
153
153
136
119
119
119
85
85
85
153
153
136
85
85
85
85
85
85
153
153
136
85
85
85
51
34
51
119
170
51
119
170
51
119
170
51
119
170
51
119
170
51
119
170
51
119
170
51
204
204
187
221
238
238
204
204
187
51
51
51
204
204
187
221
238
238
204
204
187
51
51
51
51
51
51
85
85
85
119
170
51
119
170
51
119
170
51
119
170
51
119
170
51
119
170
51
221
238
238
153
153
136
204
204
187
221
238
238
221
238
238
204
204
187
153
153
136
85
85
85
119
119
119
119
170
51
119
170
51
119
170
51
238
204
153
238
204
153
51
119
170
51
119
170
51
119
170
51
119
170
51
68
119
51
68
119
51
119
170
51
119
170
51
119
170
51
119
170
85
238
238
34
204
221
238
204
153
238
204
153
238
204
153
238
204
153
34
204
221
51
119
170
51
119
170
51
119
170
51
119
170
51
68
119
51
119
170
51
68
119
51
119
170
51
119
170
85
238
238
238
204
153
238
204
153
119
170
51
238
204
153
238
204
153
238
204
153
34
204
221
51
119
170
51
119
170
51
119
170
51
119
170
51
119
170
51
119
170
51
119
170
51
119
170
34
204
221
238
204
153
238
204
153
119
170
51
119
170
51
119
170
51
51
119
68
51
119
68
119
170
51
51
119
68
68
85
85
51
119
68
68
85
85
51
119
68
68
85
85
51
51
51
0
0
0
51
119
68
51
119
68
119
170
51
51
119
68
51
119
68
119
170
51
51
119
68
68
85
85
51
119
68
68
85
85
51
51
51
0
0
0
68
85
85
51
119
68
51
119
68
68
85
85
51
119
68
0
0
0
51
51
51
119
170
51
119
170
51
102
51
68
119
170
51
51
119
68
51
119
68
51
119
68
51
119
68
0
0
0
51
119
68
51
119
68
51
51
51
68
85
85
0
0
0
51
51
51
119
170
51
187
119
85
187
119
85
187
119
85
119
170
51
187
221
68
102
51
68
187
221
68
51
119
68
153
85
85
51
119
68
119
170
51
51
119
68
68
85
85
51
51
51
119
170
51
119
170
51
119
170
51
51
119
68
51
119
68
68
85
85
119
170
51
187
119
85
68
85
85
51
51
51
51
119
68
119
170
51
51
119
68
51
119
68
68
85
85
119
170
51
119
170
51
119
170
51
119
170
51
187
119
85
187
119
85
102
51
68
187
119
85
187
119
85
119
170
51
119
170
51
119
170
51
51
119
68
51
119
68
68
85
85
51
51
51
0
0
0
119
170
51
119
170
51
238
204
153
238
204
153
238
204
153
68
85
85
187
221
68
187
221
68
119
170
51
51
51
51
119
170
51
187
221
68
187
221
68
187
221
68
119
170
51
51
51
51
187
119
85
238
204
153
119
170
51
187
119
85
68
85
85
68
85
85
119
170
51
51
119
68
51
51
51
68
85
85
187
221
68
119
170
51
187
221
68
187
221
68
51
51
51
238
204
153
119
170
51
238
204
153
119
170
51
68
85
85
119
170
51
187
221
68
187
221
68
119
170
51
51
51
51
119
170
51
68
85
85
68
85
85
68
85
85
68
85
85
187
221
68
51
51
51
187
119
85
238
204
153
119
170
51
119
170
51
119
170
51
51
119
68
51
119
68
68
85
85
68
85
85
51
119
68
119
170
51
68
85
85
51
119
68
51
119
68
187
221
68
119
170
51
51
119
68
68
85
85
119
170
51
119
170
51
187
119
85
187
119
85
119
170
51
51
119
68
51
119
68
187
221
68
119
170
51
51
119
68
68
85
85
119
170
51
51
119
68
51
119
68
119
170
51
68
85
85
68
85
85
187
119
85
187
119
85
119
170
51
187
119
85
51
119
68
51
119
68
187
221
68
119
170
51
51
119
68
68
85
85
119
170
51
51
119
68
187
119
85
187
119
85
119
170
51
187
119
85
119
170
51
119
170
51
51
119
68
51
119
68
51
119
68
51
68
119
51
119
170
187
119
85
119
170
51
51
119
68
119
170
51
51
119
68
51
51
51
51
51
51
0
0
0
51
51
51
119
170
51
119
68
68
51
51
51
51
68
119
51
68
119
51
68
119
51
119
170
187
119
85
119
170
51
119
68
68
187
119
85
119
170
51
51
119
68
102
51
68
51
51
51
119
170
51
119
170
51
119
119
119
187
187
221
119
119
119
85
85
85
153
153
136
187
187
221
85
85
85
119
119
119
85
85
85
119
119
119
51
51
51
51
34
51
119
170
51
119
170
51
119
170
51
119
170
51
119
170
51
51
119
68
85
85
85
204
204
187
153
153
136
85
85
85
204
204
187
221
238
238
204
204
187
119
119
119
51
34
51
51
51
51
119
170
51
119
170
51
119
170
51
119
170
51
119
170
51
204
204
187
204
204
187
85
85
85
153
153
136
221
238
238
204
204
187
204
204
187
153
153
136
51
51
51
85
85
85
51
51
51
119
170
51
119
170
51
238
204
153
238
204
153
51
119
170
51
119
170
51
68
119
51
68
119
51
68
119
51
68
119
51
68
119
51
119
170
51
119
170
51
119
170
51
119
170
34
204
221
238
204
153
238
204
153
238
204
153
238
204
153
238
204
153
51
119
170
51
119
170
51
68
119
51
68
119
51
68
119
51
68
119
51
68
119
51
119
170
51
119
170
85
238
238
238
204
153
238
204
153
238
204
153
238
204
153
238
204
153
34
204
221
34
204
221
51
119
170
51
119
170
51
119
170
51
68
119
51
68
119
51
119
170
51
119
170
51
119
170
51
119
170
238
204
153
238
204
153
238
204
153
119
170
51
119
170
51
51
119
68
68
85
85
51
119
68
68
85
85
51
51
51
51
119
68
51
119
68
68
85
85
0
0
0
0
0
0
51
119
68
102
51
68
68
85
85
51
119
68
51
119
68
119
170
51
51
119
68
68
85
85
0
0
0
51
119
68
51
119
68
68
85
85
102
51
68
68
85
85
51
119
68
68
85
85
0
0
0
51
119
68
51
119
68
119
170
51
119
170
51
119
170
51
119
68
68
51
119
68
68
85
85
51
119
68
68
85
85
51
119
68
68
85
85
51
119
68
51
51
51
0
0
0
51
119
68
102
51
68
119
170
51
119
170
51
119
170
51
119
170
51
51
119
68
119
170
51
187
119
85
119
68
68
68
85
85
51
119
68
187
119
85
51
119
68
51
119
68
68
85
85
51
51
51
0
0
0
119
170
51
119
170
51
119
170
51
187
119
85
68
85
85
119
170
51
119
170
51
119
170
51
187
119
85
102
51
68
119
170
51
68
85
85
51
119
68
68
85
85
51
51
51
51
119
68
187
119
85
119
170
51
119
170
51
119
170
51
119
170
51
119
68
68
68
85
85
51
119
68
187
119
85
153
85
85
119
170
51
119
170
51
68
85
85
0
0
0
0
0
0
119
170
51
119
170
51
119
170
51
238
204
153
238
204
153
68
85
85
187
221
68
187
221
68
187
221
68
187
221
68
119
170
51
51
119
68
0
0
0
0
0
0
51
51
51
51
51
51
119
170
51
187
119
85
238
204
153
119
170
51
238
204
153
119
170
51
68
85
85
51
119
68
119
170
51
119
170
51
68
85
85
119
170
51
187
221
68
187
221
68
187
221
68
51
51
51
238
204
153
238
204
153
119
170
51
68
85
85
68
85
85
51
119
68
51
119
68
68
85
85
119
170
51
51
119
68
51
51
51
68
85
85
187
221
68
187
221
68
119
170
51
187
221
68
51
51
51
238
204
153
119
170
51
119
170
51
238
153
102
187
119
85
119
170
51
68
85
85
51
51
51
51
51
51
51
119
68
187
221
68
51
119
68
119
170
51
68
85
85
51
119
68
51
119
68
51
119
68
68
85
85
238
153
102
119
170
51
187
119
85
187
119
85
51
119
68
51
119
68
119
170
51
51
119
68
51
119
68
51
119
68
68
85
85
51
119
68
119
170
51
68
85
85
51
51
51
0
0
0
187
119
85
187
119
85
238
153
102
119
170
51
51
119
68
119
170
51
68
85
85
51
119
68
51
119
68
51
119
68
68
85
85
187
119
85
187
119
85
187
119
85
187
119
85
187
119
85
187
119
85
119
170
51
51
119
68
51
119
68
153
153
136
51
119
68
51
51
51
51
119
170
187
119
85
119
170
51
119
170
51
51
119
68
0
0
0
51
119
68
0
0
0
51
51
51
51
51
51
119
170
51
51
119
68
51
68
119
51
68
119
51
119
68
51
119
68
51
119
68
51
119
68
119
170
51
0
0
0
51
51
51
51
119
68
51
51
51
119
68
68
119
170
51
119
170
51
119
170
51
119
119
119
153
153
136
85
85
85
153
153
136
204
204
187
119
119
119
119
119
119
85
85
85
119
119
119
119
119
119
51
34
51
85
85
85
119
170
51
119
170
51
119
170
51
119
170
51
119
170
51
85
85
85
119
119
119
204
204
187
51
51
51
85
85
85
204
204
187
204
204
187
51
51
51
153
153
136
0
0
0
0
0
0
0
0
0
119
170
51
119
170
51
119
170
51
85
85
85
221
238
238
119
119
119
85
85
85
204
204
187
204
204
187
153
153
136
204
204
187
204
204
187
85
85
85
51
34
51
51
34
51
51
119
68
119
170
51
238
204
153
238
204
153
51
119
170
51
119
170
51
68
119
51
68
119
51
68
119
51
68
119
51
68
119
51
68
119
51
68
119
51
119
170
51
119
170
238
204
153
238
153
102
238
204
153
119
170
51
238
204
153
238
204
153
51
119
170
51
119
170
51
68
119
51
68
119
51
68
119
51
68
119
51
68
119
51
119
170
51
119
170
51
119
170
34
204
221
238
204
153
238
204
153
238
204
153
238
204
153
34
204
221
51
119
170
51
119
170
51
119
170
51
119
170
51
68
119
51
68
119
51
68
119
51
119
170
51
119
170
51
119
170
34
204
221
238
204
153
238
204
153
119
170
51
119
170
51
51
119
68
51
119
68
68
85
85
51
51
51
0
0
0
51
119
68
68
85
85
51
119
68
51
51
51
0
0
0
119
170
51
68
85
85
51
119
68
51
51
51
68
85
85
51
119
68
68
85
85
51
51
51
0
0
0
119
170
51
51
119
68
51
119
68
68
85
85
51
119
68
68
85
85
51
51
51
0
0
0
51
119
68
68
85
85
51
51
51
119
170
51
119
170
51
51
119
68
68
85
85
68
85
85
51
51
51
51
51
51
0
0
0
51
119
68
51
51
51
0
0
0
51
119
68
51
51
51
119
68
68
119
170
51
119
170
51
51
119
68
51
119
68
68
85
85
119
170
51
119
170
51
51
119
68
51
119
68
68
85
85
119
170
51
119
170
51
68
85
85
0
0
0
0
0
0
119
170
51
119
170
51
119
170
51
119
170
51
51
119
68
51
119
68
68
85
85
119
170
51
119
170
51
119
170
51
119
68
68
51
119
68
51
119
68
68
85
85
51
51
51
0
0
0
119
170
51
119
170
51
119
170
51
119
170
51
119
170
51
119
170
51
119
170
51
119
170
51
153
85
85
187
119
85
119
170
51
119
170
51
119
170
51
119
170
51
102
51
68
119
170
51
119
170
51
187
221
68
119
170
51
119
170
51
187
119
85
68
85
85
187
221
68
68
85
85
51
51
51
51
51
51
51
119
68
0
0
0
102
51
68
153
85
85
153
85
85
187
119
85
238
204
153
187
119
85
119
170
51
119
170
51
119
170
51
51
119
68
119
170
51
187
221
68
187
221
68
68
85
85
102
51
68
0
0
0
51
51
51
68
85
85
187
221
68
51
51
51
119
170
51
187
119
85
119
170
51
238
204
153
187
119
85
238
204
153
68
85
85
68
85
85
51
119
68
119
170
51
68
85
85
51
51
51
119
170
51
187
221
68
51
51
51
187
221
68
187
119
85
187
119
85
119
170
51
119
170
51
187
119
85
187
119
85
119
170
51
119
170
51
102
51
68
51
119
68
187
221
68
119
170
51
51
119
68
187
221
68
119
170
51
68
85
85
51
119
68
68
85
85
187
119
85
119
170
51
187
119
85
187
119
85
51
119
68
119
170
51
68
85
85
51
119
68
119
170
51
51
119
68
68
85
85
187
119
85
51
119
68
187
221
68
119
170
51
68
85
85
51
51
51
85
85
85
187
119
85
187
119
85
187
119
85
51
119
68
187
221
68
68
85
85
119
170
51
51
119
68
68
85
85
187
119
85
187
119
85
238
153
102
187
119
85
187
119
85
187
119
85
187
119
85
119
170
51
51
119
68
153
153
136
51
119
68
51
51
51
51
119
68
119
68
68
119
170
51
51
119
68
68
85
85
0
0
0
51
51
51
68
85
85
102
51
68
51
51
51
119
170
51
119
170
51
119
170
51
51
119
68
51
119
68
153
153
136
51
51
51
51
119
68
51
51
51
51
119
68
51
51
51
51
68
119
51
51
51
51
68
119
119
68
68
119
68
68
119
170
51
51
119
68
85
85
85
119
119
119
85
85
85
153
153
136
204
204
187
119
119
119
85
85
85
51
51
51
85
85
85
119
119
119
85
85
85
51
34
51
51
119
68
119
170
51
119
170
51
119
170
51
85
85
85
85
85
85
85
85
85
51
51
51
85
85
85
119
119
119
85
85
85
153
153
136
85
85
85
51
34
51
51
51
51
0
0
0
51
34
51
51
119
68
119
170
51
51
119
68
119
119
119
119
119
119
51
51
51
51
51
51
204
204
187
204
204
187
85
85
85
51
51
51
153
153
136
85
85
85
51
51
51
0
0
0
85
85
85
119
170
51
238
204
153
238
204
153
34
204
221
51
119
170
51
119
170
51
68
119
51
68
119
51
68
119
51
68
119
51
68
119
51
68
119
51
119
170
51
119
170
34
204
221
238
204
153
238
204
153
238
204
153
238
204
153
238
204
153
51
119
170
51
119
170
51
119
170
51
68
119
51
68
119
51
68
119
51
68
119
51
119
170
51
119
170
51
119
170
34
204
221
238
204
153
238
204
153
238
204
153
238
153
102
238
204
153
51
119
170
51
119
170
51
119
170
51
68
119
51
68
119
51
68
119
51
68
119
51
68
119
51
119
170
51
119
170
51
119
170
238
204
153
238
204
153
119
170
51
119
170
51
119
170
51
68
85
85
0
0
0
0
0
0
51
119
68
119
170
51
51
119
68
0
0
0
0
0
0
68
85
85
51
119
68
51
119
68
68
85
85
0
0
0
119
170
51
51
119
68
51
119
68
68
85
85
51
119
68
51
119
68
51
119
68
68
85
85
51
119
68
51
119
68
0
0
0
0
0
0
51
119
68
68
85
85
51
119
68
0
0
0
119
170
51
51
119
68
119
170
51
68
85
85
51
119
68
0
0
0
68
85
85
102
51
68
51
119
68
68
85
85
51
119
68
68
85
85
0
0
0
119
68
68
68
85
85
119
170
51
119
170
51
68
85
85
119
170
51
119
170
51
51
119
68
51
119
68
119
170
51
51
119
68
68
85
85
119
170
51
187
221
68
102
51
68
187
119
85
187
119
85
187
119
85
119
170
51
51
119
68
51
119
68
119
170
51
51
119
68
68
85
85
119
170
51
119
170
51
119
170
51
119
170
51
68
85
85
0
0
0
0
0
0
119
170
51
119
170
51
119
170
51
187
119
85
119
170
51
119
170
51
187
221
68
119
170
51
51
119
68
51
119
68
68
85
85
119
170
51
51
119
68
119
170
51
187
119
85
119
68
68
68
85
85
51
119
68
119
170
51
119
170
51
119
170
51
187
119
85
187
119
85
68
85
85
187
119
85
187
119
85
153
85
85
0
0
0
51
34
51
102
51
68
153
85
85
187
119
85
187
119
85
238
204
153
187
119
85
119
170
51
187
119
85
238
204
153
51
119
68
187
221
68
187
221
68
119
170
51
0
0
0
102
51
68
51
119
68
51
51
51
238
204
153
51
51
51
238
204
153
119
170
51
187
119
85
119
170
51
119
170
51
187
119
85
187
119
85
187
119
85
68
85
85
68
85
85
68
85
85
187
221
68
51
51
51
51
51
51
119
170
51
119
170
51
51
51
51
68
85
85
238
204
153
119
170
51
187
119
85
187
119
85
119
170
51
119
170
51
51
119
68
119
68
68
51
51
51
51
119
68
51
119
68
187
221
68
119
170
51
119
170
51
68
85
85
51
51
51
187
119
85
119
170
51
187
119
85
187
119
85
187
119
85
51
119
68
187
221
68
68
85
85
119
170
51
68
85
85
0
0
0
51
119
68
51
119
68
187
221
68
119
170
51
119
170
51
68
85
85
187
119
85
119
170
51
187
119
85
187
119
85
51
119
68
187
221
68
119
170
51
119
170
51
68
85
85
0
0
0
187
119
85
187
119
85
187
119
85
51
119
68
187
119
85
187
119
85
187
119
85
119
170
51
119
170
51
51
119
68
51
119
68
51
51
51
51
51
51
0
0
0
119
170
51
51
119
68
0
0
0
51
51
51
51
68
119
51
68
119
51
51
51
119
68
68
119
170
51
119
170
51
119
170
51
119
170
51
119
170
51
153
153
136
51
51
51
51
119
68
0
0
0
51
51
51
51
51
51
51
68
119
51
68
119
51
68
119
51
68
119
51
119
170
119
68
68
51
119
68
119
119
119
85
85
85
119
119
119
85
85
85
153
153
136
153
153
136
85
85
85
85
85
85
0
0
0
85
85
85
119
119
119
85
85
85
51
34
51
51
119
68
119
170
51
119
170
51
51
119
68
85
85
85
119
119
119
51
51
51
51
34
51
119
119
119
119
119
119
51
51
51
153
153
136
85
85
85
0
0
0
51
51
51
0
0
0
51
51
51
51
34
51
119
170
51
85
85
85
119
119
119
85
85
85
51
51
51
51
34
51
204
204
187
85
85
85
85
85
85
51
51
51
153
153
136
51
51
51
0
0
0
51
34
51
0
0
0
119
170
51
238
204
153
238
204
153
238
204
153
51
119
170
51
119
170
51
68
119
51
68
119
51
68
119
51
68
119
51
119
170
51
119
170
51
119
170
34
204
221
34
204
221
238
204
153
238
204
153
238
204
153
238
204
153
34
204
221
51
119
170
51
119
170
51
119
170
51
68
119
51
68
119
51
68
119
51
119
170
51
119
170
51
119
170
51
119
170
51
119
170
238
204
153
238
204
153
238
204
153
238
204
153
34
204
221
51
119
170
51
119
170
51
119
170
51
119
170
51
68
119
51
68
119
51
68
119
51
119
170
51
119
170
51
119
170
51
119
170
238
204
153
238
204
153
119
170
51
51
119
68
51
119
68
68
85
85
102
51
68
51
119
68
68
85
85
51
119
68
68
85
85
102
51
68
68
85
85
51
119
68
68
85
85
51
119
68
68
85
85
119
170
51
51
119
68
51
119
68
68
85
85
51
119
68
0
0
0
51
119
68
68
85
85
0
0
0
51
119
68
68
85
85
102
51
68
51
119
68
51
119
68
51
119
68
68
85
85
0
0
0
119
170
51
51
119
68
68
85
85
51
119
68
68
85
85
51
119
68
51
119
68
51
119
68
68
85
85
68
85
85
68
85
85
51
51
51
0
0
0
68
85
85
51
119
68
51
51
51
119
170
51
119
170
51
119
170
51
187
221
68
51
119
68
68
85
85
51
119
68
68
85
85
51
51
51
119
170
51
51
119
68
51
119
68
68
85
85
51
119
68
119
170
51
119
170
51
51
119
68
68
85
85
51
119
68
68
85
85
51
51
51
119
170
51
119
170
51
119
170
51
119
170
51
119
170
51
102
51
68
187
119
85
187
119
85
119
170
51
119
170
51
187
119
85
119
170
51
119
170
51
119
170
51
51
119
68
51
119
68
119
170
51
51
119
68
68
85
85
119
170
51
119
170
51
187
119
85
187
221
68
119
170
51
119
170
51
187
119
85
187
119
85
238
204
153
119
170
51
238
204
153
238
204
153
187
119
85
187
119
85
187
119
85
153
85
85
238
153
102
187
119
85
153
85
85
187
119
85
238
204
153
187
119
85
238
204
153
238
204
153
119
170
51
187
119
85
51
119
68
187
221
68
119
170
51
51
51
51
238
153
102
153
85
85
238
204
153
187
119
85
187
119
85
68
85
85
238
204
153
238
204
153
238
204
153
187
119
85
119
170
51
238
204
153
238
204
153
68
85
85
68
85
85
187
221
68
187
221
68
187
221
68
119
170
51
119
170
51
51
51
51
68
85
85
187
221
68
187
221
68
68
85
85
119
170
51
187
119
85
187
119
85
187
119
85
51
119
68
119
170
51
68
85
85
187
119
85
119
170
51
51
119
68
51
119
68
187
221
68
119
170
51
51
119
68
68
85
85
187
119
85
119
170
51
187
119
85
119
170
51
51
119
68
187
221
68
119
170
51
119
170
51
68
85
85
102
51
68
0
0
0
119
170
51
51
119
68
51
119
68
187
221
68
119
170
51
51
119
68
68
85
85
119
170
51
238
153
102
187
119
85
187
119
85
51
119
68
119
170
51
68
85
85
68
85
85
0
0
0
187
119
85
187
119
85
51
119
68
119
170
51
68
85
85
187
119
85
119
170
51
187
119
85
119
170
51
51
119
68
51
119
68
51
51
51
0
0
0
119
170
51
51
119
68
0
0
0
51
68
119
51
51
51
51
68
119
51
68
119
119
68
68
119
68
68
119
170
51
119
170
51
119
170
51
119
170
51
119
170
51
51
119
68
0
0
0
0
0
0
51
51
51
51
68
119
51
68
119
51
68
119
51
68
119
119
68
68
119
119
119
51
119
68
119
170
51
51
119
68
85
85
85
119
119
119
51
51
51
85
85
85
153
153
136
153
153
136
119
119
119
85
85
85
0
0
0
51
51
51
85
85
85
119
119
119
85
85
85
51
34
51
119
170
51
119
170
51
51
51
51
85
85
85
85
85
85
51
51
51
51
51
51
119
119
119
85
85
85
51
51
51
85
85
85
119
119
119
51
34
51
51
51
51
51
51
51
51
34
51
0
0
0
119
170
51
85
85
85
85
85
85
85
85
85
51
34
51
51
51
51
153
153
136
85
85
85
85
85
85
51
51
51
51
51
51
0
0
0
0
0
0
51
34
51
0
0
0
51
119
68
119
170
51
238
204
153
238
204
153
34
204
221
51
119
170
51
119
170
51
119
170
51
119
170
51
68
119
51
119
170
51
119
170
51
119
170
34
204
221
238
204
153
238
204
153
238
204
153
238
204
153
238
204
153
85
238
238
51
119
170
51
119
170
51
68
119
51
68
119
51
119
170
51
68
119
51
119
170
51
119
170
51
119
170
51
119
170
238
204
153
238
204
153
119
170
51
238
204
153
238
204
153
34
204
221
85
238
238
51
119
170
51
119
170
51
119
170
51
119
170
51
68
119
51
68
119
51
119
170
51
119
170
51
119
170
51
119
170
238
204
153
238
204
153
51
119
68
51
119
68
119
170
51
51
119
68
68
85
85
51
119
68
51
119
68
68
85
85
68
85
85
119
68
68
51
119
68
51
119
68
68
85
85
102
51
68
51
119
68
51
119
68
51
119
68
68
85
85
68
85
85
51
51
51
0
0
0
68
85
85
51
119
68
68
85
85
51
119
68
51
119
68
68
85
85
51
119
68
51
119
68
119
170
51
51
119
68
68
85
85
119
170
51
51
119
68
51
119
68
68
85
85
0
0
0
51
119
68
51
119
68
68
85
85
51
119
68
68
85
85
51
51
51
0
0
0
51
51
51
51
119
68
68
85
85
0
0
0
119
170
51
119
170
51
187
119
85
187
119
85
51
119
68
51
119
68
68
85
85
51
51
51
0
0
0
51
119
68
51
119
68
119
170
51
51
119
68
68
85
85
119
170
51
119
170
51
51
119
68
51
119
68
68
85
85
51
51
51
0
0
0
51
119
68
119
170
51
119
170
51
51
119
68
51
119
68
119
68
68
68
85
85
51
119
68
119
170
51
119
170
51
119
170
51
119
170
51
119
170
51
119
170
51
51
119
68
68
85
85
51
119
68
68
85
85
51
51
51
119
170
51
187
221
68
119
170
51
187
221
68
119
170
51
187
119
85
187
119
85
119
170
51
238
204
153
238
204
153
51
119
68
238
204
153
51
119
68
187
119
85
238
204
153
153
85
85
119
68
68
102
51
68
153
85
85
153
85
85
187
119
85
187
119
85
238
204
153
119
170
51
238
204
153
187
119
85
51
119
68
119
170
51
68
85
85
238
204
153
119
68
68
102
51
68
238
204
153
238
204
153
187
119
85
187
119
85
187
119
85
238
204
153
119
170
51
238
204
153
119
170
51
119
170
51
238
204
153
187
119
85
51
119
68
187
221
68
68
85
85
51
51
51
187
221
68
119
170
51
51
119
68
187
221
68
187
221
68
187
221
68
119
170
51
51
51
51
119
170
51
187
119
85
119
170
51
51
119
68
187
221
68
68
85
85
51
119
68
187
119
85
51
119
68
119
170
51
51
119
68
51
119
68
51
119
68
68
85
85
85
85
85
85
85
85
119
170
51
51
119
68
119
170
51
51
119
68
119
170
51
68
85
85
68
85
85
119
68
68
51
51
51
85
85
85
51
119
68
119
170
51
51
119
68
51
119
68
51
119
68
68
85
85
187
119
85
187
119
85
187
119
85
119
170
51
119
170
51
51
51
51
0
0
0
119
68
68
51
51
51
85
85
85
85
85
85
51
119
68
187
221
68
68
85
85
187
119
85
187
119
85
187
119
85
119
170
51
119
170
51
51
119
68
102
51
68
51
51
51
51
119
68
51
119
68
0
0
0
51
68
119
51
68
119
51
68
119
51
68
119
51
119
170
187
119
85
187
221
68
119
170
51
51
119
68
119
170
51
51
119
68
51
51
51
51
119
68
51
51
51
0
0
0
51
51
51
51
68
119
51
119
170
51
119
170
51
68
119
51
119
68
51
119
68
51
119
68
85
85
85
85
85
85
51
51
51
51
34
51
119
119
119
153
153
136
119
119
119
85
85
85
51
51
51
51
34
51
0
0
0
51
51
51
51
51
51
0
0
0
51
34
51
51
119
68
119
170
51
85
85
85
85
85
85
51
34
51
51
34
51
85
85
85
85
85
85
51
51
51
51
51
51
85
85
85
85
85
85
51
51
51
51
34
51
51
34
51
0
0
0
0
0
0
51
119
68
85
85
85
85
85
85
51
51
51
51
51
51
119
119
119
85
85
85
85
85
85
51
51
51
51
51
51
85
85
85
51
51
51
51
34
51
51
34
51
51
51
51
51
119
68
119
170
51
238
204
153
238
204
153
34
204
221
51
119
170
51
119
170
51
119
170
51
119
170
51
119
170
51
119
170
51
119
170
85
238
238
34
204
221
238
204
153
238
204
153
119
170
51
238
204
153
238
204
153
34
204
221
85
238
238
51
119
170
51
68
119
51
119
170
51
119
170
51
119
170
51
119
170
51
119
170
51
119
170
34
204
221
238
204
153
238
204
153
119
170
51
238
204
153
238
204
153
34
204
221
85
238
238
51
119
170
51
119
170
51
119
170
51
119
170
51
119
170
51
119
170
51
119
170
51
119
170
51
119
170
238
204
153
238
204
153
238
204
153
51
119
68
68
85
85
51
119
68
68
85
85
68
85
85
51
119
68
119
170
51
51
119
68
68
85
85
119
68
68
51
119
68
68
85
85
51
119
68
51
119
68
51
119
68
68
85
85
51
119
68
51
119
68
51
51
51
0
0
0
0
0
0
51
119
68
68
85
85
51
119
68
51
119
68
51
51
51
0
0
0
51
119
68
68
85
85
51
119
68
68
85
85
51
51
51
119
170
51
119
170
51
68
85
85
0
0
0
51
51
51
51
119
68
51
119
68
51
119
68
68
85
85
51
51
51
0
0
0
51
51
51
51
119
68
68
85
85
0
0
0
51
51
51
119
170
51
119
170
51
187
119
85
187
119
85
153
85
85
68
85
85
0
0
0
0
0
0
119
170
51
51
119
68
68
85
85
51
119
68
68
85
85
51
51
51
119
170
51
119
170
51
119
170
51
68
85
85
0
0
0
0
0
0
51
119
68
187
119
85
119
170
51
119
170
51
187
119
85
68
85
85
187
119
85
187
119
85
187
119
85
153
85
85
119
170
51
119
170
51
119
170
51
119
170
51
119
170
51
51
119
68
51
119
68
68
85
85
51
51
51
0
0
0
187
119
85
187
119
85
187
221
68
51
119
68
119
170
51
187
119
85
153
85
85
119
170
51
119
170
51
238
204
153
187
119
85
51
119
68
187
119
85
238
204
153
187
119
85
153
85
85
238
153
102
187
119
85
153
85
85
153
85
85
153
85
85
51
119
68
238
204
153
238
204
153
119
170
51
238
204
153
68
85
85
68
85
85
51
119
68
238
204
153
238
153
102
153
85
85
187
119
85
238
204
153
238
204
153
238
204
153
238
204
153
238
204
153
187
119
85
238
204
153
119
170
51
119
170
51
187
119
85
187
119
85
51
119
68
68
85
85
68
85
85
187
119
85
0
0
0
51
119
68
68
85
85
0
0
0
0
0
0
187
221
68
119
170
51
51
51
51
119
170
51
187
119
85
51
119
68
187
221
68
119
170
51
119
170
51
68
85
85
187
119
85
51
119
68
51
119
68
119
170
51
51
119
68
68
85
85
119
170
51
119
170
51
119
170
51
187
119
85
119
170
51
51
119
68
119
170
51
51
51
51
0
0
0
187
119
85
119
170
51
187
119
85
187
119
85
119
170
51
51
119
68
119
170
51
51
119
68
68
85
85
119
170
51
187
119
85
187
119
85
187
119
85
119
170
51
187
119
85
119
68
68
51
51
51
85
85
85
187
119
85
119
170
51
51
119
68
187
221
68
119
170
51
119
170
51
68
85
85
187
119
85
119
170
51
119
170
51
119
170
51
119
170
51
119
68
68
51
119
68
119
170
51
68
85
85
51
51
51
51
51
51
51
68
119
51
68
119
51
68
119
51
119
170
187
119
85
187
221
68
119
170
51
119
170
51
51
119
68
119
170
51
51
119
68
68
85
85
102
51
68
51
51
51
51
68
119
51
119
170
187
119
85
187
119
85
187
221
68
187
119
85
51
119
68
51
51
51
85
85
85
51
51
51
51
34
51
51
51
51
119
119
119
85
85
85
85
85
85
85
85
85
51
34
51
0
0
0
0
0
0
0
0
0
0
0
0
51
34
51
51
51
51
51
119
68
119
170
51
51
119
68
85
85
85
0
0
0
51
34
51
51
51
51
85
85
85
51
34
51
51
51
51
51
51
51
85
85
85
51
34
51
0
0
0
0
0
0
51
34
51
51
51
51
51
119
68
51
119
68
51
51
51
51
34
51
85
85
85
85
85
85
85
85
85
51
51
51
51
34
51
51
34
51
85
85
85
51
51
51
51
34
51
51
34
51
51
119
68
51
119
68
119
170
51
238
204
153
238
153
102
238
204
153
34
204
221
51
119
170
51
119
170
51
119
170
51
119
170
85
238
238
85
238
238
34
204
221
238
204
153
238
153
102
238
204
153
119
170
51
238
204
153
238
153
102
238
204
153
34
204
221
51
119
170
51
119
170
51
119
170
51
119
170
51
119
170
51
119
170
34
204
221
34
204
221
238
204
153
238
153
102
238
204
153
119
170
51
238
204
153
238
153
102
238
204
153
34
204
221
85
238
238
51
119
170
51
119
170
51
119
170
51
119
170
51
119
170
51
119
170
85
238
238
34
204
221
238
204
153
238
204
153
119
170
51
51
119
68
51
119
68
68
85
85
51
51
51
0
0
0
68
85
85
51
119
68
68
85
85
51
51
51
51
119
68
68
85
85
51
119
68
0
0
0
68
85
85
51
51
51
0
0
0
119
170
51
68
85
85
0
0
0
0
0
0
68
85
85
0
0
0
0
0
0
51
119
68
0
0
0
68
85
85
51
119
68
68
85
85
51
119
68
68
85
85
51
51
51
0
0
0
119
170
51
119
170
51
119
170
51
102
51
68
119
170
51
51
119
68
68
85
85
51
51
51
0
0
0
0
0
0
102
51
68
51
119
68
68
85
85
0
0
0
51
51
51
119
170
51
119
170
51
119
170
51
119
170
51
153
85
85
119
170
51
51
119
68
102
51
68
51
119
68
51
119
68
68
85
85
51
119
68
68
85
85
51
51
51
0
0
0
119
170
51
187
119
85
119
170
51
119
170
51
102
51
68
187
119
85
187
119
85
187
119
85
187
119
85
119
170
51
119
170
51
119
170
51
119
170
51
51
119
68
187
119
85
51
119
68
68
85
85
119
170
51
187
119
85
187
119
85
119
170
51
119
170
51
68
85
85
0
0
0
0
0
0
187
119
85
187
119
85
153
85
85
119
170
51
119
170
51
119
170
51
51
119
68
119
170
51
119
170
51
119
170
51
238
204
153
187
119
85
187
119
85
187
119
85
238
204
153
187
119
85
153
85
85
119
68
68
102
51
68
153
85
85
187
119
85
187
119
85
119
170
51
119
170
51
238
204
153
119
170
51
119
170
51
187
119
85
187
119
85
51
51
51
187
119
85
187
119
85
187
119
85
187
119
85
187
119
85
187
119
85
187
119
85
187
119
85
238
204
153
238
204
153
119
170
51
119
170
51
238
204
153
187
119
85
187
119
85
51
119
68
68
85
85
51
119
68
119
170
51
51
51
51
0
0
0
68
85
85
102
51
68
119
68
68
51
51
51
51
51
51
119
170
51
119
170
51
119
170
51
119
170
51
51
119
68
119
170
51
68
85
85
68
85
85
187
119
85
187
119
85
68
85
85
68
85
85
0
0
0
119
170
51
238
153
102
119
170
51
187
119
85
119
170
51
238
153
102
187
119
85
187
119
85
119
68
68
51
51
51
85
85
85
187
119
85
187
119
85
187
119
85
119
170
51
187
119
85
68
85
85
0
0
0
238
153
102
187
119
85
187
119
85
187
119
85
187
119
85
119
170
51
119
170
51
187
119
85
187
119
85
187
119
85
187
119
85
187
119
85
119
170
51
51
119
68
119
170
51
68
85
85
68
85
85
119
170
51
119
170
51
119
170
51
119
170
51
119
170
51
119
68
68
119
170
51
51
119
68
51
51
51
51
68
119
51
68
119
51
119
170
51
119
170
51
119
170
187
119
85
187
221
68
119
170
51
119
170
51
119
170
51
119
170
51
119
170
51
119
170
51
51
51
51
119
68
68
119
68
68
119
68
68
187
119
85
187
221
68
187
221
68
119
170
51
119
170
51
102
51
68
119
170
51
51
119
68
51
119
68
85
85
85
51
34
51
0
0
0
51
51
51
85
85
85
51
34
51
51
34
51
51
34
51
0
0
0
51
34
51
51
34
51
51
119
68
51
119
68
51
119
68
119
170
51
119
170
51
51
119
68
51
119
68
51
34
51
51
51
51
51
51
51
0
0
0
51
51
51
51
51
51
51
51
51
0
0
0
51
119
68
51
119
68
51
119
68
51
119
68
119
170
51
51
119
68
51
119
68
51
119
68
85
85
85
85
85
85
51
51
51
51
34
51
0
0
0
0
0
0
51
51
51
51
51
51
51
119
68
51
119
68
51
119
68
51
119
68
119
170
51
119
170
51
238
204
153
238
153
102
238
204
153
238
204
153
51
119
170
34
204
221
34
204
221
238
204
153
238
204
153
238
204
153
238
153
102
238
204
153
119
170
51
119
170
51
119
170
51
238
204
153
238
153
102
238
204
153
238
204
153
51
119
170
51
119
170
51
119
170
34
204
221
238
204
153
238
204
153
238
204
153
238
153
102
238
204
153
119
170
51
119
170
51
119
170
51
238
204
153
238
153
102
238
204
153
34
204
221
34
204
221
238
204
153
238
204
153
238
204
153
34
204
221
85
238
238
34
204
221
238
204
153
238
153
102
238
204
153
119
170
51
119
170
51
68
85
85
0
0
0
0
0
0
51
119
68
68
85
85
51
51
51
0
0
0
0
0
0
68
85
85
0
0
0
0
0
0
51
119
68
0
0
0
0
0
0
51
119
68
119
170
51
119
170
51
102
51
68
119
68
68
51
119
68
102
51
68
51
119
68
119
170
51
102
51
68
51
119
68
68
85
85
0
0
0
68
85
85
0
0
0
0
0
0
51
119
68
119
170
51
119
170
51
119
170
51
119
68
68
51
119
68
119
170
51
119
170
51
102
51
68
102
51
68
51
119
68
119
68
68
119
170
51
119
170
51
102
51
68
119
170
51
119
170
51
119
170
51
119
170
51
119
170
51
119
170
51
119
170
51
119
170
51
119
68
68
68
85
85
51
119
68
187
119
85
68
85
85
0
0
0
0
0
0
187
119
85
187
119
85
119
170
51
119
170
51
119
170
51
119
68
68
68
85
85
51
119
68
153
85
85
119
170
51
119
170
51
187
221
68
119
170
51
119
170
51
119
170
51
51
119
68
68
85
85
187
119
85
119
170
51
119
170
51
187
119
85
187
119
85
187
221
68
119
170
51
102
51
68
51
119
68
153
85
85
153
85
85
187
221
68
119
170
51
51
119
68
51
119
68
68
85
85
187
119
85
119
170
51
119
170
51
238
204
153
238
204
153
238
204
153
187
119
85
187
119
85
238
204
153
187
119
85
187
119
85
187
119
85
51
119
68
119
170
51
187
119
85
187
119
85
238
204
153
119
170
51
187
119
85
119
170
51
238
204
153
187
119
85
238
204
153
238
204
153
187
119
85
187
119
85
187
119
85
187
119
85
238
204
153
187
119
85
238
204
153
238
204
153
119
170
51
187
119
85
119
170
51
238
204
153
238
204
153
187
119
85
187
119
85
51
119
68
238
204
153
119
170
51
187
119
85
238
153
102
102
51
68
187
119
85
119
68
68
187
119
85
187
119
85
119
170
51
119
170
51
187
119
85
119
170
51
119
170
51
51
51
51
0
0
0
187
119
85
238
153
102
187
119
85
187
119
85
102
51
68
0
0
0
119
170
51
119
170
51
187
119
85
187
119
85
119
170
51
119
170
51
187
119
85
187
119
85
187
119
85
187
119
85
187
119
85
51
119
68
187
119
85
51
119
68
187
119
85
187
119
85
102
51
68
0
0
0
187
119
85
119
170
51
119
170
51
187
119
85
119
170
51
187
119
85
119
170
51
119
170
51
187
119
85
187
119
85
51
119
68
187
119
85
51
119
68
187
119
85
51
51
51
0
0
0
187
119
85
119
170
51
119
170
51
119
170
51
119
170
51
119
170
51
119
170
51
119
170
51
51
119
68
51
51
51
51
68
119
51
119
170
119
68
68
187
119
85
187
119
85
187
221
68
119
170
51
119
170
51
119
170
51
119
170
51
119
170
51
51
51
51
51
119
68
51
51
51
119
68
68
51
119
68
51
119
68
119
170
51
51
119
68
119
170
51
51
119
68
119
170
51
119
68
68
119
170
51
119
170
51
119
170
51
51
119
68
51
119
68
51
119
68
51
119
68
51
119
68
51
119
68
51
119
68
51
119
68
51
119
68
51
119
68
51
119
68
51
119
68
119
170
51
119
170
51
119
170
51
119
170
51
119
170
51
51
119
68
51
119
68
51
119
68
51
119
68
51
119
68
51
119
68
51
119
68
51
119
68
51
119
68
119
170
51
119
170
51
119
170
51
119
170
51
119
170
51
119
170
51
51
119
68
51
119
68
51
119
68
51
119
68
51
119
68
51
119
68
51
119
68
51
119
68
51
119
68
51
119
68
51
119
68
51
119
68
51
119
68
119
170
51
119
170
51
119
170
51
119
170
51
238
204
153
238
204
153
238
204
153
238
204
153
238
204
153
238
204
153
238
204
153
238
204
153
238
204
153
238
204
153
119
170
51
119
170
51
119
170
51
119
170
51
119
170
51
238
204
153
238
204
153
238
204
153
238
204
153
238
204
153
238
204
153
238
204
153
238
204
153
238
204
153
238
204
153
238
204
153
119
170
51
119
170
51
119
170
51
119
170
51
119
170
51
238
204
153
238
153
102
238
204
153
238
204
153
238
204
153
238
204
153
238
204
153
238
204
153
238
204
153
238
204
153
238
153
102
238
204
153
119
170
51
119
170
51
119
170
51
119
170
51
102
51
68
51
119
68
119
170
51
119
68
68
51
119
68
102
51
68
51
119
68
119
68
68
102
51
68
51
119
68
119
170
51
102
51
68
51
119
68
119
170
51
119
170
51
119
170
51
119
68
68
119
68
68
51
119
68
119
68
68
68
85
85
119
170
51
119
68
68
68
85
85
119
170
51
102
51
68
119
170
51
102
51
68
51
119
68
119
170
51
119
170
51
119
170
51
119
170
51
119
68
68
68
85
85
68
85
85
119
170
51
119
68
68
119
68
68
68
85
85
119
68
68
68
85
85
51
119
68
119
68
68
68
85
85
51
119
68
119
170
51
119
170
51
119
170
51
187
119
85
187
119
85
187
119
85
119
170
51
119
170
51
187
221
68
119
170
51
119
170
51
102
51
68
119
170
51
119
170
51
187
119
85
119
170
51
119
170
51
119
170
51
119
170
51
153
85
85
153
85
85
119
170
51
119
170
51
119
170
51
119
170
51
119
170
51
119
170
51
119
170
51
187
119
85
187
119
85
187
119
85
119
170
51
119
170
51
119
170
51
187
119
85
187
119
85
187
221
68
119
68
68
68
85
85
51
119
68
119
170
51
119
170
51
119
170
51
119
170
51
68
85
85
187
119
85
119
170
51
119
170
51
187
119
85
187
119
85
187
119
85
238
204
153
238
204
153
238
204
153
187
119
85
238
204
153
238
204
153
238
204
153
119
170
51
119
170
51
238
204
153
187
119
85
238
204
153
187
119
85
187
119
85
238
204
153
238
204
153
238
204
153
238
204
153
238
204
153
187
119
85
187
119
85
238
204
153
238
204
153
238
204
153
238
204
153
238
204
153
238
204
153
119
170
51
238
204
153
119
170
51
187
119
85
238
204
153
238
204
153
238
204
153
238
204
153
238
204
153
238
204
153
187
119
85
119
68
68
153
85
85
187
119
85
187
119
85
187
119
85
238
204
153
119
170
51
187
119
85
187
119
85
187
119
85
187
119
85
119
68
68
51
51
51
85
85
85
119
170
51
187
119
85
187
119
85
119
68
68
51
51
51
85
85
85
85
85
85
187
119
85
119
170
51
119
170
51
119
170
51
238
204
153
187
119
85
119
170
51
119
170
51
119
170
51
187
119
85
51
119
68
187
119
85
119
170
51
187
119
85
119
68
68
51
51
51
85
85
85
85
85
85
119
170
51
238
153
102
119
170
51
119
170
51
119
170
51
238
153
102
187
119
85
187
119
85
187
119
85
51
119
68
187
119
85
187
119
85
119
68
68
51
51
51
85
85
85
119
170
51
119
170
51
119
170
51
119
170
51
119
170
51
119
170
51
119
170
51
119
170
51
51
119
68
51
119
68
51
119
68
51
119
68
119
170
51
119
170
51
119
170
51
119
170
51
119
170
51
119
170
51
119
170
51
119
170
51
119
170
51
51
51
51
51
119
68
119
170
51
119
170
51
119
170
51
119
170
51
119
170
51
51
119
68
119
170
51
119
170
51
119
170
51
119
170
51
119
170
51
119
170
51
119
170
51
119
170
51
119
170
51
119
170
51
119
170
51
119
170
51
119
170
51
119
170
51
51
119
68
51
119
68
51
119
68
119
170
51
119
170
51
119
170
51
119
170
51
119
170
51
51
68
119
51
119
170
119
170
51
119
170
51
51
68
119
51
68
119
51
119
68
51
119
68
51
119
68
119
170
51
51
68
119
119
170
51
119
170
51
119
170
51
119
170
51
119
170
51
51
68
119
51
119
68
51
119
68
51
119
68
119
170
51
119
170
51
51
68
119
51
68
119
119
170
51
119
170
51
119
170
51
51
68
119
119
170
51
119
170
51
119
170
51
119
170
51
51
68
119
51
119
170
119
170
51
119
170
51
51
68
119
51
68
119
51
119
68
51
119
68
51
119
68
119
170
51
51
68
119
119
170
51
119
170
51
119
170
51
119
170
51
119
170
51
119
170
51
119
170
51
119
68
68
119
68
68
51
119
68
51
51
51
119
170
51
119
170
51
119
68
68
102
51
68
119
68
68
51
119
68
119
170
51
119
170
51
119
170
51
119
170
51
119
68
68
51
119
68
51
51
51
119
170
51
119
68
68
119
68
68
51
119
68
51
119
68
119
170
51
51
119
68
51
51
51
119
68
68
119
170
51
119
170
51
119
68
68
119
68
68
51
119
68
119
170
51
119
68
68
119
68
68
51
119
68
119
170
51
51
119
68
51
51
51
119
68
68
119
68
68
51
119
68
119
170
51
119
170
51
119
170
51
119
170
51
119
170
51
119
170
51
51
119
68
51
51
51
119
170
51
119
170
51
119
170
51
119
170
51
119
170
51
119
170
51
119
170
51
119
170
51
119
170
51
119
170
51
119
170
51
119
170
51
119
170
51
119
170
51
119
170
51
119
170
51
119
170
51
119
170
51
119
170
51
119
170
51
119
170
51
51
119
68
51
51
51
119
170
51
119
170
51
119
170
51
119
170
51
187
221
68
119
170
51
187
221
68
51
119
68
119
170
51
119
170
51
119
170
51
119
170
51
119
170
51
51
119
68
51
119
68
119
170
51
119
170
51
119
170
51
119
170
51
119
170
51
119
170
51
119
170
51
119
170
51
119
170
51
119
170
51
119
170
51
119
119
119
119
119
119
85
85
85
119
170
51
119
170
51
119
170
51
119
170
51
119
170
51
119
170
51
119
170
51
119
170
51
119
170
51
119
170
51
119
170
51
119
170
51
119
170
51
119
170
51
85
85
85
85
85
85
85
85
85
119
170
51
119
170
51
119
170
51
119
170
51
119
170
51
119
170
51
119
170
51
119
170
51
119
170
51
119
170
51
119
170
51
119
170
51
119
170
51
119
119
119
85
85
85
119
170
51
119
170
51
119
170
51
119
170
51
119
170
51
119
170
51
119
170
51
119
170
51
119
170
51
119
170
51
51
119
68
51
119
68
119
170
51
119
170
51
119
170
51
119
170
51
51
119
68
51
51
51
51
119
68
119
170
51
51
119
68
119
170
51
119
170
51
119
170
51
51
119
68
51
119
68
85
85
85
51
119
68
51
119
68
51
119
68
51
119
68
51
51
51
0
0
0
119
170
51
51
119
68
51
119
68
51
119
68
119
170
51
119
170
51
51
119
68
119
170
51
51
119
68
51
119
68
51
51
51
0
0
0
119
170
51
119
170
51
119
170
51
51
119
68
51
119
68
51
51
51
0
0
0
85
85
85
119
170
51
51
119
68
238
204
153
119
170
51
119
170
51
119
170
51
119
170
51
119
170
51
119
170
51
119
170
51
119
170
51
119
170
51
119
170
51
119
170
51
119
170
51
119
170
51
119
170
51
119
170
51
119
170
51
238
204
153
238
204
153
85
238
238
51
119
170
51
119
170
51
119
170
51
68
119
51
68
119
51
119
170
51
119
170
34
204
221
238
204
153
238
153
102
238
204
153
238
204
153
238
204
153
238
204
153
238
204
153
34
204
221
34
204
221
51
119
170
51
119
170
51
68
119
51
68
119
51
119
170
51
119
170
51
119
170
85
238
238
34
204
221
238
204
153
238
204
153
119
170
51
238
204
153
238
204
153
238
204
153
238
204
153
238
204
153
119
170
51
119
170
51
238
204
153
238
204
153
119
170
51
119
170
51
238
204
153
238
204
153
238
204
153
238
204
153
119
170
51
119
170
51
119
170
51
119
170
51
119
170
51
119
119
119
51
119
68
119
170
51
119
170
51
51
119
68
51
119
68
153
153
136
51
119
68
51
51
51
119
170
51
119
170
51
119
170
51
51
68
119
51
68
119
51
68
119
51
119
170
51
119
68
51
68
119
51
119
68
51
119
68
153
153
136
51
119
68
51
119
68
51
119
68
51
68
119
51
68
119
119
170
51
119
170
51
51
68
119
51
119
68
153
153
136
51
119
68
51
119
68
51
51
51
51
119
68
51
68
119
51
119
68
51
68
119
51
119
68
51
119
68
51
119
68
51
68
119
119
170
51
119
170
51
51
68
119
51
68
119
51
68
119
51
119
170
51
119
68
51
68
119
51
119
68
51
119
68
153
153
136
51
119
68
51
119
68
51
119
68
51
68
119
51
68
119
119
170
51
119
170
51
119
170
51
119
170
51
119
68
68
119
68
68
119
68
68
51
119
68
51
119
68
51
51
51
119
68
68
119
68
68
119
68
68
102
51
68
119
68
68
119
170
51
119
170
51
119
170
51
187
119
85
119
68
68
51
119
68
51
119
68
51
51
51
119
68
68
119
68
68
119
68
68
51
119
68
119
68
68
51
119
68
51
119
68
51
51
51
51
119
68
119
170
51
119
68
68
51
119
68
119
68
68
187
119
85
119
68
68
187
119
85
119
68
68
119
68
68
51
119
68
51
119
68
51
51
51
119
68
68
119
170
51
119
68
68
119
68
68
119
170
51
119
170
51
119
170
51
119
170
51
51
119
68
51
119
68
51
51
51
119
170
51
119
170
51
119
170
51
119
170
51
119
170
51
119
170
51
119
170
51
119
170
51
119
170
51
119
170
51
119
170
51
119
170
51
119
170
51
119
170
51
119
170
51
187
221
68
119
170
51
187
221
68
51
119
68
119
170
51
51
119
68
51
119
68
51
51
51
119
170
51
119
170
51
119
170
51
119
170
51
187
221
68
51
119
68
119
170
51
119
170
51
119
170
51
119
170
51
119
170
51
51
119
68
51
119
68
68
85
85
51
51
51
187
221
68
119
170
51
187
221
68
51
119
68
187
221
68
119
170
51
187
221
68
51
119
68
51
51
51
119
170
51
119
119
119
119
119
119
51
34
51
119
170
51
119
170
51
119
170
51
119
170
51
119
170
51
119
170
51
119
170
51
187
221
68
119
170
51
187
221
68
51
119
68
119
170
51
119
170
51
119
170
51
85
85
85
204
204
187
51
34
51
119
170
51
119
170
51
119
170
51
187
221
68
119
170
51
187
221
68
51
119
68
119
170
51
119
170
51
119
170
51
119
170
51
119
170
51
119
119
119
119
119
119
51
34
51
119
170
51
119
170
51
119
170
51
119
170
51
119
170
51
119
170
51
119
170
51
119
170
51
51
119
68
51
119
68
51
51
51
0
0
0
51
119
68
119
170
51
119
170
51
51
119
68
187
221
68
119
170
51
51
119
68
0
0
0
119
170
51
51
119
68
51
119
68
51
119
68
187
221
68
119
170
51
51
119
68
51
119
68
51
119
68
187
221
68
119
170
51
51
119
68
51
119
68
51
51
51
119
170
51
187
221
68
51
119
68
51
119
68
0
0
0
119
170
51
51
119
68
187
221
68
119
170
51
51
119
68
51
119
68
51
51
51
0
0
0
51
119
68
187
221
68
119
170
51
51
119
68
51
119
68
51
51
51
0
0
0
119
170
51
238
204
153
238
204
153
119
170
51
238
204
153
238
204
153
238
204
153
238
204
153
238
204
153
238
204
153
119
170
51
119
170
51
119
170
51
119
170
51
119
170
51
119
170
51
119
170
51
238
204
153
238
204
153
238
204
153
85
238
238
51
119
170
51
119
170
51
119
170
51
68
119
51
68
119
51
119
170
51
119
170
85
238
238
34
204
221
238
204
153
238
204
153
238
204
153
238
204
153
238
204
153
238
204
153
34
204
221
85
238
238
51
119
170
51
119
170
51
68
119
51
68
119
51
119
170
51
119
170
51
119
170
51
119
170
85
238
238
238
204
153
238
204
153
238
204
153
119
170
51
238
204
153
238
204
153
238
153
102
238
204
153
238
204
153
238
204
153
238
153
102
238
204
153
238
204
153
238
204
153
238
204
153
238
204
153
238
204
153
238
204
153
51
51
51
119
170
51
119
170
51
119
170
51
119
170
51
51
119
68
51
119
68
51
119
68
119
170
51
51
119
68
153
153
136
51
119
68
51
51
51
51
119
68
119
170
51
119
170
51
51
68
119
51
68
119
119
170
51
51
119
68
51
119
68
51
119
68
51
119
68
51
119
68
153
153
136
51
119
68
51
119
68
51
51
51
119
170
51
119
170
51
119
170
51
119
170
51
51
119
68
51
68
119
51
119
68
51
119
68
51
51
51
68
85
85
0
0
0
51
68
119
51
119
68
51
68
119
51
119
68
51
119
68
153
153
136
51
119
68
51
119
68
51
68
119
51
68
119
51
68
119
119
170
51
51
119
68
51
119
68
51
119
68
51
119
68
51
119
68
153
153
136
51
119
68
51
119
68
51
51
51
119
170
51
119
170
51
119
170
51
119
170
51
119
170
51
119
170
51
119
170
51
119
170
51
119
68
68
51
119
68
51
51
51
0
0
0
0
0
0
119
68
68
187
187
221
119
68
68
102
51
68
119
68
68
51
119
68
119
170
51
119
170
51
119
68
68
51
119
68
51
51
51
0
0
0
0
0
0
119
68
68
102
51
68
102
51
68
119
68
68
51
119
68
51
51
51
0
0
0
0
0
0
119
68
68
51
119
68
51
119
68
119
170
51
119
170
51
119
68
68
187
119
85
119
68
68
119
68
68
51
119
68
51
51
51
0
0
0
0
0
0
119
68
68
119
68
68
119
170
51
119
68
68
119
170
51
119
170
51
119
170
51
51
119
68
51
51
51
0
0
0
0
0
0
119
170
51
119
170
51
119
170
51
119
170
51
119
170
51
119
170
51
119
170
51
119
170
51
119
170
51
119
170
51
119
170
51
119
170
51
119
170
51
51
119
68
51
119
68
119
170
51
187
221
68
51
119
68
119
170
51
51
119
68
51
51
51
0
0
0
0
0
0
119
170
51
119
170
51
119
170
51
119
170
51
119
170
51
119
170
51
51
119
68
51
51
51
119
170
51
119
170
51
119
170
51
51
51
51
68
85
85
51
51
51
0
0
0
119
170
51
187
221
68
51
119
68
119
170
51
119
170
51
187
221
68
51
119
68
51
119
68
51
119
68
51
51
51
119
119
119
85
85
85
119
119
119
85
85
85
119
170
51
119
170
51
119
170
51
119
170
51
119
170
51
119
170
51
119
170
51
187
221
68
51
119
68
119
170
51
119
170
51
119
119
119
51
34
51
204
204
187
204
204
187
85
85
85
85
85
85
85
85
85
119
170
51
119
170
51
187
221
68
51
119
68
119
170
51
119
170
51
119
170
51
119
170
51
119
170
51
119
170
51
153
153
136
119
119
119
51
34
51
119
170
51
119
170
51
119
170
51
119
170
51
119
170
51
119
170
51
119
170
51
51
119
68
187
221
68
119
170
51
51
119
68
51
119
68
51
51
51
0
0
0
51
119
68
119
170
51
51
119
68
51
119
68
51
51
51
51
119
68
0
0
0
119
170
51
51
119
68
51
119
68
119
170
51
51
119
68
51
119
68
119
170
51
51
119
68
119
170
51
51
119
68
51
119
68
119
170
51
51
119
68
187
221
68
51
119
68
51
119
68
51
119
68
51
51
51
187
221
68
51
119
68
119
170
51
51
119
68
51
119
68
119
170
51
51
119
68
51
51
51
51
119
68
119
170
51
51
119
68
51
119
68
119
170
51
51
119
68
51
51
51
0
0
0
238
204
153
238
204
153
238
204
153
238
204
153
238
204
153
238
204
153
238
204
153
238
204
153
238
153
102
238
204
153
119
170
51
238
204
153
238
204
153
238
204
153
238
204
153
238
204
153
238
204
153
238
153
102
238
204
153
85
238
238
51
119
170
51
119
170
51
119
170
51
119
170
51
68
119
51
68
119
51
119
170
51
119
170
85
238
238
238
204
153
238
204
153
238
204
153
238
204
153
238
204
153
238
204
153
34
204
221
85
238
238
51
119
170
51
119
170
51
119
170
51
68
119
51
68
119
51
119
170
51
119
170
51
119
170
51
119
170
238
204
153
238
204
153
119
170
51
238
204
153
238
204
153
238
153
102
238
204
153
34
204
221
34
204
221
34
204
221
238
204
153
238
204
153
238
204
153
238
204
153
238
204
153
238
204
153
238
204
153
238
204
153
51
119
68
119
170
51
119
170
51
119
170
51
119
170
51
119
170
51
51
119
68
51
51
51
119
170
51
51
119
68
68
85
85
51
51
51
0
0
0
51
51
51
51
119
68
119
170
51
51
68
119
51
119
170
51
119
68
153
153
136
51
119
68
51
119
68
51
51
51
51
119
68
51
51
51
51
119
68
68
85
85
0
0
0
119
170
51
51
68
119
119
170
51
51
68
119
51
68
119
51
119
68
51
119
68
51
119
68
68
85
85
51
51
51
0
0
0
51
119
68
51
119
68
51
119
68
51
119
68
153
153
136
51
119
68
51
119
68
51
51
51
51
119
68
51
68
119
51
119
170
51
119
68
153
153
136
51
119
68
51
119
68
51
51
51
51
119
68
51
51
51
51
119
68
68
85
85
0
0
0
119
170
51
51
68
119
119
170
51
51
68
119
119
170
51
119
68
68
51
119
68
119
68
68
51
119
68
51
119
68
51
119
68
68
85
85
51
51
51
0
0
0
119
68
68
119
68
68
119
68
68
51
119
68
119
68
68
119
170
51
119
68
68
51
119
68
51
119
68
51
119
68
68
85
85
51
51
51
0
0
0
119
68
68
102
51
68
238
153
102
51
119
68
51
119
68
68
85
85
51
51
51
0
0
0
119
68
68
119
170
51
119
68
68
51
119
68
51
119
68
51
51
51
187
187
221
119
68
68
51
119
68
51
119
68
68
85
85
51
51
51
0
0
0
51
119
68
119
68
68
119
68
68
51
119
68
119
170
51
119
170
51
51
119
68
51
119
68
68
85
85
51
51
51
0
0
0
119
170
51
119
170
51
119
119
119
119
119
119
119
170
51
187
221
68
119
170
51
187
221
68
51
119
68
119
170
51
119
170
51
51
119
68
51
119
68
68
85
85
51
51
51
119
170
51
119
119
119
119
119
119
51
119
68
51
119
68
68
85
85
51
51
51
0
0
0
119
170
51
119
170
51
119
170
51
119
170
51
119
170
51
51
119
68
51
119
68
51
51
51
119
170
51
51
119
68
51
119
68
51
51
51
0
0
0
68
85
85
0
0
0
119
170
51
119
170
51
119
170
51
119
170
51
119
170
51
51
119
68
51
51
51
0
0
0
0
0
0
119
119
119
119
119
119
119
119
119
51
34
51
85
85
85
119
170
51
119
170
51
119
170
51
119
170
51
119
170
51
119
170
51
119
170
51
119
170
51
119
170
51
119
170
51
51
34
51
119
119
119
204
204
187
153
153
136
153
153
136
51
119
68
119
119
119
85
85
85
119
170
51
119
170
51
119
170
51
119
170
51
119
170
51
119
170
51
119
170
51
119
170
51
119
119
119
204
204
187
153
153
136
119
119
119
51
34
51
119
170
51
119
170
51
119
170
51
119
170
51
119
170
51
119
170
51
51
119
68
119
170
51
51
119
68
51
119
68
119
170
51
51
119
68
51
51
51
51
119
68
51
119
68
51
119
68
119
170
51
51
119
68
51
51
51
0
0
0
119
170
51
119
170
51
51
119
68
51
119
68
51
51
51
0
0
0
51
119
68
85
85
85
51
119
68
51
119
68
51
51
51
51
119
68
51
119
68
51
119
68
51
119
68
51
51
51
51
119
68
51
51
51
119
170
51
51
119
68
51
119
68
51
119
68
51
51
51
51
119
68
51
119
68
51
51
51
0
0
0
51
119
68
51
119
68
51
51
51
51
119
68
51
51
51
51
51
51
0
0
0
51
119
170
238
204
153
238
204
153
238
204
153
85
238
238
85
238
238
51
119
170
51
119
170
238
204
153
238
204
153
238
204
153
238
204
153
238
204
153
238
204
153
238
204
153
238
204
153
51
119
170
238
204
153
85
238
238
51
119
170
51
119
170
51
119
170
51
119
170
51
119
170
51
68
119
51
68
119
51
119
170
51
119
170
51
119
170
238
204
153
238
204
153
238
204
153
238
204
153
238
204
153
238
204
153
238
204
153
34
204
221
51
119
170
51
119
170
51
119
170
51
68
119
51
68
119
51
119
170
51
119
170
51
119
170
51
119
170
51
119
170
51
119
170
238
204
153
238
204
153
238
204
153
238
204
153
34
204
221
85
238
238
34
204
221
51
119
170
51
119
170
238
204
153
238
204
153
238
204
153
34
204
221
34
204
221
51
119
170
51
119
170
0
0
0
119
170
51
51
119
68
51
119
68
51
119
68
51
51
51
102
51
68
119
170
51
51
119
68
51
119
68
51
119
68
51
51
51
0
0
0
51
51
51
51
51
51
51
119
68
51
119
170
51
119
170
51
119
68
51
119
68
51
51
51
68
85
85
0
0
0
51
119
68
51
51
51
0
0
0
51
51
51
0
0
0
119
170
51
119
170
51
51
68
119
51
68
119
119
170
51
51
68
119
51
119
68
51
119
68
51
51
51
0
0
0
51
119
68
51
119
68
153
153
136
51
119
68
51
119
68
51
51
51
51
119
68
68
85
85
0
0
0
51
68
119
51
119
170
51
119
170
51
119
68
51
119
68
51
51
51
68
85
85
0
0
0
51
119
68
51
51
51
0
0
0
51
51
51
0
0
0
119
170
51
119
170
51
51
68
119
51
68
119
119
68
68
119
68
68
119
68
68
51
119
68
51
119
68
51
51
51
51
51
51
0
0
0
0
0
0
0
0
0
51
51
51
51
119
68
119
68
68
119
68
68
119
68
68
51
119
68
51
119
68
51
119
68
51
51
51
51
51
51
0
0
0
0
0
0
0
0
0
51
51
51
51
119
68
51
119
68
51
51
51
51
51
51
0
0
0
0
0
0
0
0
0
51
51
51
119
68
68
51
119
68
119
170
51
51
119
68
51
119
68
51
119
68
51
119
68
51
51
51
51
51
51
0
0
0
0
0
0
0
0
0
0
0
0
51
119
68
119
68
68
119
68
68
51
119
68
51
119
68
51
51
51
51
51
51
0
0
0
0
0
0
0
0
0
0
0
0
119
119
119
153
153
136
85
85
85
85
85
85
119
170
51
187
221
68
51
119
68
119
170
51
119
170
51
119
170
51
51
51
51
68
85
85
51
51
51
0
0
0
153
153
136
51
119
68
51
119
68
51
51
51
51
51
51
0
0
0
0
0
0
0
0
0
0
0
0
119
170
51
119
170
51
119
170
51
51
119
68
51
51
51
0
0
0
0
0
0
153
153
136
51
51
51
68
85
85
68
85
85
68
85
85
0
0
0
51
51
51
119
170
51
119
170
51
119
170
51
119
170
51
119
170
51
51
119
68
51
119
68
68
85
85
51
51
51
0
0
0
119
119
119
119
119
119
119
119
119
51
34
51
51
34
51
187
221
68
119
170
51
187
221
68
51
119
68
119
170
51
119
170
51
119
170
51
119
170
51
119
119
119
51
34
51
204
204
187
119
119
119
119
119
119
51
119
68
51
119
68
51
51
51
85
85
85
119
170
51
119
170
51
119
170
51
187
221
68
119
170
51
187
221
68
51
119
68
119
170
51
204
204
187
153
153
136
153
153
136
119
119
119
51
34
51
85
85
85
119
170
51
187
221
68
119
170
51
187
221
68
51
119
68
119
170
51
51
119
68
51
119
68
51
51
51
51
119
68
51
51
51
51
51
51
0
0
0
119
170
51
51
119
68
51
51
51
51
51
51
51
51
51
0
0
0
51
119
68
119
170
51
187
221
68
119
170
51
51
119
68
51
119
68
51
51
51
0
0
0
51
119
68
51
119
68
51
51
51
51
51
51
51
51
51
119
170
51
51
51
51
51
119
68
51
51
51
85
85
85
51
119
68
85
85
85
51
119
68
51
119
68
51
119
68
187
221
68
119
170
51
51
119
68
51
119
68
51
51
51
0
0
0
51
51
51
51
51
51
51
51
51
51
51
51
0
0
0
51
119
170
51
119
170
85
238
238
85
238
238
85
238
238
51
119
170
51
119
170
51
119
170
51
119
170
238
204
153
238
204
153
238
204
153
34
204
221
34
204
221
51
119
170
51
119
170
51
119
170
51
119
170
51
119
170
51
119
170
51
119
170
51
119
170
51
119
170
51
119
170
51
119
170
51
68
119
51
119
170
51
119
170
51
119
170
51
119
170
238
204
153
238
204
153
238
204
153
238
204
153
238
204
153
238
204
153
34
204
221
51
119
170
51
119
170
51
119
170
51
68
119
51
68
119
51
119
170
51
68
119
51
119
170
51
119
170
51
119
170
51
119
170
238
204
153
238
204
153
238
204
153
238
204
153
85
238
238
51
119
170
51
119
170
51
119
170
51
119
170
51
119
170
34
204
221
34
204
221
51
119
170
51
119
170
51
119
170
51
119
170
119
170
51
51
119
68
153
153
136
51
51
51
51
119
68
0
0
0
119
68
68
119
170
51
119
170
51
119
170
51
51
119
68
102
51
68
51
51
51
51
68
119
51
68
119
119
68
68
119
170
51
119
170
51
51
119
68
51
119
68
68
85
85
51
51
51
0
0
0
51
119
68
0
0
0
102
51
68
51
68
119
51
51
51
119
170
51
51
68
119
51
68
119
119
170
51
119
170
51
51
68
119
51
119
68
51
68
119
102
51
68
51
119
68
51
119
68
153
153
136
51
119
68
51
119
68
51
51
51
0
0
0
51
51
51
51
51
51
0
0
0
119
170
51
119
170
51
119
170
51
51
119
68
51
119
68
68
85
85
51
51
51
0
0
0
51
119
68
0
0
0
102
51
68
51
68
119
51
51
51
119
170
51
51
68
119
51
68
119
119
170
51
119
68
68
119
68
68
119
68
68
119
68
68
51
119
68
51
119
68
68
85
85
68
85
85
51
51
51
0
0
0
51
119
68
51
119
68
51
51
51
119
68
68
119
68
68
51
119
68
119
170
51
51
119
68
51
119
68
68
85
85
68
85
85
51
51
51
0
0
0
102
51
68
119
68
68
51
119
68
51
119
68
68
85
85
68
85
85
51
51
51
0
0
0
51
119
68
51
119
68
119
68
68
51
119
68
51
51
51
0
0
0
0
0
0
51
119
68
51
119
68
68
85
85
68
85
85
51
51
51
0
0
0
119
68
68
119
170
51
119
68
68
119
68
68
119
170
51
51
119
68
51
119
68
68
85
85
68
85
85
51
51
51
0
0
0
153
153
136
153
153
136
119
119
119
119
119
119
51
119
68
51
51
51
119
170
51
119
170
51
119
170
51
119
170
51
51
119
68
51
119
68
51
51
51
0
0
0
68
85
85
51
51
51
153
153
136
51
119
68
51
119
68
68
85
85
68
85
85
51
51
51
0
0
0
119
170
51
119
170
51
119
170
51
119
170
51
51
119
68
51
119
68
68
85
85
0
0
0
0
0
0
153
153
136
51
51
51
0
0
0
0
0
0
51
119
68
51
51
51
51
34
51
119
170
51
119
170
51
51
119
68
51
119
68
51
51
51
51
51
51
0
0
0
0
0
0
0
0
0
0
0
0
119
119
119
119
119
119
51
34
51
85
85
85
119
170
51
187
221
68
51
119
68
119
170
51
119
170
51
119
170
51
119
170
51
119
119
119
51
34
51
119
119
119
204
204
187
153
153
136
51
119
68
51
51
51
0
0
0
0
0
0
51
34
51
85
85
85
119
170
51
119
170
51
119
170
51
187
221
68
51
119
68
119
170
51
119
119
119
204
204
187
153
153
136
119
119
119
119
119
119
51
34
51
51
34
51
119
170
51
119
170
51
187
221
68
51
119
68
119
170
51
119
170
51
51
119
68
51
119
68
51
51
51
51
119
68
51
51
51
51
51
51
0
0
0
119
170
51
51
51
51
119
68
68
51
51
51
0
0
0
85
85
85
187
221
68
187
221
68
119
170
51
51
119
68
51
119
68
119
170
51
51
119
68
51
51
51
51
119
68
187
221
68
119
170
51
51
119
68
0
0
0
119
170
51
0
0
0
51
51
51
51
51
51
119
119
119
119
170
51
187
221
68
85
85
85
51
51
51
51
119
68
119
170
51
51
119
68
51
119
68
119
170
51
51
119
68
51
51
51
0
0
0
51
51
51
0
0
0
51
51
51
0
0
0
51
119
170
51
119
170
51
119
170
51
119
170
51
119
170
51
119
170
51
119
170
51
119
170
51
119
170
51
119
170
34
204
221
34
204
221
51
119
170
51
119
170
51
119
170
51
119
170
51
119
170
51
119
170
51
119
170
51
119
170
51
119
170
51
119
170
51
119
170
51
119
170
51
119
170
51
119
170
51
119
170
51
119
170
51
119
170
51
119
170
238
204
153
238
204
153
238
204
153
238
204
153
238
204
153
238
204
153
34
204
221
51
119
170
51
119
170
51
119
170
51
68
119
51
68
119
51
119
170
51
119
170
51
68
119
51
68
119
51
119
170
51
119
170
119
170
51
238
204
153
238
204
153
34
204
221
34
204
221
51
119
170
51
119
170
51
119
170
51
119
170
51
119
170
51
119
170
51
119
170
51
119
170
51
119
170
51
119
170
51
119
170
119
170
51
153
153
136
51
51
51
51
119
68
51
51
51
0
0
0
119
68
68
119
170
51
119
170
51
51
119
68
119
170
51
119
68
68
51
51
51
51
68
119
51
68
119
119
68
68
119
170
51
51
68
119
51
119
68
51
119
68
51
51
51
0
0
0
51
51
51
51
119
68
119
170
51
119
68
68
51
68
119
51
68
119
51
68
119
51
68
119
51
68
119
51
119
170
119
170
51
119
170
51
119
170
51
51
68
119
119
68
68
51
68
119
51
119
68
51
51
51
51
119
68
68
85
85
0
0
0
51
51
51
102
51
68
51
68
119
51
51
51
51
119
170
119
170
51
51
68
119
51
119
68
51
119
68
51
51
51
0
0
0
51
51
51
51
119
68
119
170
51
119
68
68
51
68
119
51
68
119
51
68
119
51
68
119
51
68
119
51
119
170
51
119
68
119
68
68
187
187
221
51
119
68
51
51
51
51
119
68
51
119
68
51
119
68
68
85
85
51
51
51
0
0
0
51
119
68
51
119
68
51
51
51
119
68
68
119
68
68
119
170
51
51
51
51
51
119
68
51
119
68
51
119
68
68
85
85
51
119
68
51
51
51
51
119
68
51
51
51
51
119
68
51
119
68
51
119
68
68
85
85
51
51
51
0
0
0
119
170
51
119
68
68
51
119
68
51
119
68
68
85
85
51
119
68
51
51
51
51
119
68
51
119
68
51
119
68
68
85
85
51
119
68
51
51
51
119
68
68
119
68
68
119
68
68
51
119
68
51
51
51
51
119
68
51
119
68
51
119
68
68
85
85
51
51
51
0
0
0
119
119
119
119
119
119
153
153
136
51
119
68
51
119
68
51
51
51
119
170
51
119
170
51
119
170
51
51
51
51
68
85
85
68
85
85
68
85
85
51
51
51
0
0
0
51
119
68
51
51
51
51
119
68
51
119
68
51
119
68
68
85
85
51
51
51
0
0
0
119
170
51
51
119
68
51
119
68
51
51
51
51
51
51
0
0
0
0
0
0
0
0
0
0
0
0
119
119
119
102
51
68
51
34
51
51
119
68
51
119
68
51
51
51
51
34
51
119
170
51
119
170
51
51
119
68
51
119
68
68
85
85
68
85
85
51
51
51
0
0
0
85
85
85
119
119
119
119
119
119
85
85
85
51
119
68
51
51
51
119
170
51
119
170
51
119
170
51
187
221
68
119
170
51
187
221
68
51
34
51
51
119
68
51
51
51
153
153
136
119
119
119
51
119
68
51
119
68
68
85
85
51
51
51
0
0
0
85
85
85
119
170
51
119
170
51
119
170
51
119
170
51
119
170
51
119
170
51
119
119
119
153
153
136
153
153
136
119
119
119
119
119
119
51
34
51
51
119
68
51
51
51
119
170
51
119
170
51
119
170
51
119
170
51
51
119
68
119
170
51
51
51
51
51
119
68
187
221
68
119
170
51
51
119
68
0
0
0
51
119
68
0
0
0
153
85
85
51
119
68
0
0
0
119
170
51
51
119
68
187
221
68
51
119
68
51
119
68
51
51
51
51
119
68
51
51
51
51
119
68
119
170
51
51
119
68
51
119
68
51
51
51
51
119
68
51
119
68
51
51
51
153
85
85
0
0
0
85
85
85
51
119
68
119
170
51
153
85
85
51
119
68
153
85
85
51
119
68
51
119
68
51
51
51
51
119
68
51
51
51
51
51
51
0
0
0
51
119
68
0
0
0
119
170
51
51
119
68
51
119
170
51
119
170
51
119
170
51
119
170
51
119
170
51
119
170
51
119
170
51
119
170
51
119
170
51
119
170
51
119
170
51
119
170
51
119
170
51
119
170
51
119
170
51
119
170
51
119
170
51
119
170
51
119
170
51
119
170
51
119
170
51
119
170
51
119
170
51
68
119
51
68
119
51
68
119
51
119
170
51
119
170
51
119
170
85
238
238
238
204
153
238
204
153
238
204
153
238
204
153
238
204
153
238
204
153
34
204
221
51
119
170
51
119
170
51
68
119
51
68
119
51
119
170
51
119
170
51
119
170
51
119
170
51
119
170
51
119
170
51
119
170
119
170
51
238
204
153
238
204
153
34
204
221
51
119
170
51
119
170
51
119
170
51
119
170
51
68
119
51
68
119
51
68
119
51
68
119
51
68
119
51
68
119
51
119
170
51
119
170
119
170
51
51
119
68
51
51
51
51
51
51
0
0
0
51
68
119
51
68
119
51
119
68
51
119
68
51
119
68
51
119
68
119
68
68
51
68
119
51
68
119
51
68
119
51
119
170
119
170
51
51
68
119
51
119
68
51
68
119
102
51
68
51
68
119
51
51
51
119
170
51
51
68
119
119
170
51
51
68
119
51
119
68
51
119
68
51
119
68
51
119
170
51
119
170
51
68
119
119
170
51
51
68
119
51
68
119
119
68
68
51
119
68
51
119
68
0
0
0
51
51
51
51
51
51
51
51
51
68
85
85
102
51
68
51
51
51
51
68
119
119
170
51
119
170
51
51
68
119
51
119
68
51
68
119
102
51
68
51
68
119
51
51
51
119
170
51
51
68
119
119
170
51
51
68
119
51
119
68
51
119
68
51
119
68
51
119
170
51
119
170
119
170
51
119
68
68
119
68
68
51
119
68
51
119
68
51
51
51
0
0
0
0
0
0
0
0
0
0
0
0
51
119
68
51
51
51
0
0
0
0
0
0
119
68
68
119
68
68
51
119
68
51
119
68
51
51
51
0
0
0
0
0
0
0
0
0
51
119
68
51
119
68
51
51
51
51
119
68
51
51
51
0
0
0
0
0
0
0
0
0
0
0
0
0
0
0
51
119
68
51
119
68
51
51
51
0
0
0
0
0
0
51
119
68
51
119
68
51
51
51
0
0
0
0
0
0
0
0
0
51
119
68
51
119
68
51
51
51
119
68
68
51
119
68
51
119
68
51
119
68
51
51
51
0
0
0
0
0
0
0
0
0
0
0
0
0
0
0
119
119
119
85
85
85
51
119
68
51
51
51
0
0
0
0
0
0
85
85
85
119
170
51
119
170
51
119
170
51
51
51
51
0
0
0
0
0
0
0
0
0
119
119
119
51
119
68
51
119
68
51
51
51
0
0
0
0
0
0
0
0
0
0
0
0
0
0
0
119
170
51
119
170
51
51
119
68
51
119
68
68
85
85
68
85
85
51
51
51
0
0
0
119
119
119
119
119
119
119
119
119
51
119
68
51
51
51
0
0
0
0
0
0
119
119
119
51
34
51
51
119
68
51
51
51
51
119
68
51
119
68
51
119
68
68
85
85
51
51
51
0
0
0
85
85
85
153
153
136
85
85
85
51
119
68
51
119
68
51
51
51
119
170
51
119
170
51
119
170
51
187
221
68
119
119
119
119
119
119
51
119
68
51
119
68
51
51
51
51
119
68
51
51
51
0
0
0
0
0
0
51
119
68
51
51
51
0
0
0
119
170
51
119
170
51
119
170
51
119
170
51
119
170
51
51
119
68
51
51
51
153
153
136
153
153
136
119
119
119
119
119
119
51
34
51
51
119
68
51
119
68
51
51
51
119
170
51
119
170
51
119
170
51
51
119
68
187
221
68
51
119
68
119
170
51
51
119
68
51
119
68
51
51
51
51
119
68
0
0
0
51
119
68
187
119
85
51
51
51
85
85
85
51
119
68
85
85
85
51
119
68
51
119
68
51
119
68
51
51
51
51
51
51
51
51
51
51
119
68
51
119
68
51
119
68
119
170
51
51
119
68
51
51
51
51
119
68
51
51
51
187
119
85
51
51
51
0
0
0
51
119
68
119
170
51
187
119
85
119
170
51
187
119
85
51
119
68
51
119
68
51
51
51
51
51
51
51
51
51
51
51
51
0
0
0
51
51
51
85
85
85
51
119
68
119
170
51
51
68
119
51
68
119
51
119
170
51
119
170
51
119
170
51
119
170
51
119
170
51
68
119
51
68
119
51
68
119
51
68
119
51
68
119
51
68
119
51
68
119
51
119
170
51
119
170
51
119
170
51
119
170
51
119
170
51
119
170
51
119
170
51
119
170
51
119
170
51
68
119
51
68
119
51
68
119
51
119
170
51
119
170
51
119
170
85
238
238
238
204
153
238
204
153
238
204
153
238
204
153
238
204
153
34
204
221
51
119
170
51
119
170
51
119
170
51
119
170
51
68
119
51
68
119
51
119
170
51
119
170
51
68
119
51
68
119
51
119
170
51
119
170
238
204
153
238
204
153
238
204
153
34
204
221
51
119
170
51
119
170
51
119
170
51
68
119
51
68
119
51
68
119
51
68
119
51
68
119
51
68
119
51
68
119
51
68
119
51
68
119
119
170
51
51
51
51
51
119
68
51
51
51
51
68
119
51
51
51
51
119
68
51
119
68
153
153
136
51
119
68
0
0
0
51
51
51
51
68
119
51
68
119
51
119
170
187
119
85
119
170
51
119
170
51
51
119
68
51
68
119
119
68
68
51
68
119
119
170
51
119
170
51
51
68
119
51
68
119
51
119
68
153
153
136
51
119
68
51
119
68
51
51
51
119
170
51
51
68
119
51
68
119
51
68
119
51
68
119
51
119
68
153
153
136
51
119
68
0
0
0
102
51
68
51
119
68
51
51
51
51
51
51
68
85
85
0
0
0
51
68
119
119
170
51
119
170
51
119
170
51
51
119
68
51
68
119
119
68
68
51
68
119
119
170
51
119
170
51
51
68
119
51
68
119
51
119
68
153
153
136
51
119
68
51
119
68
51
51
51
119
170
51
119
170
51
119
68
68
51
119
68
51
51
51
0
0
0
0
0
0
68
85
85
51
51
51
0
0
0
0
0
0
51
119
68
51
119
68
68
85
85
0
0
0
51
51
51
119
68
68
119
68
68
51
119
68
51
119
68
68
85
85
51
51
51
51
119
68
51
51
51
0
0
0
0
0
0
51
119
68
51
119
68
68
85
85
51
119
68
51
119
68
51
51
51
119
68
68
119
68
68
51
119
68
51
119
68
68
85
85
68
85
85
51
51
51
51
119
68
51
119
68
68
85
85
51
51
51
51
119
68
51
51
51
0
0
0
0
0
0
102
51
68
119
170
51
119
170
51
51
119
68
51
119
68
68
85
85
51
51
51
0
0
0
0
0
0
119
119
119
153
153
136
119
119
119
51
119
68
51
119
68
68
85
85
51
51
51
0
0
0
119
170
51
119
170
51
51
119
68
119
119
119
102
51
68
51
34
51
119
119
119
85
85
85
119
119
119
51
119
68
51
119
68
68
85
85
51
51
51
0
0
0
0
0
0
119
119
119
51
34
51
51
119
68
51
51
51
51
119
68
51
119
68
51
119
68
68
85
85
51
51
51
0
0
0
153
153
136
119
119
119
51
119
68
51
119
68
68
85
85
0
0
0
0
0
0
51
34
51
51
119
68
51
119
68
51
51
51
0
0
0
0
0
0
51
119
68
51
119
68
51
51
51
51
34
51
85
85
85
51
119
68
51
51
51
0
0
0
0
0
0
119
170
51
119
170
51
119
170
51
119
170
51
119
119
119
51
119
68
51
51
51
0
0
0
0
0
0
51
119
68
51
119
68
68
85
85
68
85
85
51
119
68
51
119
68
51
51
51
85
85
85
119
170
51
119
170
51
119
170
51
85
85
85
51
119
68
51
119
68
51
51
51
119
119
119
119
119
119
85
85
85
51
119
68
51
51
51
0
0
0
0
0
0
119
170
51
119
170
51
119
170
51
187
221
68
119
170
51
51
119
68
51
119
68
51
119
68
119
170
51
51
119
68
51
51
51
0
0
0
51
119
68
51
119
68
51
119
68
51
119
68
119
170
51
51
119
68
85
85
85
119
170
51
51
51
51
51
119
68
51
119
68
0
0
0
51
51
51
119
170
51
51
119
68
51
51
51
51
51
51
51
119
68
187
221
68
119
170
51
51
119
68
0
0
0
51
51
51
119
170
51
119
170
51
51
119
68
51
51
51
85
85
85
51
119
68
51
51
51
51
51
51
51
51
51
0
0
0
51
51
51
51
119
68
51
119
68
51
119
68
119
170
51
119
170
51
51
68
119
51
68
119
51
68
119
51
68
119
51
119
170
51
119
170
51
119
170
51
119
170
51
119
170
51
68
119
51
68
119
51
68
119
51
68
119
51
68
119
51
68
119
51
68
119
51
68
119
51
68
119
51
68
119
51
119
170
51
119
170
51
119
170
51
119
170
51
119
170
51
119
170
51
119
170
51
119
170
51
119
170
51
119
170
85
238
238
238
204
153
238
204
153
238
204
153
238
204
153
238
153
102
238
204
153
34
204
221
51
119
170
51
119
170
51
119
170
51
119
170
51
68
119
51
68
119
51
68
119
51
68
119
51
68
119
51
68
119
51
119
170
238
204
153
238
204
153
238
204
153
34
204
221
85
238
238
51
119
170
51
119
170
51
68
119
51
68
119
51
119
170
51
119
170
51
119
170
51
68
119
51
68
119
51
68
119
51
68
119
119
170
51
119
170
51
51
119
68
102
51
68
51
51
51
51
68
119
51
119
68
153
153
136
51
119
68
0
0
0
51
119
68
51
51
51
51
68
119
51
119
170
187
119
85
187
221
68
51
68
119
51
68
119
51
68
119
51
119
68
119
68
68
51
119
68
51
119
68
51
119
68
51
119
68
51
68
119
51
119
68
51
119
68
51
51
51
68
85
85
0
0
0
119
170
51
119
170
51
51
68
119
51
68
119
51
68
119
51
119
68
51
119
68
51
51
51
68
85
85
102
51
68
51
119
68
51
119
68
68
85
85
51
51
51
0
0
0
119
170
51
119
170
51
51
68
119
51
68
119
51
68
119
51
119
68
119
68
68
51
119
68
51
119
68
51
119
68
51
119
68
51
68
119
51
119
68
51
119
68
51
51
51
68
85
85
0
0
0
119
170
51
119
170
51
119
68
68
51
119
68
51
119
68
68
85
85
51
51
51
0
0
0
51
34
51
51
119
68
51
119
68
51
51
51
51
51
51
0
0
0
0
0
0
0
0
0
51
51
51
119
68
68
119
170
51
119
68
68
102
51
68
51
34
51
51
119
68
51
119
68
68
85
85
51
51
51
0
0
0
119
68
68
51
119
68
51
119
68
68
85
85
0
0
0
51
119
68
51
119
68
51
51
51
51
119
68
51
119
68
51
119
68
68
85
85
0
0
0
51
51
51
102
51
68
51
34
51
51
119
68
51
119
68
68
85
85
0
0
0
51
51
51
51
119
68
119
119
119
85
85
85
119
119
119
102
51
68
51
34
51
85
85
85
119
119
119
119
119
119
51
119
68
51
119
68
51
51
51
51
51
51
0
0
0
0
0
0
0
0
0
0
0
0
51
119
68
119
119
119
85
85
85
119
119
119
119
119
119
85
85
85
153
153
136
51
119
68
51
119
68
119
119
119
102
51
68
51
34
51
119
119
119
51
34
51
119
119
119
51
34
51
51
119
68
51
119
68
51
51
51
0
0
0
0
0
0
0
0
0
0
0
0
0
0
0
51
119
68
51
119
68
51
51
51
51
51
51
0
0
0
0
0
0
0
0
0
0
0
0
119
170
51
51
119
68
51
119
68
68
85
85
51
119
68
51
119
68
68
85
85
0
0
0
85
85
85
51
34
51
51
119
68
51
119
68
68
85
85
51
51
51
0
0
0
119
170
51
119
170
51
119
119
119
85
85
85
51
119
68
51
119
68
68
85
85
51
51
51
0
0
0
51
119
68
51
119
68
51
119
68
51
51
51
0
0
0
0
0
0
85
85
85
119
170
51
119
170
51
119
170
51
51
119
68
51
51
51
0
0
0
0
0
0
119
119
119
85
85
85
51
34
51
51
119
68
51
119
68
68
85
85
51
51
51
0
0
0
119
170
51
119
170
51
51
119
68
187
221
68
119
170
51
119
170
51
51
119
68
51
51
51
51
51
51
51
51
51
0
0
0
187
221
68
119
170
51
187
221
68
51
119
68
51
119
68
0
0
0
51
51
51
119
170
51
119
170
51
187
221
68
51
119
68
51
119
68
0
0
0
119
170
51
51
51
51
119
68
68
51
119
68
119
170
51
51
119
68
51
119
68
51
51
51
51
119
68
0
0
0
119
170
51
51
119
68
187
221
68
119
170
51
51
119
68
0
0
0
187
221
68
153
85
85
51
119
68
0
0
0
119
170
51
187
221
68
51
119
68
51
119
68
0
0
0
51
119
68
51
68
119
51
119
170
51
119
170
51
119
170
51
119
170
51
119
170
51
119
170
51
119
170
51
119
170
51
119
170
51
119
170
51
119
170
51
68
119
51
68
119
51
68
119
51
68
119
51
68
119
51
68
119
51
68
119
51
68
119
51
119
170
51
119
170
51
68
119
51
68
119
51
119
170
51
119
170
51
119
170
51
119
170
51
119
170
51
119
170
238
204
153
238
204
153
238
204
153
238
204
153
238
204
153
34
204
221
85
238
238
51
119
170
51
119
170
51
119
170
51
119
170
51
119
170
51
119
170
51
119
170
51
119
170
51
119
170
51
119
170
51
119
170
238
204
153
238
204
153
238
153
102
238
204
153
85
238
238
51
119
170
51
119
170
51
68
119
51
119
170
51
119
170
51
119
170
51
119
170
51
119
170
51
119
170
51
119
170
51
119
170
119
170
51
119
170
51
51
51
51
119
68
68
51
68
119
51
68
119
51
119
68
68
85
85
51
51
51
0
0
0
119
119
119
68
85
85
51
68
119
51
119
170
187
119
85
51
119
68
51
68
119
51
68
119
51
68
119
51
119
170
51
119
68
51
119
68
153
153
136
51
119
68
51
119
68
51
119
68
51
119
68
51
119
68
68
85
85
51
51
51
0
0
0
51
68
119
119
170
51
51
119
68
51
68
119
51
119
68
51
119
68
51
119
68
68
85
85
51
51
51
0
0
0
51
119
68
51
119
68
51
51
51
0
0
0
51
51
51
51
68
119
119
170
51
51
68
119
51
68
119
51
68
119
51
119
170
51
119
68
51
119
68
153
153
136
51
119
68
51
119
68
51
119
68
51
119
68
51
119
68
68
85
85
51
51
51
0
0
0
51
68
119
51
119
68
51
119
68
51
51
51
51
51
51
0
0
0
0
0
0
0
0
0
51
119
68
51
119
68
68
85
85
0
0
0
68
85
85
68
85
85
51
51
51
0
0
0
51
119
68
51
119
68
119
170
51
119
68
68
51
119
68
51
119
68
51
51
51
51
51
51
0
0
0
0
0
0
0
0
0
0
0
0
51
51
51
68
85
85
51
51
51
0
0
0
119
68
68
51
119
68
51
119
68
51
51
51
0
0
0
0
0
0
0
0
0
51
51
51
0
0
0
51
119
68
51
119
68
51
51
51
51
51
51
0
0
0
0
0
0
0
0
0
51
51
51
68
85
85
119
119
119
119
119
119
119
119
119
85
85
85
153
153
136
153
153
136
119
119
119
119
119
119
51
119
68
51
119
68
68
85
85
68
85
85
51
51
51
0
0
0
85
85
85
68
85
85
85
85
85
153
153
136
153
153
136
119
119
119
85
85
85
51
119
68
51
119
68
68
85
85
51
51
51
85
85
85
119
119
119
119
119
119
119
119
119
51
34
51
51
34
51
68
85
85
51
119
68
51
119
68
68
85
85
51
51
51
0
0
0
0
0
0
119
119
119
153
153
136
51
119
68
51
119
68
68
85
85
68
85
85
51
51
51
0
0
0
51
119
68
119
170
51
119
119
119
119
119
119
102
51
68
51
51
51
68
85
85
51
51
51
0
0
0
51
119
68
51
119
68
51
51
51
51
51
51
0
0
0
0
0
0
0
0
0
51
51
51
119
170
51
51
119
68
51
119
68
51
51
51
51
51
51
0
0
0
0
0
0
0
0
0
0
0
0
0
0
0
51
119
68
51
119
68
68
85
85
51
51
51
0
0
0
119
170
51
119
170
51
119
119
119
51
119
68
51
119
68
68
85
85
51
51
51
0
0
0
51
119
68
51
119
68
51
51
51
51
51
51
0
0
0
0
0
0
0
0
0
51
51
51
119
170
51
51
119
68
119
170
51
51
119
68
119
170
51
51
51
51
119
68
68
51
51
51
0
0
0
51
119
68
51
119
68
187
221
68
51
119
68
51
119
68
51
119
68
51
51
51
0
0
0
51
119
68
187
221
68
51
119
68
51
119
68
51
119
68
51
51
51
0
0
0
0
0
0
153
85
85
51
119
68
51
119
68
51
119
68
119
170
51
51
119
68
51
51
51
0
0
0
51
119
68
119
170
51
51
119
68
51
119
68
51
51
51
51
119
68
0
0
0
187
119
85
51
51
51
51
119
68
187
221
68
51
119
68
51
119
68
51
119
68
51
51
51
0
0
0
51
119
170
51
119
170
51
119
170
51
119
170
51
119
170
51
119
170
51
119
170
51
119
170
51
119
170
51
119
170
51
119
170
51
119
170
51
119
170
51
119
170
51
119
170
51
119
170
51
68
119
51
119
170
51
119
170
51
119
170
51
119
170
51
119
170
51
119
170
51
119
170
51
119
170
51
119
170
51
119
170
51
119
170
51
119
170
51
119
170
238
204
153
238
204
153
238
204
153
238
204
153
238
204
153
34
204
221
85
238
238
85
238
238
51
119
170
51
119
170
51
119
170
51
119
170
51
119
170
51
119
170
51
119
170
51
119
170
51
119
170
51
119
170
238
204
153
238
204
153
238
204
153
238
204
153
238
204
153
85
238
238
51
119
170
51
68
119
51
119
170
51
119
170
51
119
170
51
119
170
51
119
170
51
119
170
51
119
170
51
119
170
119
170
51
119
170
51
119
170
51
119
68
68
51
68
119
119
68
68
51
119
68
51
119
68
51
51
51
51
51
51
51
119
68
51
119
68
51
119
68
51
119
170
51
119
68
119
170
51
119
170
51
51
68
119
51
119
170
119
170
51
51
119
68
153
153
136
51
119
68
51
119
68
51
51
51
51
68
119
51
119
68
51
119
68
51
51
51
0
0
0
51
51
51
51
68
119
119
170
51
51
68
119
51
119
68
51
68
119
51
119
68
51
119
68
51
51
51
0
0
0
51
51
51
51
119
68
51
68
119
102
51
68
51
68
119
51
51
51
119
170
51
119
170
51
119
170
51
51
68
119
51
119
170
119
170
51
51
119
68
153
153
136
51
119
68
51
119
68
51
51
51
51
68
119
51
119
68
51
119
68
51
51
51
0
0
0
51
51
51
51
68
119
119
68
68
51
119
68
51
119
68
68
85
85
68
85
85
51
51
51
0
0
0
51
51
51
68
85
85
51
51
51
0
0
0
51
119
68
51
119
68
68
85
85
51
51
51
0
0
0
51
119
68
119
68
68
119
68
68
119
68
68
51
119
68
51
119
68
68
85
85
68
85
85
51
51
51
0
0
0
51
119
68
51
119
68
51
51
51
0
0
0
68
85
85
51
51
51
119
170
51
51
119
68
51
119
68
68
85
85
51
51
51
0
0
0
0
0
0
119
68
68
119
68
68
51
119
68
51
119
68
68
85
85
68
85
85
51
51
51
0
0
0
51
119
68
51
119
68
85
85
85
119
119
119
119
119
119
85
85
85
153
153
136
153
153
136
153
153
136
51
119
68
51
51
51
51
119
68
51
119
68
51
119
68
68
85
85
51
51
51
0
0
0
51
119
68
68
85
85
119
119
119
119
119
119
85
85
85
153
153
136
51
51
51
68
85
85
51
51
51
0
0
0
119
119
119
51
34
51
119
119
119
119
119
119
51
34
51
51
119
68
51
119
68
51
119
68
85
85
85
102
51
68
51
34
51
119
119
119
119
119
119
153
153
136
51
119
68
51
51
51
51
119
68
51
119
68
51
119
68
68
85
85
51
51
51
0
0
0
119
170
51
119
119
119
119
119
119
51
119
68
51
119
68
51
51
51
0
0
0
68
85
85
51
51
51
51
119
68
51
119
68
68
85
85
68
85
85
51
51
51
0
0
0
119
170
51
119
170
51
119
119
119
51
119
68
51
119
68
68
85
85
68
85
85
51
51
51
0
0
0
51
119
68
51
119
68
51
51
51
51
51
51
0
0
0
0
0
0
0
0
0
51
51
51
51
119
68
51
119
68
51
51
51
51
51
51
0
0
0
0
0
0
0
0
0
0
0
0
51
119
68
51
119
68
68
85
85
68
85
85
51
51
51
0
0
0
119
170
51
119
170
51
119
170
51
51
119
68
85
85
85
51
119
68
0
0
0
153
85
85
51
119
68
0
0
0
187
119
85
51
119
68
51
119
68
51
119
68
51
51
51
51
119
68
51
51
51
0
0
0
51
119
68
51
119
68
51
119
68
51
51
51
51
119
68
51
51
51
0
0
0
153
85
85
187
119
85
51
51
51
119
170
51
51
119
68
51
51
51
51
51
51
51
51
51
0
0
0
51
119
68
51
119
68
51
119
68
119
170
51
51
119
68
51
51
51
0
0
0
119
170
51
85
85
85
51
119
68
51
119
68
51
119
68
51
51
51
51
119
68
51
51
51
0
0
0
34
204
221
34
204
221
85
238
238
51
119
170
51
119
170
51
119
170
51
119
170
51
119
170
51
119
170
51
119
170
51
119
170
51
119
170
51
119
170
51
119
170
51
119
170
51
119
170
51
119
170
51
119
170
51
119
170
51
119
170
51
119
170
51
119
170
51
119
170
51
119
170
51
119
170
51
119
170
51
119
170
51
119
170
51
119
170
238
204
153
238
204
153
238
204
153
238
204
153
238
204
153
238
204
153
34
204
221
34
204
221
85
238
238
85
238
238
51
119
170
51
119
170
51
119
170
51
119
170
51
119
170
51
119
170
51
119
170
51
119
170
34
204
221
238
153
102
238
204
153
238
204
153
238
204
153
238
204
153
34
204
221
51
119
170
51
68
119
51
68
119
51
119
170
51
119
170
51
119
170
51
119
170
51
119
170
51
119
170
85
238
238
119
170
51
119
170
51
119
170
51
119
170
51
119
68
68
119
170
51
119
170
51
51
119
68
102
51
68
51
51
51
119
170
51
51
119
68
51
51
51
51
119
170
187
119
85
51
119
68
119
170
51
51
119
170
119
170
51
119
170
51
51
119
68
51
51
51
51
119
68
68
85
85
0
0
0
51
68
119
51
119
68
51
68
119
102
51
68
51
68
119
51
51
51
119
170
51
119
170
51
119
170
51
51
68
119
51
68
119
51
119
68
51
68
119
102
51
68
51
119
68
51
51
51
51
119
68
51
68
119
119
68
68
51
68
119
51
68
119
119
170
51
51
119
170
119
170
51
51
119
170
119
170
51
119
170
51
51
119
68
51
51
51
51
119
68
68
85
85
0
0
0
51
68
119
51
119
68
51
68
119
102
51
68
51
68
119
51
51
51
119
170
51
51
119
68
51
51
51
51
119
68
51
119
68
51
119
68
68
85
85
51
119
68
51
119
68
51
51
51
0
0
0
68
85
85
0
0
0
0
0
0
0
0
0
0
0
0
0
0
0
119
170
51
119
170
51
119
68
68
51
119
68
51
51
51
51
119
68
51
119
68
51
119
68
68
85
85
51
51
51
0
0
0
68
85
85
68
85
85
68
85
85
51
51
51
0
0
0
119
170
51
119
68
68
102
51
68
102
51
68
51
34
51
119
68
68
119
68
68
51
119
68
51
119
68
51
51
51
51
119
68
51
119
68
51
119
68
68
85
85
51
51
51
0
0
0
119
170
51
51
119
68
85
85
85
85
85
85
119
119
119
119
119
119
153
153
136
153
153
136
51
119
68
51
119
68
51
51
51
0
0
0
0
0
0
0
0
0
0
0
0
0
0
0
119
170
51
51
119
68
85
85
85
85
85
85
85
85
85
51
119
68
51
119
68
51
51
51
0
0
0
68
85
85
51
51
51
51
34
51
119
119
119
85
85
85
51
34
51
51
119
68
119
170
51
119
170
51
51
119
68
68
85
85
85
85
85
119
119
119
153
153
136
153
153
136
51
119
68
51
119
68
51
51
51
0
0
0
0
0
0
0
0
0
0
0
0
0
0
0
85
85
85
119
119
119
119
119
119
51
51
51
68
85
85
68
85
85
68
85
85
51
51
51
0
0
0
51
51
51
51
119
68
51
119
68
51
119
68
68
85
85
51
51
51
0
0
0
119
170
51
51
119
68
51
51
51
51
119
68
51
119
68
51
119
68
68
85
85
51
51
51
0
0
0
51
119
68
51
119
68
68
85
85
68
85
85
51
51
51
0
0
0
51
34
51
119
170
51
51
119
68
51
119
68
68
85
85
68
85
85
51
51
51
0
0
0
51
119
68
51
51
51
51
119
68
51
119
68
51
119
68
68
85
85
51
51
51
0
0
0
119
170
51
119
170
51
119
170
51
51
119
68
85
85
85
51
51
51
187
119
85
51
51
51
85
85
85
51
119
68
51
119
68
119
170
51
51
51
51
51
119
68
51
51
51
85
85
85
0
0
0
119
170
51
119
170
51
51
51
51
51
119
68
51
51
51
85
85
85
0
0
0
187
119
85
51
51
51
119
170
51
119
170
51
51
51
51
119
68
68
51
51
51
0
0
0
119
170
51
119
170
51
119
170
51
51
119
68
51
51
51
51
51
51
51
51
51
0
0
0
51
119
68
85
85
85
85
85
85
119
170
51
51
51
51
51
119
68
51
51
51
85
85
85
0
0
0
238
204
153
238
204
153
34
204
221
85
238
238
51
119
170
51
119
170
51
119
170
51
119
170
51
119
170
51
119
170
51
119
170
51
119
170
51
119
170
51
119
170
51
119
170
119
170
51
51
119
170
51
119
170
51
119
170
51
119
170
51
119
170
51
119
170
51
119
170
51
119
170
34
204
221
34
204
221
51
119
170
34
204
221
85
238
238
238
204
153
238
204
153
238
204
153
238
204
153
238
204
153
238
153
102
238
204
153
34
204
221
34
204
221
85
238
238
85
238
238
34
204
221
51
119
170
51
119
170
51
119
170
51
119
170
238
204
153
238
204
153
238
204
153
238
153
102
238
204
153
238
204
153
238
204
153
34
204
221
51
119
170
51
119
170
51
68
119
51
68
119
51
119
170
51
119
170
51
119
170
51
119
170
51
119
170
85
238
238
238
204
153
119
170
51
119
170
51
119
170
51
119
170
51
119
170
51
51
119
68
119
170
51
51
119
68
119
68
68
119
170
51
51
119
68
102
51
68
187
119
85
187
119
85
187
221
68
119
170
51
119
170
51
51
119
170
119
170
51
119
170
51
51
119
68
51
51
51
0
0
0
51
51
51
0
0
0
51
68
119
51
68
119
51
68
119
119
68
68
51
119
170
119
170
51
119
170
51
119
170
51
51
68
119
51
68
119
51
68
119
51
119
170
51
119
170
119
68
68
51
68
119
51
119
68
51
68
119
51
68
119
119
68
68
51
68
119
51
68
119
51
119
170
119
170
51
119
170
51
51
119
170
119
170
51
119
170
51
51
119
68
51
51
51
0
0
0
51
51
51
0
0
0
51
68
119
51
68
119
51
68
119
119
68
68
51
119
170
119
170
51
119
170
51
119
170
51
51
119
68
51
51
51
0
0
0
0
0
0
0
0
0
0
0
0
68
85
85
68
85
85
68
85
85
51
51
51
51
51
51
51
51
51
0
0
0
0
0
0
51
119
68
119
170
51
119
68
68
51
119
68
51
119
68
51
119
68
51
51
51
0
0
0
0
0
0
0
0
0
0
0
0
51
51
51
51
51
51
0
0
0
0
0
0
0
0
0
119
68
68
119
68
68
119
68
68
102
51
68
119
68
68
119
68
68
187
187
221
119
68
68
119
68
68
51
119
68
51
119
68
51
51
51
0
0
0
0
0
0
0
0
0
0
0
0
0
0
0
119
170
51
119
170
51
51
119
68
68
85
85
85
85
85
85
85
85
119
119
119
119
119
119
119
119
119
51
119
68
51
119
68
68
85
85
51
51
51
0
0
0
0
0
0
51
119
68
119
170
51
119
170
51
187
221
68
51
119
68
187
221
68
51
119
68
68
85
85
68
85
85
68
85
85
51
51
51
0
0
0
51
34
51
51
34
51
51
34
51
51
119
68
119
170
51
119
170
51
119
170
51
119
170
51
51
119
68
68
85
85
85
85
85
85
85
85
119
119
119
153
153
136
51
119
68
51
119
68
68
85
85
51
51
51
0
0
0
0
0
0
51
119
68
85
85
85
119
119
119
119
119
119
119
119
119
51
51
51
0
0
0
0
0
0
0
0
0
51
119
68
51
119
68
51
51
51
51
51
51
0
0
0
0
0
0
0
0
0
0
0
0
119
170
51
51
119
68
51
119
68
51
51
51
0
0
0
0
0
0
0
0
0
0
0
0
68
85
85
51
51
51
51
119
68
51
119
68
51
119
68
68
85
85
51
51
51
0
0
0
51
119
68
51
51
51
51
119
68
51
119
68
51
119
68
68
85
85
51
51
51
0
0
0
68
85
85
51
51
51
0
0
0
0
0
0
0
0
0
0
0
0
0
0
0
119
170
51
187
221
68
51
119
68
119
170
51
153
85
85
85
85
85
85
85
85
51
51
51
119
170
51
119
170
51
187
221
68
119
170
51
0
0
0
51
51
51
51
51
51
119
119
119
119
170
51
119
170
51
119
170
51
0
0
0
51
51
51
51
51
51
119
119
119
51
51
51
119
170
51
51
51
51
119
170
51
51
119
68
0
0
0
153
85
85
51
119
68
0
0
0
51
119
68
119
170
51
119
170
51
51
51
51
119
68
68
51
51
51
0
0
0
51
119
68
85
85
85
51
51
51
51
51
51
119
170
51
0
0
0
51
51
51
51
51
51
119
119
119
119
170
51
238
204
153
238
204
153
238
204
153
34
204
221
51
119
170
51
119
170
51
119
170
51
119
170
51
68
119
51
119
170
51
119
170
51
119
170
51
119
170
51
119
170
34
204
221
238
204
153
34
204
221
34
204
221
85
238
238
85
238
238
51
119
170
51
119
170
51
119
170
51
119
170
238
204
153
238
204
153
85
238
238
85
238
238
238
204
153
238
153
102
238
204
153
238
204
153
238
204
153
238
204
153
238
204
153
238
153
102
238
204
153
34
204
221
34
204
221
238
204
153
238
204
153
34
204
221
34
204
221
51
119
170
238
204
153
238
204
153
238
204
153
238
204
153
238
204
153
238
204
153
238
204
153
238
204
153
34
204
221
51
119
170
51
119
170
51
119
170
51
68
119
51
119
170
51
119
170
51
119
170
51
119
170
51
119
170
34
204
221
238
204
153
119
170
51
119
170
51
119
170
51
119
170
51
51
119
68
119
170
51
51
119
68
119
170
51
119
68
68
51
119
68
119
170
51
119
68
68
51
119
68
187
221
68
119
170
51
119
170
51
51
119
68
119
170
51
51
119
68
51
68
119
51
119
68
0
0
0
102
51
68
119
170
51
51
51
51
51
68
119
51
68
119
51
119
170
119
68
68
51
119
170
119
170
51
119
170
51
51
119
68
51
68
119
51
119
68
51
119
170
119
170
51
119
170
51
119
68
68
51
68
119
51
68
119
51
119
170
51
119
170
51
119
68
51
68
119
51
119
68
51
119
170
119
170
51
51
119
68
119
170
51
51
119
68
51
68
119
51
119
68
0
0
0
102
51
68
119
170
51
51
51
51
51
68
119
51
68
119
51
119
170
119
68
68
51
119
170
119
170
51
119
170
51
119
170
51
119
170
51
51
119
68
68
85
85
51
51
51
0
0
0
0
0
0
51
51
51
51
51
51
0
0
0
0
0
0
102
51
68
51
34
51
119
68
68
119
68
68
51
119
68
119
170
51
119
68
68
119
68
68
51
119
68
119
170
51
51
119
68
68
85
85
51
51
51
0
0
0
0
0
0
51
119
68
119
170
51
102
51
68
51
34
51
119
68
68
51
119
68
119
170
51
119
68
68
119
68
68
119
68
68
119
68
68
119
68
68
119
68
68
119
68
68
51
119
68
51
119
68
51
119
68
68
85
85
51
51
51
0
0
0
0
0
0
187
187
221
187
221
68
119
170
51
187
221
68
51
119
68
51
119
68
51
119
68
85
85
85
85
85
85
68
85
85
51
119
68
51
119
68
102
51
68
51
34
51
68
85
85
51
119
68
51
119
68
119
170
51
119
170
51
119
170
51
187
221
68
51
119
68
51
119
68
51
51
51
0
0
0
0
0
0
0
0
0
68
85
85
51
119
68
51
119
68
51
119
68
51
119
68
187
221
68
119
170
51
187
221
68
51
119
68
119
170
51
51
119
68
51
119
68
51
119
68
68
85
85
85
85
85
85
85
85
85
85
85
102
51
68
51
34
51
51
119
68
51
119
68
119
170
51
85
85
85
85
85
85
119
119
119
119
119
119
85
85
85
102
51
68
51
34
51
51
34
51
51
34
51
51
119
68
51
119
68
68
85
85
51
51
51
0
0
0
0
0
0
85
85
85
85
85
85
85
85
85
51
119
68
51
119
68
68
85
85
51
51
51
0
0
0
0
0
0
68
85
85
51
119
68
51
51
51
0
0
0
0
0
0
0
0
0
0
0
0
51
51
51
51
119
68
51
119
68
51
51
51
0
0
0
0
0
0
0
0
0
0
0
0
0
0
0
51
119
68
51
119
68
68
85
85
51
51
51
0
0
0
0
0
0
51
34
51
51
119
68
119
170
51
119
170
51
119
170
51
187
119
85
51
119
68
153
85
85
187
221
68
119
170
51
51
119
68
119
170
51
51
119
68
153
85
85
153
85
85
0
0
0
85
85
85
119
170
51
119
170
51
51
119
68
51
119
68
153
85
85
0
0
0
85
85
85
119
170
51
119
170
51
51
119
68
51
119
68
51
119
68
119
170
51
187
119
85
51
51
51
85
85
85
51
119
68
51
119
68
51
119
68
0
0
0
153
85
85
51
119
68
0
0
0
119
170
51
51
119
68
153
85
85
119
170
51
51
119
68
187
119
85
153
85
85
0
0
0
85
85
85
119
170
51
238
204
153
238
204
153
238
153
102
238
204
153
34
204
221
51
119
170
51
119
170
51
119
170
51
68
119
51
119
170
51
119
170
51
119
170
34
204
221
238
204
153
238
204
153
238
153
102
238
204
153
238
204
153
34
204
221
34
204
221
85
238
238
34
204
221
51
119
170
238
204
153
238
204
153
238
204
153
238
204
153
238
204
153
238
153
102
238
204
153
238
204
153
238
204
153
119
170
51
238
204
153
238
204
153
238
204
153
238
153
102
238
204
153
238
204
153
238
204
153
238
204
153
238
204
153
238
204
153
238
204
153
238
204
153
238
204
153
238
204
153
238
204
153
119
170
51
238
204
153
238
204
153
238
204
153
34
204
221
51
119
170
51
119
170
51
119
170
51
68
119
51
119
170
51
119
170
51
119
170
51
119
170
34
204
221
238
204
153
238
153
102
119
170
51
119
170
51
119
170
51
119
170
51
119
170
51
119
170
51
119
170
51
119
170
51
119
170
51
119
170
51
119
170
51
119
170
51
119
170
51
119
170
51
119
170
51
119
170
51
119
170
51
51
119
68
119
170
51
119
170
51
51
68
119
51
68
119
119
68
68
119
170
51
119
170
51
119
170
51
51
119
170
51
119
170
119
170
51
119
170
51
119
170
51
119
170
51
51
68
119
51
119
68
119
170
51
119
170
51
51
68
119
119
170
51
119
170
51
51
68
119
51
119
170
119
170
51
119
170
51
51
68
119
51
119
68
119
170
51
119
170
51
119
170
51
119
170
51
51
119
68
119
170
51
119
170
51
51
68
119
51
68
119
119
68
68
119
170
51
119
170
51
119
170
51
51
119
170
51
119
170
119
170
51
119
170
51
119
170
51
119
170
51
119
170
51
119
68
68
102
51
68
119
68
68
51
34
51
51
119
68
119
170
51
119
68
68
102
51
68
51
34
51
51
119
68
119
68
68
119
68
68
51
119
68
119
170
51
119
170
51
119
68
68
119
68
68
51
119
68
119
170
51
119
170
51
119
170
51
102
51
68
51
34
51
119
68
68
51
119
68
119
170
51
119
68
68
51
119
68
119
170
51
119
170
51
119
170
51
119
170
51
119
170
51
119
68
68
119
68
68
119
68
68
119
170
51
119
68
68
119
68
68
119
68
68
119
170
51
119
68
68
102
51
68
51
34
51
51
119
68
119
68
68
119
170
51
119
170
51
187
221
68
51
119
68
119
170
51
119
170
51
119
170
51
51
119
68
51
119
68
51
119
68
51
119
68
51
119
68
51
119
68
51
119
68
51
119
68
119
170
51
119
170
51
119
170
51
119
170
51
119
170
51
119
170
51
119
170
51
119
170
51
51
119
68
102
51
68
51
34
51
68
85
85
51
119
68
51
119
68
119
170
51
119
170
51
119
170
51
119
170
51
187
221
68
51
119
68
119
170
51
119
170
51
119
170
51
119
170
51
119
170
51
51
119
68
51
119
68
51
119
68
51
119
68
51
119
68
51
119
68
119
170
51
119
170
51
119
170
51
119
170
51
85
85
85
85
85
85
85
85
85
85
85
85
68
85
85
68
85
85
51
119
68
51
119
68
51
34
51
51
34
51
102
51
68
51
34
51
51
34
51
85
85
85
51
34
51
85
85
85
85
85
85
85
85
85
51
119
68
102
51
68
51
34
51
68
85
85
68
85
85
51
119
68
51
119
68
51
119
68
68
85
85
51
51
51
0
0
0
0
0
0
51
119
68
119
170
51
51
119
68
51
119
68
68
85
85
51
51
51
0
0
0
0
0
0
68
85
85
51
119
68
85
85
85
102
51
68
51
34
51
51
34
51
51
34
51
68
85
85
51
119
68
119
170
51
119
170
51
119
170
51
119
170
51
119
170
51
187
119
85
119
170
51
119
170
51
51
119
68
51
119
68
119
170
51
187
119
85
187
119
85
51
51
51
51
119
68
119
170
51
119
170
51
119
170
51
51
119
68
187
119
85
51
51
51
187
119
85
85
85
85
51
119
68
119
170
51
119
170
51
51
119
68
51
119
68
119
170
51
51
119
68
119
170
51
51
119
68
119
170
51
51
119
68
51
119
68
187
119
85
51
51
51
85
85
85
51
119
68
119
170
51
187
119
85
85
85
85
51
119
68
51
119
68
187
119
85
51
51
51
119
170
51
119
170
51
238
204
153
238
204
153
238
204
153
238
153
102
238
153
102
51
119
170
51
119
170
51
119
170
51
119
170
51
119
170
51
119
170
51
119
170
238
153
102
238
153
102
238
204
153
238
204
153
238
204
153
238
204
153
238
204
153
238
204
153
238
204
153
238
204
153
238
204
153
238
153
102
238
204
153
238
204
153
238
204
153
238
204
153
238
204
153
238
204
153
238
204
153
119
170
51
119
170
51
119
170
51
238
204
153
238
204
153
238
204
153
238
204
153
238
204
153
238
204
153
238
204
153
238
204
153
238
204
153
238
204
153
238
204
153
238
204
153
238
204
153
119
170
51
119
170
51
119
170
51
238
204
153
238
153
102
238
153
102
51
119
170
51
119
170
51
119
170
51
119
170
51
119
170
51
119
170
51
119
170
51
119
170
238
153
102
238
153
102
238
204
153
119
170
51
119
170
51
119
170
51
119
170
51
119
170
51
119
170
51
119
170
51
238
204
153
238
204
153
238
204
153
119
170
51
119
170
51
119
170
51
119
170
51
119
170
51
119
170
51
119
170
51
119
170
51
119
170
51
119
170
51
119
170
51
119
170
51
119
170
51
119
170
51
119
170
51
119
170
51
119
170
51
119
170
51
119
170
51
119
170
51
119
170
51
119
170
51
119
170
51
119
170
51
119
170
51
119
170
51
119
170
51
119
170
51
119
170
51
119
170
51
119
170
51
119
170
51
119
170
51
119
170
51
119
170
51
119
170
51
119
170
51
119
170
51
119
170
51
119
170
51
119
170
51
119
170
51
119
170
51
119
170
51
238
204
153
238
204
153
238
204
153
238
204
153
238
204
153
119
170
51
119
170
51
119
170
51
119
170
51
119
170
51
119
170
51
119
170
51
119
170
51
119
170
51
119
170
51
119
170
51
238
204
153
238
204
153
238
204
153
238
204
153
119
170
51
119
170
51
119
170
51
119
170
51
119
170
51
119
170
51
119
170
51
119
170
51
119
170
51
119
170
51
119
170
51
119
170
51
119
170
51
119
170
51
119
170
51
119
170
51
119
170
51
119
170
51
119
170
51
119
170
51
119
170
51
119
170
51
119
170
51
119
170
51
119
170
51
119
170
51
119
170
51
119
170
51
119
170
51
119
170
51
119
170
51
119
170
51
119
170
51
119
170
51
119
170
51
119
170
51
119
170
51
119
170
51
119
170
51
119
170
51
119
170
51
119
170
51
119
170
51
119
170
51
119
170
51
119
170
51
119
170
51
119
170
51
119
170
51
119
170
51
119
170
51
119
170
51
119
170
51
119
170
51
119
170
51
119
170
51
119
170
51
51
119
68
204
204
187
204
204
187
119
170
51
119
170
51
119
170
51
119
170
51
119
170
51
119
170
51
51
119
68
204
204
187
204
204
187
204
204
187
51
119
68
119
170
51
119
170
51
119
170
51
119
170
51
51
119
68
51
119
68
51
119
68
119
170
51
119
170
51
119
170
51
119
170
51
119
170
51
119
170
51
119
170
51
51
119
68
51
119
68
119
170
51
119
170
51
51
119
68
51
119
68
51
119
68
119
170
51
119
170
51
204
204
187
119
170
51
119
170
51
119
170
51
51
119
68
51
119
68
119
170
51
119
170
51
51
68
119
51
68
119
51
119
170
51
68
119
51
68
119
51
119
170
51
119
170
51
68
119
51
68
119
51
68
119
51
68
119
51
119
170
51
119
170
51
119
170
51
119
170
51
68
119
119
170
51
238
204
153
238
204
153
34
204
221
34
204
221
51
119
170
51
119
170
51
68
119
51
68
119
51
68
119
51
68
119
51
119
170
51
119
170
51
119
170
51
119
170
51
68
119
119
170
51
119
119
119
119
119
119
119
119
119
85
238
238
51
119
170
51
119
170
51
68
119
51
68
119
51
68
119
51
68
119
51
119
170
51
119
170
51
119
170
51
119
170
51
68
119
51
68
119
51
68
119
51
119
170
51
68
119
51
68
119
51
119
170
51
119
170
51
68
119
51
119
170
51
119
170
51
119
170
85
238
238
119
119
119
153
153
136
153
153
136
119
170
51
119
170
51
119
170
51
119
170
51
119
170
51
119
170
51
119
170
51
119
170
51
119
170
51
119
170
51
119
170
51
119
170
51
119
170
51
119
170
51
119
170
51
119
170
51
119
170
51
119
170
51
51
119
68
51
119
68
119
170
51
119
170
51
119
170
51
119
170
51
119
170
51
119
170
51
119
170
51
119
170
51
119
170
51
119
170
51
119
170
51
119
170
51
119
170
51
51
68
119
51
68
119
51
119
170
51
68
119
51
68
119
51
119
170
51
119
170
51
68
119
51
68
119
51
68
119
51
68
119
51
119
170
51
119
170
85
238
238
51
119
170
51
68
119
51
68
119
51
68
119
51
119
170
51
68
119
51
68
119
51
119
170
51
119
170
51
68
119
51
68
119
51
68
119
51
68
119
51
119
170
51
119
170
85
238
238
51
119
170
51
68
119
119
170
51
238
204
153
238
204
153
85
238
238
85
238
238
51
119
170
51
119
170
51
68
119
51
68
119
51
119
170
51
119
170
51
119
170
85
238
238
238
204
153
238
204
153
119
170
51
119
170
51
119
170
51
119
170
51
119
170
51
238
204
153
238
204
153
238
204
153
238
153
102
238
204
153
238
204
153
238
204
153
238
153
102
238
204
153
119
170
51
119
170
51
119
170
51
119
170
51
119
170
51
119
170
51
119
170
51
238
204
153
238
204
153
238
204
153
238
204
153
238
204
153
238
204
153
238
204
153
119
170
51
119
170
51
238
204
153
238
204
153
238
204
153
238
204
153
238
204
153
119
170
51
238
204
153
238
204
153
238
204
153
238
204
153
238
204
153
238
204
153
119
170
51
119
170
51
119
170
51
119
170
51
119
170
51
119
170
51
119
170
51
119
170
51
119
170
51
119
170
51
238
204
153
238
204
153
238
204
153
238
204
153
238
204
153
238
204
153
238
204
153
238
204
153
238
204
153
238
204
153
119
170
51
119
170
51
119
170
51
119
170
51
119
170
51
119
170
51
238
204
153
238
204
153
238
204
153
238
204
153
238
204
153
238
204
153
238
204
153
238
204
153
238
204
153
238
204
153
119
170
51
119
170
51
119
170
51
119
170
51
119
170
51
119
170
51
119
170
51
238
204
153
238
204
153
238
204
153
238
204
153
238
204
153
238
204
153
238
204
153
119
170
51
119
170
51
238
204
153
238
204
153
238
204
153
238
204
153
238
204
153
119
170
51
238
204
153
238
204
153
238
204
153
238
204
153
238
204
153
238
204
153
119
170
51
119
170
51
119
170
51
119
170
51
119
170
51
119
170
51
119
170
51
119
170
51
119
170
51
119
170
51
238
204
153
238
204
153
238
204
153
238
204
153
238
204
153
238
204
153
238
204
153
238
204
153
238
204
153
238
204
153
119
170
51
119
170
51
119
170
51
119
170
51
51
119
68
119
170
51
204
204
187
51
119
68
51
119
68
51
119
68
153
153
136
204
204
187
204
204
187
204
204
187
204
204
187
204
204
187
204
204
187
204
204
187
204
204
187
204
204
187
204
204
187
204
204
187
119
170
51
119
170
51
153
153
136
51
119
68
119
170
51
119
119
119
119
119
119
119
119
119
119
119
119
119
170
51
119
170
51
204
204
187
204
204
187
119
119
119
119
170
51
119
170
51
85
85
85
85
85
85
119
170
51
119
170
51
204
204
187
204
204
187
119
170
51
204
204
187
204
204
187
204
204
187
119
170
51
119
170
51
51
119
68
51
68
119
51
68
119
51
68
119
51
119
170
51
119
170
51
119
170
51
68
119
51
68
119
51
68
119
51
68
119
51
68
119
51
68
119
51
68
119
51
119
170
51
68
119
51
68
119
238
204
153
238
204
153
238
204
153
34
204
221
51
119
170
51
119
170
51
119
170
51
68
119
51
68
119
51
68
119
51
68
119
51
68
119
51
68
119
51
119
170
51
68
119
51
68
119
119
170
51
153
153
136
119
119
119
119
119
119
85
238
238
34
204
221
51
119
170
51
68
119
51
68
119
51
68
119
51
68
119
51
68
119
51
68
119
51
119
170
51
68
119
51
68
119
51
68
119
51
68
119
51
68
119
51
119
170
51
119
170
51
119
170
51
68
119
51
68
119
51
119
170
51
119
170
51
119
170
85
238
238
153
153
136
119
119
119
119
119
119
119
170
51
238
204
153
238
204
153
119
170
51
238
204
153
238
204
153
238
204
153
238
204
153
238
204
153
238
204
153
119
170
51
119
170
51
119
170
51
238
204
153
238
204
153
153
153
136
153
153
136
204
204
187
204
204
187
204
204
187
51
119
68
119
170
51
119
170
51
238
204
153
238
204
153
238
204
153
238
204
153
238
204
153
119
170
51
119
170
51
119
170
51
119
170
51
119
170
51
51
68
119
51
68
119
51
68
119
51
119
170
51
119
170
51
119
170
51
68
119
51
68
119
51
68
119
51
68
119
51
68
119
51
68
119
51
68
119
51
119
170
51
68
119
51
68
119
51
68
119
51
68
119
51
68
119
51
119
170
51
119
170
51
119
170
51
68
119
51
68
119
51
68
119
51
68
119
51
68
119
51
68
119
51
68
119
51
119
170
51
68
119
51
68
119
238
204
153
238
204
153
238
204
153
85
238
238
51
119
170
51
119
170
51
119
170
51
68
119
51
68
119
51
119
170
51
119
170
51
119
170
51
119
170
85
238
238
238
204
153
238
204
153
119
170
51
119
170
51
119
170
51
238
204
153
238
153
102
238
204
153
238
204
153
238
204
153
85
238
238
85
238
238
85
238
238
238
204
153
238
153
102
238
204
153
119
170
51
119
170
51
119
170
51
119
170
51
119
170
51
238
204
153
238
153
102
238
204
153
238
204
153
238
204
153
238
204
153
238
204
153
238
204
153
238
204
153
238
204
153
238
204
153
238
204
153
238
204
153
238
204
153
238
204
153
238
204
153
238
204
153
238
204
153
238
204
153
238
204
153
238
204
153
238
153
102
238
204
153
119
170
51
238
204
153
238
204
153
238
204
153
238
204
153
238
204
153
238
204
153
238
204
153
238
204
153
238
204
153
238
204
153
238
204
153
238
204
153
238
204
153
85
238
238
85
238
238
238
204
153
238
204
153
238
153
102
238
204
153
119
170
51
119
170
51
119
170
51
119
170
51
238
204
153
238
153
102
238
204
153
238
204
153
238
204
153
34
204
221
34
204
221
85
238
238
238
204
153
238
204
153
238
153
102
238
204
153
119
170
51
119
170
51
119
170
51
119
170
51
119
170
51
238
204
153
238
153
102
238
204
153
238
204
153
238
204
153
238
204
153
238
204
153
238
204
153
238
204
153
238
204
153
238
204
153
238
204
153
238
204
153
238
204
153
238
204
153
238
204
153
238
204
153
238
204
153
238
204
153
238
204
153
238
204
153
238
153
102
238
204
153
119
170
51
238
204
153
238
204
153
238
204
153
238
204
153
238
204
153
238
204
153
238
204
153
238
204
153
238
204
153
238
204
153
238
204
153
238
204
153
238
204
153
34
204
221
85
238
238
238
204
153
238
204
153
238
153
102
238
204
153
119
170
51
119
170
51
51
119
68
204
204
187
119
170
51
204
204
187
204
204
187
204
204
187
153
153
136
153
153
136
204
204
187
204
204
187
204
204
187
204
204
187
204
204
187
204
204
187
204
204
187
204
204
187
153
153
136
119
119
119
119
119
119
153
153
136
153
153
136
119
170
51
153
153
136
153
153
136
119
119
119
119
119
119
119
119
119
153
153
136
153
153
136
153
153
136
204
204
187
204
204
187
153
153
136
119
119
119
119
119
119
85
85
85
85
85
85
119
119
119
119
170
51
153
153
136
153
153
136
153
153
136
153
153
136
119
170
51
119
170
51
204
204
187
204
204
187
119
170
51
51
68
119
51
68
119
51
68
119
51
68
119
51
68
119
51
119
170
51
68
119
51
68
119
51
68
119
51
68
119
51
68
119
51
68
119
51
68
119
51
68
119
51
119
170
51
68
119
238
204
153
238
153
102
238
204
153
34
204
221
51
119
170
51
119
170
51
119
170
51
119
170
51
68
119
51
68
119
51
68
119
51
68
119
51
68
119
51
68
119
51
119
170
51
68
119
119
170
51
153
153
136
119
119
119
85
238
238
34
204
221
34
204
221
51
119
170
51
119
170
51
68
119
51
68
119
51
68
119
51
68
119
51
68
119
51
68
119
51
119
170
51
68
119
51
68
119
51
68
119
51
68
119
51
68
119
51
68
119
51
119
170
51
68
119
51
68
119
51
68
119
51
119
170
51
119
170
51
119
170
34
204
221
153
153
136
119
119
119
85
85
85
238
204
153
238
204
153
238
204
153
238
204
153
238
204
153
238
204
153
238
204
153
238
204
153
238
153
102
238
204
153
238
204
153
238
204
153
238
153
102
119
119
119
153
153
136
204
204
187
153
153
136
119
119
119
119
119
119
153
153
136
153
153
136
238
204
153
238
204
153
238
204
153
238
204
153
238
204
153
238
204
153
238
204
153
238
204
153
238
204
153
238
204
153
238
204
153
51
68
119
51
68
119
51
68
119
51
68
119
51
68
119
51
119
170
51
68
119
51
68
119
51
68
119
51
68
119
51
68
119
51
68
119
51
68
119
51
68
119
51
119
170
51
68
119
51
68
119
51
68
119
51
68
119
51
68
119
51
68
119
51
119
170
51
68
119
51
68
119
51
68
119
51
68
119
51
68
119
51
68
119
51
68
119
51
68
119
51
119
170
51
68
119
238
204
153
238
153
102
238
204
153
85
238
238
51
119
170
51
119
170
51
119
170
51
119
170
51
68
119
51
68
119
51
119
170
51
119
170
51
119
170
85
238
238
238
204
153
238
204
153
119
170
51
119
170
51
238
204
153
238
153
102
238
204
153
85
238
238
85
238
238
85
238
238
51
119
170
51
119
170
51
119
170
85
238
238
238
204
153
238
153
102
238
204
153
119
170
51
119
170
51
119
170
51
238
204
153
238
153
102
238
204
153
85
238
238
85
238
238
85
238
238
85
238
238
34
204
221
238
204
153
238
204
153
238
204
153
238
204
153
34
204
221
34
204
221
51
119
170
238
204
153
238
204
153
238
204
153
85
238
238
85
238
238
51
119
170
51
119
170
238
204
153
238
204
153
238
204
153
238
204
153
238
204
153
238
204
153
238
204
153
238
204
153
238
204
153
238
204
153
238
204
153
238
204
153
85
238
238
34
204
221
34
204
221
51
119
170
51
119
170
51
119
170
85
238
238
85
238
238
238
204
153
238
153
102
238
204
153
119
170
51
119
170
51
238
204
153
238
153
102
238
204
153
34
204
221
85
238
238
85
238
238
51
119
170
51
119
170
51
119
170
51
119
170
34
204
221
238
204
153
238
153
102
238
204
153
119
170
51
119
170
51
119
170
51
238
204
153
238
153
102
238
204
153
34
204
221
85
238
238
85
238
238
85
238
238
34
204
221
238
204
153
238
204
153
238
204
153
238
204
153
34
204
221
34
204
221
85
238
238
238
204
153
238
204
153
238
204
153
85
238
238
85
238
238
34
204
221
34
204
221
238
204
153
238
204
153
238
204
153
238
204
153
238
204
153
238
204
153
238
204
153
238
204
153
238
204
153
238
204
153
238
204
153
238
204
153
85
238
238
85
238
238
85
238
238
51
119
170
51
119
170
51
119
170
85
238
238
85
238
238
238
204
153
238
153
102
238
204
153
119
170
51
204
204
187
204
204
187
204
204
187
85
85
85
119
119
119
119
119
119
153
153
136
153
153
136
153
153
136
153
153
136
153
153
136
153
153
136
204
204
187
204
204
187
204
204
187
153
153
136
153
153
136
119
119
119
119
119
119
153
153
136
153
153
136
153
153
136
153
153
136
153
153
136
85
85
85
119
119
119
153
153
136
153
153
136
153
153
136
153
153
136
204
204
187
204
204
187
153
153
136
119
119
119
119
119
119
85
85
85
119
119
119
119
119
119
153
153
136
153
153
136
153
153
136
204
204
187
153
153
136
119
170
51
119
170
51
119
119
119
204
204
187
119
170
51
51
119
170
51
68
119
51
68
119
51
68
119
51
68
119
51
68
119
51
119
170
51
68
119
51
68
119
51
68
119
51
68
119
51
68
119
51
68
119
51
68
119
51
68
119
51
119
170
51
119
170
238
204
153
34
204
221
51
119
170
51
119
170
51
119
170
51
119
170
51
119
170
51
68
119
51
68
119
51
68
119
51
68
119
51
68
119
51
68
119
51
68
119
51
119
170
119
170
51
85
85
85
85
85
85
238
204
153
85
238
238
51
119
170
51
119
170
51
119
170
51
68
119
51
68
119
51
68
119
51
68
119
51
68
119
51
68
119
51
68
119
51
119
170
51
119
170
51
68
119
51
68
119
51
68
119
51
68
119
51
68
119
51
119
170
51
68
119
51
68
119
51
119
170
51
119
170
34
204
221
34
204
221
119
119
119
85
85
85
119
119
119
51
119
170
238
204
153
238
204
153
238
204
153
34
204
221
34
204
221
51
119
170
51
119
170
238
204
153
238
204
153
238
204
153
153
153
136
119
119
119
119
119
119
119
119
119
204
204
187
153
153
136
119
119
119
119
119
119
153
153
136
153
153
136
153
153
136
119
119
119
119
119
119
238
153
102
238
153
102
238
204
153
238
204
153
238
204
153
238
204
153
238
204
153
238
204
153
51
119
170
51
68
119
51
68
119
51
68
119
51
68
119
51
68
119
51
119
170
51
68
119
51
68
119
51
68
119
51
68
119
51
68
119
51
68
119
51
68
119
51
68
119
51
119
170
51
119
170
51
68
119
51
68
119
51
68
119
51
68
119
51
68
119
51
119
170
51
68
119
51
68
119
51
68
119
51
68
119
51
68
119
51
68
119
51
68
119
51
68
119
51
119
170
51
119
170
238
204
153
85
238
238
51
119
170
51
119
170
51
119
170
51
119
170
51
119
170
51
68
119
51
68
119
51
119
170
51
119
170
51
119
170
85
238
238
238
204
153
238
204
153
119
170
51
119
170
51
238
204
153
238
204
153
85
238
238
85
238
238
85
238
238
51
119
170
51
119
170
51
119
170
51
119
170
51
119
170
85
238
238
238
204
153
238
204
153
119
170
51
119
170
51
119
170
51
238
204
153
238
204
153
85
238
238
85
238
238
85
238
238
51
119
170
51
119
170
51
119
170
51
119
170
51
119
170
51
119
170
34
204
221
34
204
221
51
119
170
51
119
170
51
119
170
85
238
238
85
238
238
85
238
238
51
119
170
51
119
170
51
119
170
51
119
170
238
204
153
238
204
153
238
204
153
34
204
221
34
204
221
51
119
170
51
119
170
51
119
170
51
119
170
85
238
238
85
238
238
51
119
170
51
119
170
51
119
170
51
119
170
51
119
170
51
119
170
51
119
170
51
119
170
85
238
238
238
204
153
238
204
153
119
170
51
119
170
51
238
204
153
238
204
153
34
204
221
85
238
238
51
119
170
51
119
170
51
119
170
51
119
170
51
119
170
51
119
170
51
119
170
34
204
221
238
204
153
238
204
153
119
170
51
119
170
51
119
170
51
238
204
153
238
204
153
34
204
221
85
238
238
85
238
238
85
238
238
51
119
170
51
119
170
51
119
170
51
119
170
51
119
170
34
204
221
34
204
221
51
119
170
51
119
170
51
119
170
85
238
238
85
238
238
51
119
170
51
119
170
51
119
170
51
119
170
85
238
238
238
204
153
238
204
153
238
204
153
85
238
238
85
238
238
85
238
238
51
119
170
51
119
170
51
119
170
34
204
221
34
204
221
51
119
170
51
119
170
51
119
170
51
119
170
51
119
170
51
119
170
51
119
170
51
119
170
85
238
238
238
204
153
238
204
153
119
170
51
204
204
187
204
204
187
85
85
85
85
85
85
119
119
119
119
119
119
119
119
119
119
119
119
119
119
119
119
119
119
153
153
136
153
153
136
153
153
136
153
153
136
153
153
136
153
153
136
153
153
136
119
119
119
119
119
119
119
119
119
153
153
136
153
153
136
153
153
136
153
153
136
85
85
85
119
119
119
153
153
136
153
153
136
153
153
136
204
204
187
204
204
187
204
204
187
153
153
136
119
119
119
119
119
119
85
85
85
119
119
119
153
153
136
153
153
136
153
153
136
204
204
187
204
204
187
153
153
136
153
153
136
119
119
119
119
119
119
119
119
119
119
170
51
51
119
170
51
119
170
51
68
119
51
119
170
51
119
170
51
119
170
51
119
170
51
119
170
51
119
170
51
68
119
51
68
119
51
68
119
51
68
119
51
68
119
51
68
119
51
68
119
51
119
170
51
119
170
51
119
170
51
119
170
51
119
170
51
119
170
51
119
170
51
119
170
51
119
170
51
68
119
51
68
119
51
68
119
51
68
119
51
68
119
51
68
119
51
68
119
119
170
51
153
153
136
119
119
119
238
204
153
85
238
238
51
119
170
51
119
170
51
119
170
51
119
170
51
68
119
51
68
119
51
68
119
51
68
119
51
68
119
51
68
119
51
68
119
51
119
170
51
119
170
51
68
119
51
119
170
51
119
170
51
119
170
51
119
170
51
119
170
51
119
170
51
119
170
51
119
170
85
238
238
51
119
170
34
204
221
119
119
119
238
153
102
51
119
170
51
119
170
34
204
221
34
204
221
34
204
221
51
119
170
51
119
170
51
119
170
34
204
221
238
204
153
238
204
153
238
153
102
153
153
136
153
153
136
153
153
136
204
204
187
153
153
136
119
119
119
119
119
119
119
119
119
153
153
136
153
153
136
119
119
119
238
153
102
238
204
153
238
204
153
238
204
153
238
204
153
85
238
238
85
238
238
34
204
221
51
119
170
51
119
170
51
119
170
51
68
119
51
119
170
51
119
170
51
119
170
34
204
221
51
119
170
51
119
170
51
68
119
51
68
119
51
68
119
51
68
119
51
68
119
51
68
119
51
68
119
51
119
170
51
119
170
51
68
119
51
119
170
51
119
170
51
119
170
221
238
238
51
119
170
51
119
170
51
68
119
51
68
119
51
68
119
51
68
119
51
68
119
51
68
119
51
68
119
51
119
170
51
119
170
51
119
170
51
119
170
51
119
170
51
119
170
51
119
170
51
119
170
51
119
170
51
68
119
51
119
170
51
119
170
51
119
170
51
119
170
85
238
238
238
204
153
119
170
51
238
204
153
238
204
153
238
204
153
85
238
238
51
119
170
51
119
170
51
119
170
51
119
170
51
119
170
51
119
170
51
119
170
85
238
238
238
204
153
238
204
153
119
170
51
119
170
51
238
204
153
238
204
153
238
204
153
85
238
238
51
119
170
51
119
170
51
119
170
51
119
170
51
119
170
51
119
170
51
119
170
51
119
170
51
119
170
51
119
170
51
119
170
51
119
170
51
119
170
51
119
170
51
119
170
51
119
170
51
119
170
51
119
170
51
119
170
51
119
170
51
119
170
34
204
221
34
204
221
51
119
170
51
119
170
51
119
170
51
119
170
51
119
170
51
119
170
51
119
170
51
119
170
51
119
170
51
119
170
51
119
170
51
119
170
51
119
170
51
119
170
51
119
170
51
119
170
85
238
238
238
204
153
238
204
153
119
170
51
238
204
153
238
204
153
238
204
153
34
204
221
51
119
170
51
119
170
51
119
170
51
119
170
51
119
170
51
119
170
51
119
170
51
119
170
34
204
221
238
204
153
238
204
153
119
170
51
119
170
51
238
204
153
238
204
153
238
204
153
85
238
238
85
238
238
85
238
238
51
119
170
51
119
170
51
119
170
51
119
170
51
119
170
51
119
170
51
119
170
51
119
170
51
119
170
51
119
170
51
119
170
51
119
170
51
119
170
85
238
238
85
238
238
85
238
238
51
119
170
51
119
170
85
238
238
85
238
238
34
204
221
51
119
170
51
119
170
51
119
170
51
119
170
51
119
170
51
119
170
51
119
170
51
119
170
51
119
170
51
119
170
85
238
238
51
119
170
85
238
238
51
119
170
51
119
170
51
119
170
85
238
238
238
204
153
238
204
153
119
170
51
204
204
187
153
153
136
119
119
119
85
85
85
85
85
85
119
119
119
119
119
119
153
153
136
153
153
136
119
119
119
119
119
119
153
153
136
153
153
136
153
153
136
153
153
136
153
153
136
153
153
136
119
119
119
119
119
119
119
119
119
119
119
119
153
153
136
153
153
136
153
153
136
85
85
85
119
119
119
153
153
136
153
153
136
153
153
136
204
204
187
204
204
187
204
204
187
153
153
136
119
119
119
119
119
119
51
119
170
51
68
119
51
119
170
153
153
136
153
153
136
204
204
187
204
204
187
119
119
119
119
119
119
119
119
119
119
119
119
119
170
51
51
119
68
51
68
119
51
119
170
51
119
170
51
68
119
51
68
119
51
68
119
51
68
119
51
119
170
51
119
170
51
119
170
51
119
170
51
68
119
51
68
119
51
68
119
51
119
170
51
119
170
51
119
170
51
119
170
51
119
170
51
119
170
51
119
170
51
119
170
51
119
170
51
119
170
51
119
170
51
119
170
51
119
170
51
68
119
51
68
119
51
68
119
51
119
170
51
119
170
119
170
51
238
153
102
119
119
119
238
204
153
85
238
238
51
119
170
51
119
170
51
119
170
51
119
170
51
119
170
51
119
170
51
68
119
51
68
119
51
68
119
51
119
170
51
119
170
51
68
119
51
119
170
51
119
170
51
68
119
51
68
119
51
68
119
51
68
119
51
119
170
51
119
170
51
119
170
51
119
170
85
238
238
85
238
238
51
119
170
238
153
102
238
204
153
51
119
170
51
119
170
51
119
170
51
119
170
51
119
170
51
119
170
51
119
170
51
119
170
51
119
170
85
238
238
85
238
238
238
204
153
238
153
102
34
204
221
85
238
238
153
153
136
153
153
136
119
119
119
119
119
119
119
119
119
119
119
119
153
153
136
85
238
238
85
238
238
34
204
221
51
119
170
51
119
170
34
204
221
34
204
221
51
119
170
51
119
170
51
119
170
51
68
119
51
119
170
51
119
170
51
68
119
51
68
119
51
68
119
51
68
119
51
119
170
51
119
170
51
119
170
51
119
170
51
68
119
51
68
119
51
68
119
51
119
170
51
119
170
51
68
119
51
119
170
51
119
170
51
68
119
51
68
119
51
68
119
51
68
119
51
119
170
51
119
170
51
119
170
51
119
170
51
68
119
51
68
119
51
68
119
51
119
170
51
119
170
51
119
170
51
119
170
51
119
170
51
119
170
51
119
170
51
119
170
51
119
170
51
119
170
51
119
170
51
119
170
51
119
170
85
238
238
51
119
170
51
119
170
51
119
170
51
119
170
238
204
153
238
204
153
238
204
153
85
238
238
85
238
238
51
119
170
51
119
170
51
119
170
51
119
170
51
119
170
51
119
170
51
119
170
85
238
238
238
204
153
238
204
153
238
204
153
238
204
153
238
204
153
238
204
153
85
238
238
85
238
238
51
119
170
51
119
170
51
119
170
51
119
170
51
119
170
51
119
170
51
119
170
51
119
170
51
119
170
51
119
170
51
119
170
51
119
170
51
119
170
51
119
170
51
119
170
51
119
170
51
119
170
51
119
170
51
119
170
51
119
170
51
119
170
51
119
170
51
119
170
51
119
170
51
119
170
51
119
170
51
119
170
51
119
170
51
119
170
51
119
170
51
119
170
51
119
170
51
119
170
51
119
170
51
119
170
51
119
170
51
119
170
51
119
170
51
119
170
85
238
238
238
204
153
238
204
153
238
204
153
238
204
153
238
204
153
34
204
221
34
204
221
51
119
170
51
119
170
51
119
170
51
119
170
51
68
119
51
119
170
51
119
170
51
119
170
51
119
170
238
204
153
238
204
153
238
204
153
119
170
51
238
204
153
238
204
153
85
238
238
85
238
238
51
119
170
51
119
170
51
119
170
85
238
238
85
238
238
51
119
170
85
238
238
85
238
238
51
119
170
51
119
170
51
119
170
51
119
170
51
119
170
51
119
170
51
119
170
51
119
170
51
119
170
51
119
170
51
119
170
51
119
170
51
119
170
51
119
170
51
119
170
51
119
170
51
119
170
51
119
170
51
119
170
51
119
170
51
119
170
51
119
170
51
119
170
51
119
170
51
119
170
51
119
170
51
119
170
51
119
170
85
238
238
51
119
170
51
119
170
85
238
238
238
204
153
238
204
153
238
204
153
119
170
51
119
119
119
119
119
119
119
119
119
85
85
85
85
85
85
119
119
119
153
153
136
153
153
136
119
119
119
119
119
119
119
119
119
119
119
119
119
119
119
153
153
136
153
153
136
153
153
136
119
119
119
51
119
170
51
119
170
85
238
238
85
238
238
51
119
170
51
119
170
85
238
238
85
238
238
85
238
238
85
238
238
153
153
136
204
204
187
204
204
187
204
204
187
153
153
136
119
119
119
51
119
170
51
68
119
51
68
119
51
119
170
85
238
238
153
153
136
204
204
187
153
153
136
119
119
119
51
119
68
153
153
136
153
153
136
119
170
51
119
170
51
51
68
119
51
68
119
51
119
170
85
238
238
51
68
119
51
68
119
51
68
119
51
68
119
51
68
119
51
68
119
51
68
119
85
238
238
51
119
170
51
119
170
51
68
119
51
68
119
51
119
170
51
119
170
51
119
170
51
119
170
51
119
170
51
119
170
51
119
170
51
68
119
51
68
119
51
68
119
51
68
119
51
119
170
51
119
170
51
119
170
51
68
119
51
68
119
119
170
51
238
204
153
238
153
102
238
204
153
34
204
221
51
119
170
51
119
170
51
68
119
51
68
119
51
68
119
51
68
119
51
119
170
51
119
170
51
119
170
51
68
119
51
68
119
51
68
119
51
68
119
85
238
238
51
119
170
51
68
119
51
68
119
51
68
119
51
68
119
51
68
119
51
119
170
51
119
170
51
119
170
85
238
238
85
238
238
238
204
153
238
204
153
51
119
170
51
119
170
51
119
170
51
119
170
51
119
170
51
119
170
34
204
221
85
238
238
51
119
170
51
119
170
85
238
238
85
238
238
34
204
221
51
119
170
51
119
170
85
238
238
153
153
136
119
119
119
51
119
170
51
119
170
85
238
238
85
238
238
51
119
170
51
119
170
51
119
170
51
119
170
51
119
170
51
119
170
51
119
170
51
119
170
51
119
170
51
119
170
51
68
119
51
68
119
85
238
238
51
119
170
51
68
119
51
68
119
51
68
119
51
68
119
51
68
119
51
68
119
51
68
119
51
119
170
51
119
170
51
119
170
51
68
119
51
68
119
51
68
119
51
68
119
51
119
170
51
119
170
51
68
119
51
68
119
51
68
119
51
68
119
51
68
119
51
68
119
51
68
119
34
204
221
51
119
170
51
119
170
51
68
119
51
68
119
51
119
170
51
119
170
51
119
170
51
119
170
51
119
170
51
119
170
51
119
170
51
68
119
51
68
119
51
68
119
51
68
119
51
119
170
51
119
170
51
119
170
51
119
170
51
119
170
238
204
153
238
204
153
238
204
153
85
238
238
51
119
170
51
119
170
51
119
170
51
119
170
51
119
170
51
119
170
51
119
170
51
119
170
85
238
238
85
238
238
238
204
153
238
204
153
238
204
153
238
204
153
238
204
153
85
238
238
51
119
170
51
119
170
51
119
170
51
119
170
51
119
170
51
119
170
51
119
170
51
119
170
51
68
119
51
68
119
51
68
119
51
68
119
51
68
119
51
68
119
51
119
170
51
119
170
51
119
170
51
119
170
51
119
170
51
68
119
51
68
119
51
68
119
51
68
119
51
68
119
51
68
119
51
68
119
51
119
170
51
119
170
51
68
119
51
68
119
51
68
119
51
68
119
51
119
170
51
119
170
51
119
170
51
119
170
51
119
170
51
119
170
51
119
170
51
119
170
85
238
238
85
238
238
238
204
153
238
204
153
238
204
153
238
204
153
34
204
221
51
119
170
51
119
170
51
119
170
51
119
170
51
68
119
51
68
119
51
68
119
51
119
170
51
119
170
51
119
170
34
204
221
238
204
153
238
204
153
119
170
51
238
204
153
238
204
153
85
238
238
51
119
170
51
119
170
85
238
238
85
238
238
51
119
170
51
119
170
51
119
170
51
119
170
51
68
119
51
68
119
51
68
119
51
68
119
51
68
119
51
119
170
51
119
170
51
119
170
51
119
170
51
119
170
51
119
170
51
119
170
51
119
170
51
119
170
51
119
170
51
119
170
51
68
119
51
68
119
51
68
119
51
119
170
51
119
170
51
119
170
51
119
170
51
119
170
51
119
170
51
119
170
51
119
170
51
119
170
51
119
170
85
238
238
51
119
170
51
119
170
51
119
170
85
238
238
238
204
153
238
204
153
51
119
68
119
119
119
119
119
119
119
119
119
119
119
119
85
85
85
85
85
85
119
119
119
153
153
136
153
153
136
51
68
119
51
119
170
85
238
238
85
238
238
85
238
238
153
153
136
34
204
221
51
68
119
51
68
119
51
68
119
51
119
170
51
119
170
51
119
170
51
119
170
51
68
119
51
68
119
51
119
170
85
238
238
85
238
238
85
238
238
85
238
238
85
238
238
51
119
170
51
119
170
51
68
119
51
68
119
51
119
170
51
119
170
51
119
170
85
238
238
51
119
170
119
119
119
119
119
119
51
119
68
51
119
68
153
153
136
119
170
51
119
170
51
51
68
119
51
68
119
51
119
170
51
119
170
51
119
170
51
119
170
51
68
119
51
68
119
51
68
119
51
68
119
51
68
119
51
119
170
51
68
119
51
68
119
51
68
119
51
68
119
51
68
119
51
68
119
51
119
170
51
119
170
51
119
170
51
119
170
51
68
119
51
68
119
51
68
119
51
68
119
51
68
119
51
119
170
51
68
119
51
68
119
51
68
119
51
68
119
119
170
51
238
204
153
238
204
153
85
238
238
51
119
170
51
119
170
51
119
170
51
68
119
51
68
119
51
68
119
51
68
119
51
119
170
51
68
119
51
68
119
51
68
119
51
68
119
51
68
119
51
68
119
51
119
170
51
119
170
51
119
170
51
119
170
51
68
119
51
68
119
51
68
119
51
119
170
51
119
170
51
119
170
51
119
170
85
238
238
238
204
153
238
204
153
51
68
119
51
119
170
51
119
170
51
119
170
51
119
170
51
119
170
51
119
170
51
119
170
85
238
238
85
238
238
51
119
170
51
119
170
51
68
119
51
68
119
51
68
119
51
119
170
34
204
221
51
68
119
51
68
119
51
68
119
51
119
170
51
119
170
51
119
170
51
119
170
51
119
170
51
119
170
51
119
170
51
119
170
51
68
119
51
68
119
51
68
119
51
119
170
51
68
119
51
68
119
51
119
170
51
119
170
51
119
170
51
119
170
51
68
119
51
68
119
51
68
119
51
68
119
51
68
119
51
119
170
51
68
119
51
68
119
51
68
119
51
68
119
51
68
119
51
68
119
51
119
170
51
119
170
51
119
170
34
204
221
51
68
119
51
68
119
51
68
119
51
68
119
51
68
119
51
119
170
51
68
119
51
68
119
51
68
119
51
68
119
51
68
119
51
68
119
51
119
170
51
119
170
51
119
170
51
119
170
51
68
119
51
68
119
51
68
119
51
68
119
51
68
119
51
119
170
51
68
119
51
68
119
51
68
119
51
119
170
238
204
153
238
204
153
238
204
153
85
238
238
51
119
170
51
119
170
51
119
170
51
119
170
51
119
170
51
119
170
51
119
170
51
119
170
51
119
170
85
238
238
238
204
153
238
204
153
238
204
153
238
204
153
238
153
102
238
204
153
85
238
238
85
238
238
51
119
170
51
119
170
51
119
170
51
119
170
51
119
170
51
68
119
51
68
119
51
68
119
51
68
119
51
68
119
51
68
119
51
68
119
51
68
119
51
68
119
51
119
170
51
119
170
51
119
170
51
119
170
51
119
170
51
68
119
51
68
119
51
68
119
51
68
119
51
68
119
51
68
119
51
68
119
51
68
119
51
68
119
51
68
119
51
68
119
51
68
119
51
68
119
51
119
170
51
119
170
51
119
170
51
119
170
51
119
170
51
119
170
51
119
170
85
238
238
238
204
153
238
204
153
238
204
153
238
153
102
238
204
153
51
119
170
51
119
170
51
119
170
51
68
119
51
68
119
51
68
119
51
68
119
51
119
170
51
119
170
51
119
170
51
119
170
238
204
153
238
204
153
238
204
153
238
204
153
238
204
153
85
238
238
51
119
170
51
119
170
85
238
238
51
119
170
51
119
170
51
119
170
51
119
170
51
119
170
51
119
170
51
68
119
51
68
119
51
68
119
51
68
119
51
119
170
51
119
170
51
119
170
51
119
170
51
119
170
51
119
170
51
119
170
51
119
170
51
119
170
51
119
170
51
119
170
51
119
170
51
68
119
51
68
119
51
68
119
51
68
119
51
119
170
51
119
170
51
119
170
51
68
119
51
119
170
51
119
170
51
119
170
51
119
170
51
119
170
51
119
170
51
119
170
51
119
170
85
238
238
238
204
153
238
204
153
119
119
119
119
119
119
119
119
119
119
119
119
119
119
119
85
85
85
51
119
170
51
119
170
51
119
170
51
119
170
51
68
119
51
68
119
51
68
119
51
119
170
85
238
238
85
238
238
51
119
170
51
119
170
51
68
119
51
119
170
51
119
170
51
119
170
51
119
170
51
119
170
51
119
170
51
119
170
51
119
170
51
119
170
51
119
170
34
204
221
34
204
221
34
204
221
51
68
119
51
68
119
51
68
119
34
204
221
51
119
170
51
119
170
51
119
170
51
119
170
51
119
170
51
68
119
119
119
119
153
153
136
153
153
136
119
170
51
119
170
51
119
170
51
51
68
119
51
119
170
51
119
170
51
68
119
51
68
119
51
119
170
51
119
170
51
119
170
51
119
170
51
119
170
51
119
170
51
119
170
51
119
170
51
68
119
51
68
119
51
68
119
51
68
119
51
119
170
51
119
170
51
68
119
51
68
119
51
119
170
51
119
170
51
119
170
51
119
170
51
119
170
85
238
238
51
119
170
51
119
170
51
68
119
51
68
119
51
68
119
119
170
51
238
204
153
238
204
153
85
238
238
51
119
170
51
119
170
51
119
170
51
119
170
51
119
170
51
119
170
51
119
170
85
238
238
51
119
170
51
68
119
51
68
119
51
68
119
51
68
119
51
119
170
51
119
170
51
68
119
51
68
119
51
119
170
51
119
170
51
119
170
51
119
170
51
119
170
51
119
170
51
119
170
85
238
238
34
204
221
238
204
153
238
204
153
51
68
119
51
119
170
51
119
170
51
119
170
51
119
170
51
119
170
51
119
170
51
119
170
51
119
170
51
119
170
51
119
170
51
119
170
51
119
170
51
68
119
51
68
119
51
68
119
51
119
170
51
119
170
51
68
119
51
119
170
51
119
170
51
119
170
51
119
170
51
119
170
51
119
170
51
119
170
51
119
170
51
119
170
51
119
170
51
68
119
51
68
119
51
68
119
51
68
119
51
119
170
51
119
170
51
68
119
51
68
119
51
119
170
51
119
170
51
119
170
51
119
170
51
119
170
51
119
170
221
238
238
51
119
170
51
68
119
51
68
119
51
68
119
51
68
119
51
119
170
51
119
170
51
68
119
51
68
119
51
119
170
51
119
170
51
119
170
51
119
170
51
119
170
51
119
170
51
119
170
51
119
170
51
68
119
51
68
119
51
68
119
51
68
119
51
119
170
51
119
170
51
68
119
51
68
119
85
238
238
51
119
170
51
119
170
51
119
170
51
119
170
51
119
170
51
119
170
51
119
170
51
68
119
51
68
119
51
68
119
238
204
153
238
204
153
34
204
221
51
119
170
51
119
170
51
119
170
51
119
170
51
119
170
51
119
170
51
119
170
51
119
170
51
119
170
51
119
170
85
238
238
238
204
153
238
204
153
238
204
153
238
204
153
238
204
153
85
238
238
85
238
238
85
238
238
51
119
170
51
119
170
51
119
170
51
119
170
51
119
170
51
119
170
51
119
170
51
119
170
51
68
119
51
68
119
51
68
119
51
119
170
51
119
170
51
119
170
51
119
170
51
119
170
51
119
170
51
119
170
51
119
170
51
119
170
51
119
170
51
119
170
51
68
119
51
68
119
51
68
119
51
68
119
51
119
170
51
119
170
51
119
170
51
119
170
51
119
170
51
119
170
51
119
170
51
119
170
51
119
170
51
119
170
51
119
170
51
119
170
51
119
170
51
119
170
238
204
153
238
204
153
238
204
153
238
204
153
34
204
221
51
119
170
51
119
170
51
119
170
51
119
170
51
68
119
51
68
119
51
119
170
51
119
170
51
119
170
51
119
170
51
119
170
238
204
153
238
204
153
238
204
153
238
204
153
34
204
221
51
119
170
51
119
170
85
238
238
51
119
170
51
119
170
51
119
170
51
119
170
51
68
119
51
68
119
51
68
119
51
119
170
51
119
170
51
119
170
51
119
170
51
68
119
51
68
119
51
68
119
51
68
119
51
68
119
51
68
119
51
68
119
51
119
170
51
119
170
51
68
119
51
68
119
51
68
119
51
119
170
51
119
170
51
119
170
51
119
170
51
68
119
51
68
119
51
68
119
51
68
119
51
68
119
51
68
119
51
119
170
51
119
170
51
119
170
85
238
238
51
119
170
51
119
170
85
238
238
238
204
153
238
204
153
119
119
119
153
153
136
119
119
119
119
119
119
119
119
119
51
119
170
51
68
119
51
68
119
51
68
119
51
68
119
51
68
119
51
68
119
51
119
170
51
119
170
51
119
170
51
119
170
51
119
170
51
119
170
51
119
170
51
119
170
51
119
170
34
204
221
34
204
221
34
204
221
51
119
170
34
204
221
34
204
221
51
119
170
51
119
170
51
119
170
51
119
170
34
204
221
51
68
119
51
68
119
51
119
170
34
204
221
85
238
238
85
238
238
34
204
221
51
119
170
51
119
170
51
68
119
51
68
119
204
204
187
153
153
136
119
119
119
119
170
51
119
170
51
51
119
170
51
119
170
51
119
170
51
119
170
51
119
170
51
68
119
51
68
119
51
68
119
51
119
170
51
119
170
51
68
119
51
68
119
51
68
119
51
119
170
51
119
170
51
119
170
51
119
170
51
68
119
51
68
119
51
68
119
51
68
119
51
68
119
51
68
119
51
68
119
51
119
170
51
119
170
51
68
119
51
68
119
51
68
119
51
119
170
51
119
170
51
119
170
119
170
51
238
204
153
238
204
153
34
204
221
34
204
221
85
238
238
51
119
170
51
68
119
51
119
170
51
119
170
51
68
119
51
68
119
51
68
119
51
119
170
51
119
170
51
119
170
51
119
170
51
68
119
51
68
119
51
68
119
51
68
119
51
68
119
51
68
119
51
68
119
51
119
170
51
119
170
51
119
170
51
119
170
85
238
238
238
204
153
238
204
153
238
204
153
51
119
170
51
68
119
51
68
119
51
68
119
51
68
119
51
68
119
51
68
119
51
68
119
51
119
170
51
119
170
51
68
119
51
68
119
51
68
119
85
238
238
34
204
221
51
119
170
51
119
170
51
119
170
51
119
170
51
119
170
51
119
170
34
204
221
51
68
119
51
68
119
51
119
170
51
119
170
51
68
119
51
68
119
51
68
119
51
119
170
51
119
170
51
119
170
51
119
170
51
68
119
51
68
119
51
68
119
51
68
119
51
68
119
51
68
119
51
68
119
51
119
170
51
119
170
51
68
119
51
68
119
51
68
119
51
119
170
51
119
170
51
119
170
51
119
170
51
68
119
51
68
119
51
68
119
51
68
119
51
68
119
51
68
119
51
68
119
51
119
170
51
119
170
51
68
119
51
68
119
51
68
119
51
119
170
51
119
170
51
119
170
51
119
170
51
119
170
51
119
170
51
119
170
51
119
170
51
68
119
51
68
119
51
68
119
51
119
170
51
119
170
51
68
119
51
68
119
51
68
119
51
119
170
51
119
170
51
119
170
238
204
153
238
204
153
34
204
221
51
119
170
51
119
170
51
119
170
51
119
170
51
119
170
51
68
119
51
119
170
51
119
170
51
119
170
51
119
170
85
238
238
238
204
153
238
204
153
238
204
153
238
204
153
238
204
153
85
238
238
85
238
238
85
238
238
85
238
238
51
119
170
51
119
170
51
119
170
51
119
170
51
119
170
51
119
170
51
119
170
51
119
170
51
119
170
51
119
170
51
119
170
51
119
170
51
119
170
51
119
170
51
119
170
51
119
170
51
119
170
51
119
170
51
119
170
51
119
170
51
119
170
51
119
170
51
119
170
51
119
170
51
119
170
51
119
170
51
119
170
51
119
170
51
119
170
51
119
170
51
119
170
51
119
170
51
119
170
51
119
170
51
119
170
51
119
170
51
119
170
51
119
170
51
119
170
238
204
153
238
204
153
238
204
153
238
204
153
34
204
221
85
238
238
51
119
170
51
119
170
51
119
170
51
119
170
51
119
170
51
119
170
51
119
170
51
119
170
51
119
170
51
119
170
238
204
153
238
204
153
238
204
153
238
204
153
34
204
221
51
119
170
51
119
170
85
238
238
51
119
170
51
119
170
51
68
119
51
119
170
51
119
170
51
68
119
51
68
119
51
68
119
51
68
119
51
68
119
51
119
170
51
119
170
51
68
119
51
68
119
51
68
119
51
68
119
51
68
119
51
68
119
51
68
119
85
238
238
51
119
170
51
68
119
51
68
119
51
68
119
51
68
119
51
68
119
51
119
170
51
119
170
51
68
119
51
68
119
51
68
119
51
68
119
51
68
119
51
68
119
51
119
170
51
119
170
85
238
238
51
119
170
51
119
170
85
238
238
238
204
153
238
204
153
153
153
136
153
153
136
153
153
136
119
119
119
51
119
170
51
68
119
51
68
119
51
68
119
51
119
170
51
119
170
51
119
170
34
204
221
34
204
221
51
119
170
51
119
170
51
119
170
51
119
170
51
119
170
34
204
221
85
238
238
85
238
238
34
204
221
51
119
170
51
68
119
51
68
119
51
68
119
51
68
119
51
68
119
34
204
221
85
238
238
85
238
238
51
119
170
51
68
119
51
119
170
34
204
221
34
204
221
34
204
221
85
238
238
85
238
238
34
204
221
51
119
170
51
68
119
51
119
170
204
204
187
153
153
136
153
153
136
153
153
136
119
170
51
51
119
170
51
119
170
51
119
170
51
119
170
51
119
170
51
119
170
51
68
119
51
68
119
51
68
119
51
119
170
51
119
170
51
68
119
51
68
119
51
68
119
51
68
119
51
68
119
51
119
170
51
119
170
51
68
119
51
68
119
51
68
119
51
68
119
51
68
119
51
68
119
51
68
119
51
119
170
51
119
170
51
68
119
51
68
119
51
68
119
51
68
119
51
68
119
119
170
51
238
204
153
238
153
102
238
204
153
34
204
221
85
238
238
51
119
170
51
68
119
51
68
119
51
119
170
51
119
170
51
68
119
51
68
119
51
68
119
51
68
119
51
68
119
51
119
170
51
119
170
51
68
119
51
68
119
51
68
119
51
68
119
51
68
119
51
68
119
51
119
170
51
119
170
51
119
170
51
119
170
85
238
238
238
204
153
238
204
153
119
170
51
51
119
170
51
119
170
51
68
119
51
68
119
51
68
119
51
68
119
51
68
119
51
68
119
51
68
119
85
238
238
51
119
170
51
68
119
51
68
119
51
119
170
85
238
238
85
238
238
51
119
170
51
119
170
34
204
221
85
238
238
85
238
238
34
204
221
51
68
119
51
68
119
51
68
119
85
238
238
51
119
170
51
68
119
51
68
119
51
68
119
51
68
119
51
68
119
51
119
170
51
119
170
51
68
119
51
68
119
51
68
119
51
68
119
51
68
119
51
68
119
51
68
119
51
119
170
51
119
170
51
68
119
51
68
119
34
204
221
34
204
221
85
238
238
85
238
238
34
204
221
34
204
221
51
68
119
51
68
119
51
68
119
51
68
119
51
68
119
51
68
119
221
238
238
51
119
170
51
68
119
51
68
119
51
68
119
51
68
119
51
68
119
51
119
170
51
119
170
51
119
170
51
119
170
51
119
170
51
119
170
51
68
119
51
68
119
51
68
119
51
119
170
51
119
170
51
68
119
51
68
119
51
68
119
51
68
119
51
68
119
238
204
153
238
204
153
85
238
238
51
119
170
51
119
170
51
119
170
51
119
170
51
119
170
51
68
119
51
119
170
51
119
170
51
119
170
85
238
238
85
238
238
238
204
153
238
204
153
238
204
153
238
204
153
238
204
153
85
238
238
85
238
238
85
238
238
85
238
238
85
238
238
85
238
238
51
119
170
51
119
170
51
119
170
51
119
170
51
119
170
51
119
170
51
119
170
51
119
170
51
119
170
51
119
170
51
119
170
51
119
170
51
119
170
51
119
170
51
119
170
51
119
170
51
119
170
51
119
170
51
119
170
51
119
170
51
119
170
51
119
170
51
119
170
51
119
170
51
119
170
51
119
170
51
119
170
51
119
170
51
119
170
51
119
170
51
119
170
51
119
170
51
119
170
51
119
170
51
119
170
51
119
170
238
204
153
238
204
153
238
204
153
238
204
153
238
204
153
34
204
221
85
238
238
51
119
170
51
119
170
51
119
170
51
119
170
51
119
170
51
119
170
51
119
170
51
119
170
51
119
170
238
204
153
238
204
153
238
204
153
238
204
153
238
204
153
34
204
221
51
119
170
51
119
170
85
238
238
51
119
170
51
119
170
51
119
170
51
68
119
51
68
119
51
119
170
51
119
170
51
119
170
51
68
119
51
68
119
51
68
119
51
119
170
51
119
170
51
119
170
51
68
119
51
68
119
51
68
119
51
119
170
51
119
170
51
68
119
51
68
119
51
119
170
51
119
170
51
119
170
51
68
119
51
68
119
51
68
119
51
119
170
51
119
170
51
119
170
51
68
119
51
68
119
51
68
119
51
119
170
51
119
170
51
119
170
51
119
170
51
119
170
85
238
238
85
238
238
238
204
153
238
204
153
153
153
136
153
153
136
153
153
136
119
119
119
85
238
238
51
68
119
51
68
119
51
68
119
51
119
170
34
204
221
85
238
238
85
238
238
85
238
238
85
238
238
34
204
221
34
204
221
51
119
170
34
204
221
85
238
238
51
119
170
51
119
170
51
68
119
51
68
119
51
119
170
51
119
170
51
68
119
51
68
119
51
68
119
51
119
170
51
119
170
51
119
170
85
238
238
85
238
238
85
238
238
34
204
221
51
119
170
51
119
170
51
68
119
85
238
238
85
238
238
34
204
221
51
119
170
51
119
170
204
204
187
119
119
119
153
153
136
153
153
136
119
170
51
51
119
170
51
119
170
51
119
170
51
119
170
51
119
170
51
119
170
51
119
170
51
119
170
51
119
170
51
68
119
51
68
119
51
119
170
51
119
170
51
119
170
51
68
119
51
68
119
51
68
119
51
119
170
51
119
170
51
119
170
51
68
119
51
68
119
51
68
119
51
119
170
51
119
170
51
68
119
51
68
119
51
119
170
51
119
170
51
119
170
51
68
119
51
68
119
119
170
51
119
170
51
238
204
153
238
204
153
238
204
153
34
204
221
85
238
238
51
119
170
51
119
170
51
68
119
51
68
119
51
119
170
51
119
170
51
119
170
51
68
119
51
68
119
51
68
119
51
119
170
51
119
170
51
119
170
51
68
119
51
68
119
51
68
119
51
119
170
51
119
170
51
119
170
51
119
170
85
238
238
51
119
170
238
204
153
238
204
153
238
204
153
51
68
119
51
119
170
51
119
170
51
119
170
51
68
119
51
68
119
51
68
119
51
119
170
51
119
170
51
68
119
51
68
119
51
119
170
34
204
221
85
238
238
51
119
170
51
119
170
51
119
170
34
204
221
85
238
238
51
119
170
51
119
170
51
68
119
51
68
119
51
119
170
51
119
170
51
68
119
51
68
119
51
119
170
51
119
170
51
119
170
51
68
119
51
68
119
51
68
119
51
119
170
51
119
170
51
119
170
51
68
119
51
68
119
51
68
119
51
119
170
51
119
170
34
204
221
51
68
119
34
204
221
34
204
221
34
204
221
51
68
119
51
68
119
51
68
119
51
68
119
85
238
238
34
204
221
51
68
119
51
68
119
51
68
119
51
119
170
51
119
170
51
68
119
51
68
119
51
119
170
51
119
170
51
119
170
51
68
119
51
68
119
51
119
170
51
119
170
51
119
170
51
119
170
51
119
170
51
119
170
51
119
170
51
119
170
51
119
170
51
68
119
51
68
119
51
119
170
51
119
170
51
119
170
51
68
119
51
68
119
238
204
153
238
204
153
85
238
238
51
119
170
51
119
170
51
119
170
51
119
170
51
68
119
51
68
119
51
68
119
51
119
170
51
119
170
85
238
238
238
204
153
238
204
153
238
204
153
238
204
153
238
204
153
238
153
102
238
204
153
85
238
238
85
238
238
85
238
238
85
238
238
85
238
238
85
238
238
85
238
238
85
238
238
51
119
170
51
119
170
51
119
170
51
119
170
34
204
221
34
204
221
34
204
221
85
238
238
51
119
170
51
119
170
51
119
170
51
119
170
34
204
221
34
204
221
51
119
170
51
119
170
51
119
170
51
119
170
51
119
170
34
204
221
34
204
221
34
204
221
51
119
170
51
119
170
51
119
170
51
119
170
51
119
170
51
119
170
51
119
170
51
119
170
51
119
170
85
238
238
85
238
238
238
204
153
238
204
153
119
170
51
238
204
153
238
153
102
238
204
153
34
204
221
85
238
238
51
119
170
51
119
170
51
119
170
51
119
170
51
119
170
51
119
170
85
238
238
34
204
221
238
204
153
238
204
153
119
170
51
238
204
153
238
204
153
85
238
238
51
119
170
51
119
170
51
119
170
51
119
170
51
68
119
51
68
119
51
68
119
51
68
119
51
68
119
51
68
119
51
119
170
51
119
170
51
119
170
51
119
170
85
238
238
51
68
119
51
119
170
51
119
170
51
119
170
51
119
170
51
68
119
51
68
119
51
68
119
51
68
119
51
68
119
51
68
119
51
119
170
51
119
170
51
119
170
51
119
170
51
68
119
51
68
119
51
119
170
51
119
170
85
238
238
51
119
170
51
68
119
51
68
119
51
119
170
51
119
170
51
119
170
85
238
238
238
204
153
238
204
153
238
204
153
119
170
51
153
153
136
153
153
136
153
153
136
85
238
238
51
68
119
51
68
119
51
119
170
51
119
170
85
238
238
85
238
238
34
204
221
34
204
221
51
68
119
51
68
119
34
204
221
85
238
238
85
238
238
85
238
238
85
238
238
85
238
238
85
238
238
34
204
221
51
68
119
51
68
119
51
119
170
34
204
221
34
204
221
51
119
170
51
68
119
51
68
119
51
119
170
51
119
170
85
238
238
85
238
238
34
204
221
51
68
119
51
68
119
51
68
119
85
238
238
85
238
238
34
204
221
51
119
170
51
68
119
153
153
136
119
119
119
153
153
136
119
170
51
34
204
221
85
238
238
85
238
238
51
119
170
51
119
170
51
119
170
51
119
170
51
68
119
51
68
119
51
68
119
51
68
119
51
68
119
51
68
119
51
119
170
85
238
238
51
119
170
51
119
170
51
68
119
51
68
119
51
119
170
51
119
170
51
119
170
51
119
170
51
68
119
51
68
119
51
68
119
51
68
119
51
68
119
51
68
119
51
119
170
51
119
170
51
119
170
119
170
51
119
170
51
238
204
153
238
204
153
238
204
153
34
204
221
85
238
238
51
68
119
51
68
119
51
68
119
51
68
119
51
68
119
51
68
119
51
119
170
51
119
170
51
119
170
51
119
170
51
68
119
51
68
119
51
119
170
51
119
170
51
119
170
51
119
170
51
68
119
51
119
170
51
119
170
51
119
170
85
238
238
51
119
170
34
204
221
238
204
153
238
204
153
51
119
170
51
68
119
51
68
119
51
119
170
51
119
170
51
119
170
51
119
170
51
68
119
51
68
119
51
68
119
51
68
119
51
68
119
51
68
119
51
119
170
85
238
238
85
238
238
85
238
238
85
238
238
85
238
238
85
238
238
85
238
238
85
238
238
51
119
170
51
68
119
51
68
119
51
68
119
51
68
119
51
68
119
51
68
119
51
119
170
51
119
170
51
119
170
51
119
170
51
68
119
51
68
119
51
119
170
51
119
170
34
204
221
51
119
170
51
68
119
34
204
221
85
238
238
85
238
238
34
204
221
85
238
238
51
68
119
51
68
119
51
51
51
51
51
51
51
68
119
51
68
119
85
238
238
34
204
221
51
119
170
51
119
170
51
68
119
51
68
119
51
68
119
51
68
119
51
68
119
51
68
119
51
119
170
51
119
170
51
119
170
85
238
238
85
238
238
85
238
238
51
119
170
51
119
170
51
119
170
51
119
170
51
68
119
51
68
119
51
68
119
51
68
119
51
68
119
51
68
119
51
119
170
51
119
170
51
119
170
238
204
153
238
204
153
34
204
221
34
204
221
51
119
170
51
119
170
51
119
170
51
68
119
51
68
119
51
68
119
51
119
170
85
238
238
85
238
238
238
204
153
238
204
153
119
170
51
119
170
51
119
170
51
238
204
153
238
153
102
238
204
153
85
238
238
85
238
238
238
204
153
238
204
153
238
204
153
238
204
153
85
238
238
85
238
238
85
238
238
85
238
238
238
204
153
238
204
153
238
204
153
34
204
221
34
204
221
85
238
238
85
238
238
51
119
170
238
204
153
238
204
153
34
204
221
34
204
221
51
119
170
51
119
170
238
204
153
238
204
153
238
204
153
238
204
153
85
238
238
85
238
238
85
238
238
51
119
170
51
119
170
51
119
170
238
204
153
238
204
153
85
238
238
85
238
238
85
238
238
238
204
153
238
153
102
238
204
153
119
170
51
119
170
51
238
204
153
238
153
102
238
204
153
34
204
221
34
204
221
238
204
153
238
204
153
238
204
153
34
204
221
85
238
238
34
204
221
238
204
153
238
153
102
238
204
153
119
170
51
238
204
153
238
204
153
85
238
238
34
204
221
51
119
170
51
119
170
51
119
170
51
68
119
51
68
119
51
68
119
51
68
119
51
68
119
51
68
119
51
68
119
51
119
170
51
68
119
51
68
119
51
68
119
51
68
119
51
68
119
51
68
119
51
119
170
51
68
119
51
68
119
51
68
119
51
68
119
51
68
119
51
68
119
51
68
119
51
68
119
51
119
170
51
68
119
51
68
119
51
68
119
51
68
119
51
68
119
51
68
119
51
119
170
51
68
119
51
68
119
51
68
119
51
119
170
51
119
170
85
238
238
85
238
238
238
204
153
238
204
153
119
170
51
51
119
68
153
153
136
153
153
136
153
153
136
51
119
170
51
68
119
51
119
170
51
119
170
51
119
170
85
238
238
51
119
170
51
68
119
51
68
119
51
68
119
34
204
221
34
204
221
34
204
221
34
204
221
51
119
170
51
119
170
51
68
119
51
68
119
51
68
119
51
68
119
51
68
119
51
68
119
51
119
170
51
68
119
51
68
119
51
68
119
34
204
221
85
238
238
85
238
238
34
204
221
51
68
119
51
68
119
51
68
119
51
68
119
51
68
119
51
68
119
34
204
221
85
238
238
51
119
170
153
153
136
204
204
187
153
153
136
119
170
51
119
170
51
238
204
153
238
204
153
34
204
221
85
238
238
51
119
170
51
119
170
51
119
170
51
119
170
51
68
119
51
68
119
51
68
119
51
68
119
51
68
119
51
68
119
51
119
170
51
68
119
51
68
119
51
68
119
51
68
119
51
68
119
51
68
119
51
119
170
51
68
119
51
68
119
51
68
119
51
68
119
51
68
119
51
68
119
51
68
119
51
68
119
51
119
170
51
68
119
119
170
51
119
170
51
238
204
153
238
204
153
34
204
221
85
238
238
51
119
170
51
119
170
51
68
119
51
68
119
51
68
119
51
68
119
51
68
119
51
68
119
51
119
170
51
68
119
51
68
119
51
68
119
51
68
119
51
68
119
51
68
119
51
119
170
51
68
119
51
68
119
51
119
170
51
119
170
51
119
170
51
119
170
85
238
238
34
204
221
238
204
153
238
204
153
51
68
119
51
68
119
51
68
119
51
68
119
51
68
119
51
119
170
51
68
119
51
68
119
51
68
119
51
68
119
51
68
119
51
68
119
51
68
119
51
68
119
51
119
170
51
68
119
34
204
221
34
204
221
34
204
221
34
204
221
34
204
221
51
68
119
51
68
119
51
68
119
51
68
119
51
68
119
51
68
119
51
68
119
51
68
119
51
68
119
51
119
170
51
68
119
51
68
119
51
68
119
51
68
119
51
68
119
51
68
119
51
119
170
51
68
119
34
204
221
34
204
221
34
204
221
34
204
221
85
238
238
51
68
119
51
51
51
51
51
51
51
51
51
51
51
51
51
51
51
51
51
51
51
68
119
34
204
221
51
119
170
51
68
119
51
68
119
51
68
119
51
68
119
51
68
119
51
68
119
51
68
119
51
68
119
51
119
170
51
68
119
238
204
153
238
204
153
85
238
238
85
238
238
51
119
170
51
119
170
51
119
170
51
119
170
51
68
119
51
68
119
51
68
119
51
68
119
51
68
119
51
68
119
51
119
170
51
68
119
238
204
153
238
204
153
238
204
153
34
204
221
51
119
170
51
119
170
51
119
170
51
68
119
51
68
119
51
68
119
51
119
170
85
238
238
85
238
238
238
204
153
238
204
153
119
170
51
119
170
51
119
170
51
119
170
51
238
204
153
238
153
102
238
204
153
238
204
153
238
204
153
238
204
153
238
204
153
238
204
153
238
204
153
238
204
153
238
204
153
238
204
153
238
204
153
238
204
153
238
204
153
238
204
153
238
204
153
238
204
153
238
204
153
238
204
153
238
204
153
238
204
153
238
204
153
238
204
153
238
204
153
238
204
153
238
204
153
238
204
153
238
204
153
238
204
153
238
204
153
238
204
153
85
238
238
85
238
238
34
204
221
238
204
153
238
204
153
238
204
153
238
204
153
238
204
153
238
204
153
238
153
102
238
204
153
119
170
51
119
170
51
119
170
51
119
170
51
238
204
153
238
153
102
238
204
153
238
204
153
238
204
153
238
204
153
238
204
153
238
204
153
238
204
153
238
204
153
238
153
102
238
204
153
119
170
51
119
170
51
238
204
153
238
204
153
238
204
153
34
204
221
51
119
170
51
119
170
51
119
170
51
68
119
51
68
119
51
68
119
51
68
119
51
68
119
51
68
119
51
68
119
85
238
238
51
119
170
51
119
170
51
68
119
51
68
119
51
68
119
51
68
119
51
119
170
51
68
119
51
68
119
51
68
119
51
68
119
51
68
119
51
68
119
51
68
119
51
68
119
51
68
119
51
119
170
51
119
170
51
68
119
51
68
119
51
68
119
51
68
119
51
119
170
51
68
119
51
68
119
51
68
119
51
119
170
51
119
170
85
238
238
85
238
238
238
204
153
238
204
153
119
170
51
85
85
85
85
85
85
119
119
119
119
119
119
85
238
238
51
68
119
51
119
170
51
119
170
34
204
221
51
68
119
51
119
170
51
68
119
51
68
119
51
68
119
51
68
119
51
119
170
51
119
170
51
68
119
51
68
119
51
68
119
51
68
119
51
68
119
51
68
119
51
68
119
51
68
119
51
68
119
51
119
170
51
68
119
51
68
119
51
68
119
51
68
119
51
119
170
51
119
170
51
68
119
51
68
119
51
68
119
51
68
119
51
68
119
51
68
119
51
68
119
51
68
119
85
238
238
34
204
221
153
153
136
204
204
187
204
204
187
119
119
119
51
119
68
238
204
153
238
204
153
238
204
153
34
204
221
85
238
238
51
119
170
51
119
170
51
119
170
51
68
119
51
68
119
51
68
119
51
68
119
51
68
119
51
68
119
51
68
119
51
119
170
51
119
170
51
68
119
51
68
119
51
68
119
51
68
119
51
119
170
51
68
119
51
68
119
51
68
119
51
68
119
51
68
119
51
68
119
51
68
119
51
68
119
51
68
119
51
119
170
119
170
51
119
170
51
238
204
153
238
204
153
34
204
221
85
238
238
51
119
170
51
119
170
51
68
119
51
68
119
51
68
119
51
68
119
51
68
119
51
68
119
51
68
119
51
119
170
51
119
170
51
68
119
51
68
119
51
68
119
51
68
119
51
119
170
51
68
119
51
68
119
51
119
170
51
119
170
51
119
170
51
119
170
85
238
238
34
204
221
238
204
153
238
204
153
51
119
170
51
68
119
51
68
119
51
68
119
51
68
119
51
119
170
51
68
119
51
68
119
51
68
119
51
68
119
51
68
119
51
68
119
51
68
119
51
68
119
51
68
119
51
119
170
51
119
170
51
68
119
51
68
119
51
68
119
51
68
119
51
68
119
51
68
119
51
68
119
51
68
119
51
68
119
51
68
119
51
68
119
51
68
119
51
68
119
51
68
119
51
119
170
51
119
170
51
68
119
51
68
119
51
68
119
51
68
119
51
119
170
51
68
119
34
204
221
85
238
238
51
68
119
51
68
119
51
68
119
119
119
119
119
119
119
119
119
119
51
51
51
51
51
51
119
119
119
153
153
136
119
119
119
51
68
119
85
238
238
51
68
119
51
68
119
51
68
119
51
68
119
51
68
119
51
68
119
51
68
119
51
68
119
51
68
119
85
238
238
238
204
153
238
204
153
238
204
153
85
238
238
85
238
238
51
119
170
51
119
170
51
119
170
51
68
119
51
68
119
51
68
119
51
68
119
51
68
119
51
68
119
51
68
119
51
119
170
119
170
51
238
204
153
238
204
153
85
238
238
51
119
170
51
119
170
51
119
170
51
68
119
51
68
119
51
68
119
51
119
170
85
238
238
238
204
153
238
204
153
238
204
153
119
170
51
119
170
51
119
170
51
119
170
51
119
170
51
238
204
153
238
204
153
238
204
153
238
204
153
119
170
51
119
170
51
119
170
51
119
170
51
119
170
51
238
204
153
238
204
153
238
204
153
119
170
51
238
204
153
238
204
153
119
170
51
119
170
51
238
204
153
238
204
153
238
204
153
238
204
153
238
204
153
238
204
153
119
170
51
119
170
51
119
170
51
238
204
153
119
170
51
238
204
153
238
204
153
119
170
51
238
204
153
238
204
153
238
204
153
238
204
153
238
204
153
238
204
153
238
204
153
119
170
51
238
204
153
238
204
153
119
170
51
119
170
51
119
170
51
119
170
51
238
204
153
238
153
102
119
170
51
238
153
102
238
204
153
238
204
153
119
170
51
238
204
153
238
204
153
238
204
153
238
204
153
238
204
153
119
170
51
119
170
51
119
170
51
119
170
51
238
204
153
238
204
153
85
238
238
51
119
170
51
119
170
51
119
170
51
119
170
51
119
170
51
119
170
51
119
170
51
68
119
51
68
119
51
68
119
51
119
170
51
119
170
51
119
170
51
119
170
51
119
170
51
119
170
51
119
170
51
68
119
51
119
170
51
119
170
51
119
170
51
119
170
51
119
170
51
68
119
51
68
119
51
68
119
51
119
170
51
119
170
51
119
170
51
119
170
51
119
170
51
119
170
51
119
170
51
68
119
51
119
170
51
119
170
51
119
170
51
119
170
51
119
170
85
238
238
238
204
153
238
204
153
238
204
153
119
170
51
85
85
85
85
85
85
85
85
85
85
85
85
85
238
238
51
119
170
51
119
170
51
119
170
85
238
238
51
119
170
51
68
119
51
119
170
51
119
170
51
119
170
51
119
170
51
119
170
51
119
170
51
119
170
51
68
119
51
68
119
51
68
119
51
119
170
51
119
170
51
119
170
51
119
170
51
119
170
51
68
119
51
119
170
51
119
170
51
119
170
51
119
170
51
119
170
51
119
170
51
119
170
51
68
119
51
68
119
51
68
119
51
119
170
51
119
170
51
119
170
51
119
170
85
238
238
85
238
238
85
238
238
204
204
187
153
153
136
119
119
119
51
119
68
119
170
51
119
170
51
238
204
153
238
204
153
85
238
238
51
119
170
51
119
170
51
119
170
51
119
170
51
119
170
51
119
170
51
68
119
51
68
119
51
68
119
51
119
170
51
119
170
51
119
170
51
119
170
51
119
170
51
119
170
51
119
170
51
68
119
51
119
170
51
119
170
51
119
170
51
119
170
51
119
170
51
68
119
51
68
119
51
68
119
51
119
170
51
119
170
119
170
51
119
170
51
238
204
153
238
204
153
34
204
221
85
238
238
51
119
170
51
119
170
51
119
170
51
119
170
51
119
170
51
68
119
51
68
119
51
68
119
51
119
170
51
119
170
51
119
170
51
119
170
51
119
170
51
119
170
51
119
170
51
68
119
51
119
170
51
119
170
51
119
170
51
119
170
51
119
170
85
238
238
34
204
221
238
204
153
238
153
102
238
204
153
51
119
170
51
119
170
51
119
170
51
119
170
51
119
170
51
68
119
51
119
170
51
119
170
51
119
170
51
119
170
51
119
170
51
68
119
51
68
119
51
68
119
51
119
170
51
119
170
51
119
170
51
119
170
51
68
119
51
68
119
51
68
119
51
119
170
51
119
170
51
119
170
51
119
170
51
119
170
51
119
170
51
68
119
51
68
119
51
68
119
51
119
170
51
119
170
51
119
170
51
119
170
51
119
170
51
119
170
51
119
170
51
68
119
51
119
170
85
238
238
51
68
119
51
68
119
51
68
119
51
68
119
119
119
119
119
119
119
119
119
119
119
170
51
119
170
51
153
153
136
153
153
136
153
153
136
51
68
119
85
238
238
85
238
238
51
119
170
51
119
170
51
119
170
51
119
170
51
68
119
51
68
119
51
68
119
51
119
170
51
119
170
238
204
153
238
204
153
238
153
102
238
204
153
85
238
238
85
238
238
51
119
170
51
119
170
51
119
170
51
119
170
51
119
170
51
68
119
51
68
119
51
68
119
51
119
170
51
119
170
119
170
51
238
204
153
238
204
153
85
238
238
85
238
238
51
119
170
51
119
170
51
68
119
51
68
119
51
119
170
51
119
170
34
204
221
238
204
153
238
204
153
238
204
153
119
170
51
119
170
51
238
204
153
238
204
153
85
238
238
51
119
170
51
119
170
51
119
170
51
68
119
51
68
119
51
68
119
51
68
119
51
119
170
51
119
170
51
119
170
51
119
170
51
68
119
238
204
153
238
204
153
119
170
51
238
204
153
238
204
153
238
204
153
238
204
153
238
204
153
238
204
153
119
170
51
119
170
51
119
170
51
119
170
51
119
170
51
119
170
51
119
170
51
51
68
119
51
68
119
51
119
170
51
68
119
51
68
119
51
119
170
51
119
170
51
68
119
51
68
119
51
119
170
51
119
170
34
204
221
238
204
153
238
204
153
238
204
153
238
204
153
238
204
153
238
204
153
238
204
153
34
204
221
34
204
221
51
119
170
51
119
170
51
68
119
51
68
119
51
119
170
51
119
170
51
119
170
85
238
238
238
204
153
238
204
153
238
204
153
119
170
51
238
204
153
238
204
153
85
238
238
85
238
238
51
119
170
51
119
170
51
68
119
51
68
119
51
68
119
51
68
119
51
119
170
51
119
170
51
119
170
51
119
170
51
68
119
238
204
153
238
204
153
238
204
153
238
204
153
238
204
153
238
204
153
238
204
153
238
204
153
238
204
153
238
204
153
238
204
153
238
204
153
238
204
153
238
204
153
238
204
153
238
204
153
51
68
119
51
68
119
51
119
170
51
68
119
51
68
119
51
119
170
51
119
170
51
68
119
51
119
170
51
119
170
51
119
170
34
204
221
238
204
153
238
204
153
238
204
153
119
170
51
51
119
68
153
153
136
153
153
136
119
119
119
51
119
170
85
238
238
51
119
170
51
119
170
85
238
238
51
119
170
51
119
170
51
68
119
51
68
119
51
119
170
51
68
119
51
68
119
238
204
153
238
204
153
238
204
153
238
204
153
238
204
153
238
204
153
238
204
153
238
204
153
238
204
153
238
204
153
238
204
153
238
204
153
238
204
153
238
204
153
119
170
51
119
170
51
51
68
119
51
119
170
51
119
170
51
119
170
51
119
170
51
68
119
51
68
119
51
68
119
51
119
170
34
204
221
51
119
170
85
238
238
153
153
136
204
204
187
204
204
187
119
170
51
51
68
119
51
68
119
51
119
170
51
68
119
51
68
119
51
119
170
51
119
170
51
68
119
51
68
119
51
119
170
51
119
170
51
119
170
34
204
221
238
204
153
238
204
153
238
204
153
238
204
153
238
204
153
238
204
153
34
204
221
34
204
221
51
119
170
51
119
170
51
68
119
51
68
119
51
68
119
51
68
119
51
119
170
51
119
170
85
238
238
51
119
170
51
68
119
119
170
51
238
204
153
238
204
153
34
204
221
34
204
221
51
119
170
51
119
170
51
68
119
51
68
119
51
68
119
51
68
119
51
119
170
51
119
170
51
119
170
51
119
170
51
68
119
51
68
119
51
68
119
51
119
170
51
68
119
51
68
119
51
119
170
51
119
170
51
68
119
51
119
170
51
119
170
51
119
170
85
238
238
238
204
153
238
204
153
238
204
153
119
170
51
51
68
119
51
68
119
51
119
170
51
68
119
51
68
119
51
119
170
51
119
170
51
68
119
51
68
119
51
68
119
51
68
119
51
119
170
51
119
170
51
119
170
51
119
170
51
68
119
51
68
119
51
68
119
51
119
170
51
68
119
51
68
119
51
119
170
51
119
170
51
68
119
51
68
119
51
68
119
51
68
119
51
119
170
51
119
170
51
119
170
51
119
170
51
68
119
51
68
119
51
68
119
51
119
170
51
68
119
51
68
119
51
119
170
51
119
170
85
238
238
51
68
119
51
68
119
85
238
238
51
68
119
51
51
51
51
51
51
51
51
51
187
221
68
119
170
51
119
119
119
119
119
119
119
119
119
85
238
238
34
204
221
34
204
221
34
204
221
51
68
119
51
68
119
51
68
119
51
119
170
51
119
170
85
238
238
51
119
170
51
68
119
119
170
51
238
204
153
238
204
153
85
238
238
51
119
170
51
119
170
51
119
170
51
68
119
51
68
119
51
119
170
51
119
170
51
119
170
85
238
238
238
204
153
238
204
153
119
170
51
119
170
51
238
204
153
238
204
153
85
238
238
85
238
238
51
119
170
51
119
170
51
68
119
51
68
119
51
119
170
51
119
170
34
204
221
34
204
221
238
204
153
238
204
153
119
170
51
238
204
153
238
204
153
238
204
153
85
238
238
51
119
170
51
119
170
51
119
170
51
68
119
51
68
119
51
68
119
51
68
119
51
68
119
51
68
119
51
119
170
51
68
119
51
68
119
238
204
153
238
204
153
238
204
153
238
204
153
238
204
153
238
204
153
238
204
153
238
204
153
238
153
102
238
204
153
119
170
51
238
204
153
238
204
153
238
204
153
238
204
153
238
204
153
51
68
119
51
68
119
51
68
119
51
119
170
51
119
170
51
119
170
51
68
119
51
68
119
51
68
119
51
119
170
51
119
170
85
238
238
34
204
221
238
204
153
238
204
153
238
204
153
238
204
153
238
204
153
238
204
153
34
204
221
85
238
238
51
119
170
51
119
170
51
68
119
51
68
119
51
119
170
51
119
170
51
119
170
85
238
238
85
238
238
238
204
153
238
204
153
119
170
51
238
204
153
238
204
153
85
238
238
85
238
238
51
119
170
51
119
170
51
68
119
51
68
119
51
68
119
51
68
119
51
68
119
51
68
119
51
119
170
51
68
119
51
68
119
238
204
153
238
204
153
238
204
153
238
204
153
238
204
153
238
204
153
238
204
153
238
204
153
238
204
153
238
204
153
238
204
153
238
204
153
238
204
153
238
204
153
238
204
153
238
204
153
51
68
119
51
68
119
51
68
119
51
119
170
51
119
170
51
119
170
51
68
119
51
68
119
51
119
170
51
119
170
51
119
170
34
204
221
34
204
221
238
204
153
238
204
153
119
170
51
119
170
51
119
170
51
119
119
119
119
119
119
119
119
119
51
119
170
51
119
170
85
238
238
85
238
238
51
68
119
51
119
170
51
119
170
51
119
170
51
68
119
51
68
119
51
68
119
238
204
153
238
204
153
238
204
153
238
204
153
238
204
153
238
204
153
238
204
153
51
119
170
51
119
170
34
204
221
238
204
153
238
204
153
238
153
102
238
204
153
238
204
153
119
170
51
51
68
119
51
68
119
34
204
221
51
68
119
51
68
119
51
68
119
51
68
119
51
68
119
51
119
170
51
119
170
51
119
170
119
119
119
153
153
136
204
204
187
204
204
187
119
170
51
51
68
119
51
68
119
51
68
119
51
119
170
51
119
170
51
119
170
51
68
119
51
68
119
51
68
119
51
119
170
51
119
170
51
119
170
51
119
170
34
204
221
238
204
153
238
204
153
238
204
153
238
204
153
238
204
153
85
238
238
51
119
170
51
119
170
51
119
170
51
68
119
51
68
119
51
68
119
51
68
119
51
68
119
51
68
119
51
119
170
51
68
119
51
68
119
119
170
51
238
204
153
238
204
153
34
204
221
51
119
170
85
238
238
51
119
170
51
68
119
51
68
119
51
68
119
51
68
119
51
68
119
51
68
119
51
119
170
51
68
119
51
68
119
51
68
119
51
68
119
51
68
119
51
119
170
51
119
170
51
119
170
51
68
119
51
68
119
51
119
170
51
119
170
51
119
170
34
204
221
85
238
238
238
204
153
238
204
153
119
170
51
51
68
119
51
68
119
51
68
119
51
119
170
51
119
170
51
119
170
51
68
119
51
68
119
51
68
119
51
68
119
51
68
119
51
68
119
51
68
119
51
119
170
51
68
119
51
68
119
51
68
119
51
68
119
51
68
119
51
119
170
51
119
170
51
119
170
51
68
119
51
68
119
51
68
119
51
68
119
51
68
119
51
68
119
51
68
119
51
119
170
51
68
119
51
68
119
51
68
119
51
68
119
51
68
119
51
119
170
51
119
170
51
119
170
34
204
221
34
204
221
51
68
119
51
68
119
85
238
238
119
119
119
51
51
51
119
119
119
119
119
119
119
119
119
204
204
187
153
153
136
119
119
119
119
119
119
85
238
238
34
204
221
51
119
170
85
238
238
51
68
119
51
68
119
51
68
119
51
68
119
51
68
119
51
119
170
51
68
119
51
68
119
119
170
51
238
204
153
238
204
153
85
238
238
51
119
170
51
119
170
51
119
170
51
68
119
51
68
119
51
119
170
51
119
170
51
119
170
85
238
238
85
238
238
238
204
153
238
204
153
119
170
51
238
204
153
238
204
153
85
238
238
85
238
238
51
119
170
51
119
170
51
119
170
51
68
119
51
68
119
51
119
170
51
119
170
34
204
221
238
204
153
238
204
153
119
170
51
238
204
153
238
153
102
238
204
153
85
238
238
51
119
170
51
119
170
51
119
170
51
119
170
51
68
119
51
68
119
51
68
119
51
68
119
51
68
119
51
68
119
51
119
170
51
68
119
51
119
170
238
204
153
238
204
153
238
204
153
85
238
238
85
238
238
51
119
170
51
119
170
238
204
153
238
204
153
238
204
153
238
204
153
238
204
153
238
204
153
238
204
153
238
204
153
51
68
119
51
68
119
51
68
119
51
68
119
51
68
119
51
119
170
51
68
119
51
68
119
51
68
119
51
68
119
51
119
170
51
119
170
85
238
238
238
204
153
238
204
153
238
204
153
238
204
153
238
204
153
238
204
153
34
204
221
85
238
238
51
119
170
51
119
170
51
119
170
51
68
119
51
68
119
51
119
170
51
119
170
51
119
170
85
238
238
238
204
153
238
204
153
119
170
51
238
204
153
238
204
153
85
238
238
85
238
238
51
119
170
51
119
170
51
119
170
51
68
119
51
68
119
51
68
119
51
68
119
51
68
119
51
68
119
51
119
170
51
68
119
238
204
153
238
204
153
238
204
153
238
204
153
238
204
153
238
204
153
238
204
153
238
204
153
238
204
153
238
204
153
238
204
153
238
204
153
238
204
153
238
204
153
238
204
153
238
204
153
51
68
119
51
68
119
51
68
119
51
68
119
51
68
119
51
119
170
51
68
119
51
68
119
51
68
119
51
119
170
51
119
170
51
119
170
34
204
221
238
204
153
238
204
153
119
170
51
119
170
51
119
170
51
153
153
136
119
119
119
119
119
119
119
119
119
51
119
170
85
238
238
85
238
238
34
204
221
51
119
170
51
68
119
51
68
119
51
68
119
51
68
119
51
68
119
51
119
170
238
204
153
238
204
153
238
204
153
34
204
221
85
238
238
51
119
170
51
119
170
51
119
170
51
119
170
51
119
170
85
238
238
238
204
153
238
153
102
238
204
153
238
204
153
51
68
119
51
119
170
51
68
119
51
68
119
51
68
119
51
68
119
51
68
119
51
68
119
51
119
170
85
238
238
119
119
119
119
119
119
153
153
136
153
153
136
153
153
136
119
170
51
51
68
119
51
68
119
51
68
119
51
68
119
51
68
119
51
119
170
51
68
119
51
68
119
51
68
119
51
68
119
51
119
170
51
119
170
51
119
170
85
238
238
238
204
153
238
204
153
238
204
153
238
153
102
238
204
153
85
238
238
51
119
170
51
119
170
51
119
170
51
119
170
51
68
119
51
68
119
51
68
119
51
68
119
51
68
119
51
68
119
51
119
170
51
68
119
119
170
51
238
204
153
238
204
153
34
204
221
51
119
170
85
238
238
51
119
170
51
119
170
51
68
119
51
68
119
51
68
119
51
68
119
51
68
119
51
68
119
51
119
170
51
68
119
51
68
119
51
68
119
51
68
119
51
68
119
51
68
119
51
119
170
51
68
119
51
68
119
51
68
119
51
119
170
51
119
170
51
119
170
85
238
238
238
204
153
238
204
153
119
170
51
51
68
119
51
68
119
51
68
119
51
68
119
51
68
119
51
119
170
51
68
119
51
68
119
51
68
119
51
68
119
51
68
119
51
68
119
51
68
119
51
68
119
51
119
170
51
68
119
51
68
119
51
68
119
51
68
119
51
68
119
51
68
119
51
119
170
51
68
119
51
68
119
51
68
119
51
68
119
51
68
119
51
68
119
51
68
119
51
68
119
51
119
170
51
68
119
51
68
119
51
68
119
51
68
119
51
68
119
51
68
119
51
119
170
85
238
238
34
204
221
51
68
119
51
68
119
51
119
170
119
119
119
119
119
119
119
119
119
153
153
136
153
153
136
204
204
187
204
204
187
204
204
187
153
153
136
119
119
119
85
238
238
34
204
221
85
238
238
51
68
119
51
68
119
51
68
119
51
68
119
51
68
119
51
68
119
51
119
170
51
68
119
238
204
153
238
204
153
238
204
153
85
238
238
51
119
170
51
119
170
51
119
170
51
119
170
51
68
119
51
68
119
51
119
170
51
119
170
51
119
170
85
238
238
238
204
153
238
153
102
238
204
153
238
204
153
238
204
153
238
204
153
85
238
238
51
119
170
51
119
170
51
119
170
51
68
119
51
68
119
51
119
170
51
119
170
51
119
170
238
204
153
238
204
153
238
204
153
51
119
170
238
204
153
85
238
238
51
119
170
51
119
170
51
119
170
51
119
170
51
119
170
51
68
119
51
68
119
51
68
119
51
68
119
51
68
119
51
68
119
51
68
119
51
119
170
51
119
170
51
119
170
85
238
238
85
238
238
85
238
238
51
119
170
51
119
170
51
119
170
51
119
170
238
204
153
238
204
153
238
204
153
85
238
238
85
238
238
51
119
170
51
119
170
51
119
170
51
68
119
51
68
119
51
68
119
51
68
119
51
68
119
51
119
170
51
68
119
51
68
119
51
68
119
51
119
170
51
119
170
51
119
170
238
204
153
238
204
153
238
204
153
238
204
153
238
204
153
238
204
153
238
204
153
34
204
221
51
119
170
51
119
170
51
119
170
51
68
119
51
68
119
51
119
170
51
119
170
51
119
170
51
119
170
85
238
238
238
204
153
119
170
51
238
204
153
238
204
153
238
204
153
85
238
238
51
119
170
51
119
170
51
119
170
51
68
119
51
68
119
51
68
119
51
68
119
51
68
119
51
68
119
51
68
119
51
119
170
238
204
153
238
204
153
238
204
153
238
204
153
238
204
153
238
204
153
238
204
153
238
204
153
238
204
153
238
204
153
238
204
153
238
204
153
238
204
153
238
204
153
238
204
153
238
204
153
51
119
170
51
68
119
51
68
119
51
68
119
51
68
119
51
68
119
51
119
170
51
68
119
51
68
119
51
119
170
51
119
170
51
119
170
51
119
170
238
204
153
238
204
153
238
204
153
119
170
51
119
170
51
153
153
136
119
119
119
119
119
119
34
204
221
51
119
170
85
238
238
85
238
238
34
204
221
51
68
119
51
68
119
51
68
119
51
68
119
51
68
119
51
119
170
51
119
170
51
119
170
34
204
221
34
204
221
85
238
238
51
119
170
51
119
170
51
119
170
51
119
170
51
119
170
51
119
170
51
119
170
85
238
238
238
204
153
238
204
153
238
204
153
51
119
170
51
68
119
51
68
119
51
68
119
51
68
119
51
68
119
51
68
119
51
68
119
85
238
238
51
119
170
119
119
119
119
119
119
119
119
119
153
153
136
51
119
68
119
170
51
51
119
170
51
68
119
51
68
119
51
68
119
51
68
119
51
68
119
51
119
170
51
68
119
51
68
119
51
68
119
51
119
170
51
119
170
51
119
170
85
238
238
238
204
153
238
204
153
51
119
170
238
204
153
85
238
238
51
119
170
51
119
170
51
119
170
51
119
170
51
119
170
51
68
119
51
68
119
51
68
119
51
68
119
51
68
119
51
68
119
51
68
119
51
119
170
119
170
51
238
204
153
238
204
153
238
204
153
85
238
238
51
119
170
51
119
170
51
119
170
51
68
119
51
68
119
51
68
119
51
68
119
51
68
119
51
68
119
51
68
119
51
119
170
51
119
170
51
68
119
51
68
119
51
68
119
51
68
119
51
68
119
51
119
170
51
68
119
51
68
119
51
119
170
51
119
170
85
238
238
51
119
170
238
204
153
238
204
153
238
204
153
51
119
170
51
68
119
51
68
119
51
68
119
51
68
119
51
68
119
51
119
170
51
68
119
51
68
119
51
68
119
51
68
119
51
68
119
51
68
119
51
68
119
51
68
119
51
119
170
51
119
170
51
68
119
51
68
119
51
68
119
51
68
119
51
68
119
51
119
170
51
68
119
51
68
119
51
68
119
51
68
119
51
68
119
51
68
119
51
68
119
51
68
119
51
119
170
51
119
170
51
68
119
51
68
119
51
68
119
51
68
119
51
68
119
85
238
238
34
204
221
85
238
238
51
68
119
51
68
119
51
119
170
119
119
119
153
153
136
153
153
136
204
204
187
153
153
136
204
204
187
204
204
187
204
204
187
153
153
136
85
238
238
51
119
170
34
204
221
34
204
221
51
68
119
51
68
119
51
68
119
51
68
119
51
68
119
51
68
119
51
119
170
238
204
153
238
204
153
85
238
238
51
119
170
51
119
170
51
119
170
51
119
170
51
119
170
51
68
119
51
68
119
51
119
170
51
119
170
51
119
170
51
119
170
85
238
238
238
204
153
238
204
153
119
170
51
238
204
153
238
204
153
85
238
238
51
119
170
51
119
170
51
119
170
51
68
119
51
68
119
51
119
170
51
119
170
51
119
170
51
119
170
238
204
153
238
204
153
51
119
170
51
119
170
51
119
170
51
119
170
51
119
170
51
119
170
51
119
170
51
119
170
51
119
170
51
68
119
51
68
119
51
68
119
51
68
119
51
68
119
51
68
119
51
68
119
51
119
170
51
119
170
51
119
170
51
119
170
51
119
170
51
119
170
51
119
170
51
119
170
51
119
170
51
119
170
85
238
238
85
238
238
51
119
170
51
119
170
51
119
170
51
119
170
51
119
170
51
119
170
51
68
119
51
119
170
51
119
170
51
119
170
85
238
238
51
119
170
51
119
170
51
68
119
51
119
170
51
119
170
51
119
170
51
119
170
238
204
153
238
204
153
238
204
153
238
204
153
238
204
153
238
204
153
34
204
221
51
119
170
51
119
170
51
119
170
51
119
170
51
68
119
51
119
170
51
119
170
51
119
170
51
119
170
51
119
170
51
119
170
119
170
51
119
170
51
238
204
153
238
204
153
85
238
238
51
119
170
51
119
170
51
119
170
51
119
170
51
68
119
51
68
119
51
68
119
51
68
119
51
68
119
51
68
119
51
68
119
238
204
153
238
204
153
238
204
153
238
204
153
238
204
153
238
204
153
238
204
153
238
204
153
238
204
153
238
204
153
238
204
153
238
204
153
238
204
153
238
204
153
238
204
153
238
204
153
51
119
170
51
119
170
51
68
119
51
119
170
51
119
170
51
119
170
51
119
170
51
119
170
51
119
170
51
119
170
51
119
170
51
119
170
51
119
170
51
119
170
238
204
153
238
204
153
119
170
51
153
153
136
153
153
136
85
85
85
85
238
238
51
119
170
51
119
170
34
204
221
85
238
238
34
204
221
51
119
170
51
119
170
51
119
170
51
68
119
51
119
170
51
119
170
51
119
170
51
119
170
51
119
170
51
119
170
51
119
170
51
119
170
51
119
170
51
119
170
51
119
170
51
119
170
51
119
170
51
119
170
34
204
221
238
204
153
238
204
153
238
204
153
51
68
119
51
68
119
51
68
119
51
68
119
51
68
119
51
68
119
51
68
119
51
119
170
85
238
238
51
119
170
51
119
170
85
238
238
85
85
85
153
153
136
153
153
136
119
170
51
51
119
170
51
119
170
51
68
119
51
119
170
51
119
170
51
119
170
85
238
238
51
119
170
51
119
170
51
68
119
51
119
170
51
119
170
51
119
170
51
119
170
85
238
238
238
204
153
51
119
170
51
119
170
51
119
170
51
119
170
51
119
170
51
119
170
51
119
170
51
119
170
51
119
170
51
68
119
51
68
119
51
68
119
51
68
119
51
68
119
51
68
119
51
68
119
119
170
51
119
170
51
238
204
153
238
204
153
85
238
238
51
119
170
85
238
238
51
119
170
51
119
170
51
68
119
51
68
119
51
68
119
51
68
119
51
68
119
51
68
119
51
68
119
51
119
170
51
119
170
51
68
119
51
119
170
51
119
170
51
119
170
51
119
170
51
119
170
51
119
170
51
119
170
51
119
170
85
238
238
51
119
170
34
204
221
238
204
153
238
204
153
51
119
170
51
119
170
51
68
119
51
119
170
51
119
170
51
119
170
85
238
238
51
119
170
51
119
170
51
68
119
51
68
119
51
68
119
51
68
119
51
68
119
51
68
119
51
68
119
51
119
170
51
119
170
51
68
119
51
119
170
51
119
170
51
119
170
85
238
238
51
119
170
51
119
170
51
68
119
51
68
119
51
68
119
51
68
119
51
68
119
51
68
119
51
68
119
51
119
170
51
119
170
51
68
119
51
119
170
51
119
170
51
119
170
34
204
221
34
204
221
85
238
238
51
68
119
51
68
119
51
68
119
51
119
170
153
153
136
204
204
187
204
204
187
153
153
136
204
204
187
204
204
187
204
204
187
153
153
136
85
238
238
51
119
170
34
204
221
34
204
221
51
68
119
51
68
119
51
68
119
51
68
119
51
68
119
51
68
119
51
68
119
51
119
170
51
119
170
51
119
170
51
119
170
51
119
170
51
119
170
51
119
170
51
119
170
51
119
170
51
68
119
51
119
170
51
119
170
51
119
170
51
119
170
51
119
170
51
119
170
238
204
153
119
170
51
238
204
153
238
204
153
34
204
221
51
119
170
51
119
170
51
119
170
51
68
119
51
68
119
51
119
170
51
119
170
51
119
170
51
119
170
238
204
153
119
170
51
51
119
170
51
119
170
51
119
170
51
119
170
51
119
170
51
119
170
51
119
170
51
119
170
51
119
170
51
119
170
51
119
170
51
68
119
51
68
119
51
68
119
51
119
170
51
119
170
51
119
170
51
119
170
51
119
170
51
119
170
51
119
170
51
119
170
51
119
170
51
119
170
51
119
170
51
119
170
51
119
170
51
119
170
51
119
170
51
119
170
51
119
170
51
119
170
51
68
119
51
119
170
51
119
170
51
68
119
51
68
119
51
68
119
51
68
119
51
119
170
51
119
170
51
119
170
51
119
170
51
119
170
51
119
170
51
119
170
238
204
153
238
204
153
238
204
153
238
204
153
238
204
153
238
204
153
34
204
221
51
119
170
51
119
170
51
119
170
51
119
170
51
119
170
51
119
170
51
119
170
51
119
170
51
119
170
51
119
170
51
119
170
119
170
51
119
170
51
238
204
153
238
204
153
85
238
238
51
119
170
51
119
170
51
119
170
51
119
170
51
119
170
51
119
170
51
68
119
51
68
119
51
68
119
51
119
170
51
119
170
238
204
153
238
204
153
238
204
153
238
204
153
238
204
153
238
204
153
238
204
153
238
204
153
238
204
153
238
204
153
238
204
153
238
204
153
238
204
153
238
204
153
238
204
153
238
204
153
51
68
119
51
119
170
51
119
170
51
68
119
51
68
119
51
68
119
51
68
119
51
119
170
51
119
170
51
119
170
51
119
170
51
119
170
51
119
170
51
119
170
238
204
153
238
204
153
119
170
51
119
119
119
85
85
85
85
85
85
85
238
238
51
119
170
51
119
170
34
204
221
85
238
238
34
204
221
51
68
119
51
68
119
51
68
119
51
119
170
51
119
170
51
68
119
51
119
170
51
119
170
51
119
170
51
119
170
51
119
170
51
119
170
51
119
170
51
119
170
51
119
170
51
119
170
51
119
170
51
119
170
34
204
221
238
204
153
238
204
153
238
204
153
51
119
170
51
119
170
51
68
119
51
68
119
51
68
119
51
119
170
51
119
170
51
119
170
51
119
170
51
119
170
51
119
170
85
238
238
119
119
119
119
119
119
119
119
119
119
170
51
51
68
119
51
119
170
51
119
170
51
68
119
51
68
119
51
68
119
51
68
119
51
119
170
51
119
170
51
119
170
51
119
170
51
119
170
51
119
170
51
119
170
51
119
170
51
119
170
51
119
170
51
119
170
51
119
170
51
119
170
51
119
170
51
119
170
51
119
170
51
119
170
51
119
170
51
119
170
51
119
170
51
68
119
51
68
119
51
68
119
51
119
170
51
119
170
119
170
51
119
170
51
238
204
153
238
204
153
85
238
238
51
119
170
85
238
238
51
119
170
51
119
170
51
119
170
51
119
170
51
68
119
51
68
119
51
68
119
51
119
170
51
119
170
51
68
119
51
119
170
51
119
170
51
68
119
51
68
119
51
68
119
51
68
119
51
119
170
51
119
170
51
119
170
85
238
238
85
238
238
51
119
170
34
204
221
238
153
102
238
204
153
51
68
119
51
119
170
51
119
170
51
68
119
51
68
119
51
68
119
51
68
119
51
119
170
51
119
170
51
119
170
51
119
170
51
68
119
51
68
119
51
68
119
51
119
170
51
119
170
51
68
119
51
119
170
51
119
170
51
68
119
51
68
119
51
68
119
51
68
119
51
119
170
51
119
170
51
119
170
51
119
170
51
68
119
51
68
119
51
68
119
51
119
170
51
119
170
51
68
119
51
119
170
51
119
170
51
68
119
51
68
119
51
68
119
51
68
119
51
119
170
34
204
221
85
238
238
51
68
119
51
68
119
51
119
170
153
153
136
204
204
187
204
204
187
153
153
136
204
204
187
153
153
136
119
119
119
85
238
238
51
119
170
85
238
238
34
204
221
51
119
170
51
119
170
51
119
170
51
68
119
51
68
119
51
68
119
51
119
170
51
119
170
51
119
170
51
119
170
51
119
170
51
119
170
51
119
170
51
119
170
51
119
170
51
119
170
51
119
170
51
119
170
51
119
170
51
119
170
51
119
170
51
119
170
51
119
170
51
119
170
238
204
153
238
204
153
238
204
153
238
204
153
34
204
221
51
119
170
51
119
170
51
68
119
51
68
119
51
68
119
51
119
170
51
119
170
51
119
170
85
238
238
238
204
153
119
170
51
51
119
170
51
119
170
51
119
170
51
119
170
51
119
170
51
119
170
51
119
170
51
119
170
51
68
119
51
68
119
51
68
119
85
238
238
51
119
170
51
119
170
51
68
119
51
68
119
51
68
119
51
68
119
51
119
170
51
119
170
51
119
170
51
68
119
51
68
119
51
68
119
51
68
119
51
68
119
51
68
119
51
119
170
51
119
170
51
119
170
51
119
170
51
119
170
51
68
119
51
68
119
51
119
170
51
119
170
51
68
119
51
68
119
51
68
119
51
68
119
51
68
119
51
68
119
51
119
170
51
119
170
51
119
170
85
238
238
238
204
153
238
204
153
238
204
153
238
204
153
238
204
153
238
204
153
34
204
221
51
119
170
51
119
170
51
68
119
51
68
119
51
68
119
51
68
119
51
119
170
51
119
170
51
119
170
51
119
170
51
119
170
119
170
51
238
204
153
238
204
153
238
204
153
85
238
238
51
119
170
51
119
170
51
68
119
51
68
119
51
68
119
51
68
119
51
119
170
51
119
170
51
119
170
51
68
119
51
68
119
238
204
153
238
204
153
238
204
153
238
204
153
238
204
153
238
204
153
238
204
153
238
204
153
238
204
153
238
204
153
238
204
153
238
204
153
238
204
153
238
204
153
238
204
153
238
204
153
51
68
119
51
68
119
85
238
238
51
119
170
51
68
119
51
68
119
51
68
119
51
68
119
51
68
119
51
119
170
51
119
170
51
119
170
51
119
170
51
119
170
238
204
153
238
204
153
51
119
68
153
153
136
119
119
119
85
238
238
85
238
238
85
238
238
51
119
170
51
119
170
34
204
221
51
68
119
51
68
119
51
68
119
51
119
170
51
119
170
51
68
119
51
68
119
51
68
119
51
68
119
51
119
170
51
119
170
51
119
170
51
68
119
51
68
119
51
68
119
51
119
170
51
119
170
51
119
170
51
119
170
85
238
238
34
204
221
238
204
153
238
204
153
51
68
119
51
68
119
51
119
170
51
119
170
51
119
170
51
68
119
51
68
119
51
68
119
51
68
119
85
238
238
34
204
221
51
119
170
85
238
238
119
119
119
153
153
136
51
119
68
51
68
119
51
68
119
51
119
170
51
119
170
51
68
119
51
68
119
51
68
119
51
68
119
51
68
119
51
68
119
51
68
119
51
119
170
51
119
170
51
119
170
51
119
170
51
119
170
51
119
170
51
119
170
51
119
170
51
119
170
51
119
170
51
119
170
51
119
170
51
68
119
51
68
119
51
68
119
51
68
119
85
238
238
51
119
170
51
119
170
51
68
119
51
68
119
119
170
51
238
204
153
238
204
153
238
204
153
85
238
238
51
119
170
85
238
238
51
119
170
51
68
119
51
68
119
51
68
119
51
119
170
51
119
170
51
119
170
51
68
119
51
68
119
51
68
119
51
68
119
85
238
238
51
119
170
51
68
119
51
68
119
51
68
119
51
68
119
51
68
119
51
119
170
85
238
238
51
119
170
85
238
238
238
204
153
238
153
102
238
204
153
51
68
119
51
68
119
51
119
170
51
119
170
51
68
119
51
68
119
51
68
119
51
68
119
51
68
119
51
68
119
51
68
119
51
119
170
51
119
170
51
119
170
51
68
119
51
68
119
51
68
119
51
68
119
51
119
170
51
119
170
51
68
119
51
68
119
51
68
119
51
68
119
51
68
119
51
68
119
51
68
119
51
119
170
51
119
170
51
119
170
51
68
119
51
68
119
51
68
119
51
68
119
85
238
238
51
119
170
51
68
119
51
68
119
51
68
119
51
68
119
51
68
119
34
204
221
51
68
119
51
68
119
51
68
119
51
119
170
153
153
136
204
204
187
153
153
136
153
153
136
119
119
119
85
238
238
51
119
170
85
238
238
34
204
221
34
204
221
51
68
119
51
68
119
51
68
119
34
204
221
51
119
170
51
119
170
51
68
119
51
68
119
51
119
170
51
119
170
51
119
170
51
119
170
51
119
170
51
119
170
51
119
170
51
68
119
51
68
119
51
68
119
51
119
170
51
119
170
51
119
170
51
119
170
51
119
170
51
119
170
238
204
153
238
204
153
238
204
153
34
204
221
51
119
170
51
119
170
51
119
170
51
68
119
51
68
119
51
68
119
51
119
170
51
119
170
51
119
170
85
238
238
238
204
153
119
170
51
51
68
119
51
68
119
51
119
170
51
119
170
51
119
170
51
119
170
51
119
170
51
68
119
51
68
119
51
68
119
51
68
119
51
119
170
51
68
119
51
68
119
51
68
119
51
68
119
51
68
119
51
68
119
51
119
170
51
119
170
85
238
238
51
119
170
51
68
119
51
68
119
51
68
119
51
68
119
51
68
119
51
119
170
51
68
119
51
68
119
51
68
119
51
68
119
51
68
119
51
68
119
51
119
170
51
119
170
51
119
170
51
119
170
51
68
119
51
68
119
51
68
119
51
68
119
51
119
170
51
119
170
51
119
170
85
238
238
238
204
153
238
204
153
238
204
153
238
204
153
238
204
153
34
204
221
51
119
170
51
119
170
51
119
170
51
68
119
51
68
119
51
68
119
51
68
119
51
119
170
51
68
119
51
68
119
51
119
170
51
119
170
119
170
51
238
204
153
238
204
153
34
204
221
51
119
170
51
119
170
51
119
170
51
68
119
51
68
119
51
68
119
51
68
119
51
119
170
51
68
119
51
68
119
51
68
119
51
68
119
238
204
153
238
204
153
238
204
153
238
204
153
238
204
153
238
204
153
238
204
153
238
204
153
238
204
153
238
204
153
238
204
153
238
204
153
238
204
153
238
204
153
238
204
153
238
204
153
51
68
119
51
68
119
51
119
170
51
119
170
51
119
170
51
119
170
51
68
119
51
68
119
51
68
119
51
119
170
51
119
170
51
119
170
51
119
170
85
238
238
238
204
153
238
204
153
51
119
68
51
119
68
119
119
119
119
119
119
85
238
238
85
238
238
51
119
170
51
119
170
34
204
221
51
68
119
34
204
221
51
119
170
51
119
170
51
119
170
51
68
119
51
68
119
51
68
119
51
68
119
51
68
119
51
68
119
51
119
170
51
119
170
51
68
119
51
68
119
51
68
119
51
119
170
51
119
170
51
119
170
85
238
238
34
204
221
238
204
153
238
204
153
51
68
119
51
68
119
51
68
119
51
68
119
51
119
170
51
68
119
51
68
119
51
68
119
51
68
119
85
238
238
51
119
170
51
119
170
119
119
119
153
153
136
51
119
68
51
119
68
51
68
119
51
68
119
51
119
170
51
119
170
51
119
170
51
119
170
51
68
119
51
68
119
51
68
119
51
68
119
51
68
119
51
119
170
51
68
119
51
68
119
51
68
119
51
119
170
51
68
119
51
68
119
51
119
170
51
119
170
51
119
170
51
119
170
51
68
119
51
68
119
51
68
119
51
68
119
51
68
119
51
119
170
51
68
119
51
119
170
51
119
170
51
119
170
119
170
51
238
204
153
238
204
153
34
204
221
85
238
238
51
119
170
51
119
170
51
119
170
51
68
119
51
68
119
51
68
119
51
119
170
51
68
119
51
68
119
51
68
119
51
68
119
51
68
119
51
68
119
51
119
170
51
119
170
51
119
170
51
119
170
51
68
119
51
68
119
51
68
119
51
119
170
85
238
238
51
119
170
85
238
238
238
153
102
238
204
153
238
204
153
51
68
119
51
68
119
51
119
170
51
119
170
51
119
170
51
119
170
51
68
119
51
68
119
51
68
119
51
68
119
51
68
119
51
119
170
51
68
119
51
119
170
51
119
170
51
119
170
51
68
119
51
68
119
51
119
170
51
119
170
51
119
170
51
119
170
51
68
119
51
68
119
51
68
119
51
68
119
51
68
119
51
119
170
51
68
119
51
119
170
51
119
170
51
119
170
51
68
119
51
68
119
51
119
170
51
119
170
51
119
170
51
119
170
51
68
119
51
68
119
51
68
119
51
68
119
34
204
221
51
68
119
51
68
119
51
68
119
51
119
170
51
119
170
34
204
221
51
119
170
51
119
170
51
119
170
85
238
238
34
204
221
34
204
221
51
68
119
51
68
119
51
68
119
51
68
119
51
119
170
51
68
119
51
68
119
51
68
119
51
68
119
51
68
119
51
68
119
51
68
119
51
119
170
51
119
170
51
119
170
51
119
170
51
68
119
51
68
119
51
68
119
51
119
170
51
68
119
51
68
119
51
68
119
51
119
170
51
119
170
238
204
153
238
204
153
238
204
153
34
204
221
51
119
170
51
119
170
51
119
170
51
68
119
51
68
119
51
119
170
51
119
170
51
119
170
85
238
238
85
238
238
238
204
153
238
204
153
51
68
119
51
68
119
51
68
119
51
68
119
51
119
170
51
119
170
51
119
170
51
119
170
51
119
170
51
119
170
51
119
170
51
119
170
51
119
170
51
68
119
51
68
119
51
68
119
51
68
119
51
119
170
51
119
170
51
68
119
51
68
119
51
119
170
51
119
170
51
119
170
51
119
170
51
119
170
51
119
170
51
119
170
51
119
170
51
68
119
51
68
119
51
68
119
51
68
119
51
119
170
51
119
170
51
68
119
51
68
119
51
119
170
51
119
170
51
119
170
51
119
170
51
119
170
51
119
170
51
119
170
85
238
238
85
238
238
238
204
153
238
204
153
238
204
153
238
204
153
238
204
153
34
204
221
51
119
170
51
119
170
51
119
170
51
119
170
51
119
170
51
119
170
51
119
170
85
238
238
51
119
170
51
68
119
51
68
119
51
68
119
119
170
51
238
204
153
238
204
153
34
204
221
51
119
170
51
119
170
51
119
170
51
119
170
51
119
170
51
119
170
51
119
170
85
238
238
51
119
170
51
68
119
51
68
119
51
68
119
238
204
153
238
204
153
238
204
153
238
204
153
238
204
153
238
204
153
238
204
153
238
204
153
238
204
153
238
204
153
238
204
153
238
204
153
238
204
153
238
204
153
238
204
153
238
204
153
51
68
119
51
119
170
51
119
170
51
68
119
51
68
119
51
119
170
51
119
170
51
119
170
51
119
170
51
119
170
51
119
170
51
119
170
85
238
238
85
238
238
238
204
153
238
204
153
119
170
51
51
119
68
119
119
119
119
119
119
119
119
119
85
238
238
51
119
170
51
119
170
34
204
221
51
119
170
51
119
170
51
68
119
51
68
119
51
119
170
51
119
170
51
68
119
51
68
119
51
119
170
51
119
170
51
119
170
51
119
170
51
119
170
51
119
170
51
68
119
51
68
119
51
119
170
51
119
170
51
119
170
34
204
221
238
204
153
238
204
153
238
204
153
51
68
119
51
68
119
51
68
119
51
119
170
51
119
170
51
119
170
51
119
170
221
238
238
51
119
170
34
204
221
51
119
170
119
119
119
153
153
136
204
204
187
51
119
68
119
170
51
51
68
119
51
119
170
51
119
170
51
68
119
51
68
119
51
119
170
51
119
170
51
119
170
51
119
170
51
119
170
51
119
170
51
119
170
51
119
170
51
68
119
51
68
119
51
68
119
51
68
119
51
119
170
51
119
170
51
68
119
51
68
119
51
119
170
51
119
170
51
119
170
51
119
170
51
119
170
51
119
170
51
119
170
51
119
170
51
119
170
51
119
170
51
119
170
119
170
51
238
204
153
238
204
153
34
204
221
51
119
170
51
119
170
51
119
170
51
119
170
51
119
170
51
119
170
51
119
170
85
238
238
51
119
170
51
68
119
51
68
119
51
68
119
51
68
119
51
119
170
51
119
170
51
68
119
51
68
119
51
119
170
51
119
170
51
119
170
51
119
170
51
119
170
51
119
170
85
238
238
34
204
221
238
204
153
238
204
153
238
204
153
51
68
119
51
119
170
51
119
170
51
68
119
51
119
170
51
119
170
51
119
170
51
119
170
51
119
170
51
119
170
51
119
170
51
68
119
51
68
119
51
68
119
51
119
170
51
119
170
51
68
119
51
119
170
51
119
170
51
68
119
51
119
170
51
119
170
51
119
170
51
119
170
51
119
170
51
119
170
51
119
170
51
119
170
51
119
170
51
119
170
51
119
170
51
119
170
51
68
119
51
119
170
51
119
170
51
68
119
51
68
119
51
119
170
51
119
170
51
119
170
51
119
170
85
238
238
51
119
170
34
204
221
51
68
119
51
68
119
51
68
119
51
119
170
51
119
170
51
68
119
51
68
119
34
204
221
85
238
238
34
204
221
85
238
238
51
119
170
51
119
170
51
119
170
51
119
170
51
119
170
51
119
170
51
68
119
51
68
119
51
68
119
51
68
119
51
68
119
51
68
119
51
68
119
51
68
119
51
119
170
51
119
170
51
119
170
51
119
170
51
119
170
51
119
170
51
119
170
51
68
119
51
68
119
51
68
119
51
68
119
238
204
153
238
204
153
238
204
153
34
204
221
34
204
221
51
119
170
51
119
170
51
68
119
51
68
119
51
119
170
51
119
170
51
119
170
85
238
238
238
204
153
238
204
153
238
204
153
51
68
119
51
119
170
51
119
170
51
119
170
51
119
170
51
119
170
51
119
170
51
119
170
51
119
170
51
68
119
51
119
170
51
119
170
51
68
119
51
119
170
51
119
170
51
119
170
51
119
170
51
68
119
51
68
119
51
68
119
51
68
119
51
68
119
51
68
119
51
68
119
51
119
170
51
119
170
51
119
170
51
119
170
51
68
119
51
119
170
51
119
170
51
119
170
51
119
170
51
119
170
51
68
119
51
68
119
51
119
170
51
119
170
51
68
119
51
68
119
51
119
170
51
119
170
51
119
170
51
119
170
85
238
238
238
204
153
238
204
153
238
204
153
238
204
153
238
204
153
238
204
153
34
204
221
85
238
238
51
119
170
51
119
170
51
68
119
51
119
170
51
119
170
51
68
119
51
68
119
51
68
119
51
119
170
51
119
170
51
119
170
119
170
51
238
204
153
238
204
153
34
204
221
34
204
221
51
119
170
51
119
170
51
68
119
51
119
170
51
119
170
51
68
119
51
68
119
51
68
119
51
119
170
51
119
170
51
119
170
238
204
153
238
204
153
238
204
153
238
204
153
238
204
153
238
204
153
238
204
153
238
204
153
238
204
153
238
204
153
238
204
153
238
204
153
238
204
153
238
204
153
238
204
153
238
204
153
51
119
170
51
68
119
51
68
119
51
68
119
51
68
119
51
68
119
51
68
119
51
68
119
51
119
170
51
119
170
51
119
170
51
119
170
85
238
238
238
204
153
238
204
153
238
204
153
51
119
68
153
153
136
153
153
136
119
119
119
119
119
119
85
238
238
85
238
238
51
119
170
34
204
221
51
68
119
51
68
119
51
68
119
51
68
119
51
68
119
51
68
119
51
119
170
51
119
170
51
119
170
51
119
170
51
119
170
51
119
170
51
119
170
51
119
170
51
68
119
51
68
119
51
119
170
51
119
170
51
119
170
34
204
221
238
204
153
238
204
153
238
204
153
51
119
170
51
119
170
51
119
170
51
68
119
51
68
119
51
68
119
51
119
170
51
119
170
51
68
119
85
238
238
34
204
221
153
153
136
204
204
187
204
204
187
153
153
136
119
170
51
51
119
170
51
119
170
51
119
170
51
119
170
51
119
170
51
68
119
51
68
119
51
68
119
51
119
170
51
119
170
51
68
119
51
68
119
51
68
119
51
119
170
51
119
170
51
119
170
51
119
170
51
68
119
51
68
119
51
68
119
51
68
119
51
68
119
51
68
119
51
68
119
51
119
170
51
119
170
51
119
170
51
119
170
51
119
170
51
119
170
51
119
170
51
119
170
119
170
51
238
204
153
238
204
153
238
204
153
34
204
221
51
119
170
85
238
238
51
68
119
51
119
170
51
119
170
51
68
119
51
68
119
51
68
119
51
119
170
51
119
170
51
119
170
51
119
170
51
68
119
51
68
119
51
68
119
51
68
119
51
68
119
51
68
119
51
68
119
51
119
170
51
119
170
51
119
170
85
238
238
238
204
153
238
204
153
238
204
153
238
204
153
51
119
170
51
119
170
51
119
170
51
119
170
34
204
221
85
238
238
85
238
238
34
204
221
34
204
221
34
204
221
51
119
170
51
119
170
51
68
119
51
68
119
51
68
119
51
119
170
51
119
170
51
119
170
51
119
170
51
119
170
51
119
170
51
119
170
51
119
170
51
119
170
34
204
221
34
204
221
51
119
170
51
119
170
34
204
221
34
204
221
51
119
170
51
119
170
51
119
170
51
68
119
51
68
119
51
68
119
51
68
119
51
68
119
51
68
119
51
68
119
51
119
170
51
119
170
85
238
238
34
204
221
85
238
238
51
68
119
51
68
119
51
68
119
51
68
119
51
68
119
51
68
119
34
204
221
34
204
221
34
204
221
85
238
238
51
68
119
51
119
170
51
119
170
51
68
119
51
68
119
51
68
119
51
119
170
51
119
170
51
119
170
51
119
170
51
119
170
51
119
170
51
119
170
51
119
170
51
119
170
51
119
170
51
68
119
51
119
170
51
119
170
51
119
170
51
119
170
51
119
170
51
68
119
51
68
119
51
68
119
119
170
51
238
204
153
238
153
102
238
204
153
34
204
221
51
119
170
51
119
170
51
68
119
51
119
170
51
119
170
51
119
170
51
119
170
85
238
238
238
204
153
238
204
153
119
170
51
51
119
170
51
119
170
51
119
170
51
119
170
51
119
170
51
119
170
51
119
170
51
119
170
51
119
170
51
119
170
51
119
170
51
119
170
51
119
170
51
119
170
51
119
170
51
119
170
51
119
170
51
119
170
51
68
119
51
68
119
51
68
119
51
68
119
51
68
119
51
68
119
51
68
119
51
119
170
51
119
170
51
119
170
51
119
170
51
119
170
51
119
170
51
119
170
51
119
170
51
119
170
51
119
170
51
119
170
51
119
170
51
119
170
51
119
170
51
68
119
51
119
170
51
119
170
51
119
170
51
119
170
34
204
221
238
204
153
238
204
153
238
204
153
238
204
153
238
204
153
238
153
102
238
204
153
85
238
238
51
119
170
51
119
170
51
68
119
51
68
119
51
119
170
51
119
170
51
68
119
51
68
119
51
68
119
51
68
119
51
68
119
119
170
51
238
204
153
238
153
102
238
204
153
34
204
221
51
119
170
51
119
170
51
68
119
51
68
119
51
119
170
51
119
170
51
68
119
51
68
119
51
68
119
51
68
119
51
68
119
238
204
153
238
204
153
238
204
153
238
204
153
238
204
153
238
204
153
238
204
153
238
204
153
238
204
153
238
204
153
238
204
153
238
204
153
238
204
153
238
204
153
238
204
153
238
204
153
51
119
170
51
119
170
51
68
119
51
68
119
51
68
119
51
68
119
51
68
119
51
68
119
51
119
170
51
119
170
51
119
170
51
119
170
85
238
238
238
204
153
238
204
153
119
170
51
119
170
51
119
170
51
153
153
136
119
119
119
119
119
119
85
238
238
85
238
238
51
119
170
34
204
221
34
204
221
51
68
119
51
68
119
51
68
119
51
68
119
51
119
170
51
119
170
51
119
170
51
119
170
51
119
170
51
119
170
51
119
170
51
119
170
51
119
170
51
68
119
51
68
119
51
119
170
51
119
170
51
119
170
51
119
170
238
204
153
238
204
153
238
204
153
51
68
119
51
68
119
51
68
119
51
68
119
51
68
119
51
119
170
51
119
170
51
68
119
51
68
119
85
238
238
51
119
170
153
153
136
204
204
187
204
204
187
153
153
136
119
170
51
51
119
170
51
119
170
51
119
170
51
119
170
51
119
170
51
119
170
51
68
119
51
68
119
51
68
119
51
119
170
51
119
170
51
68
119
51
68
119
51
68
119
51
68
119
51
68
119
51
119
170
51
119
170
51
68
119
51
68
119
51
68
119
51
68
119
51
68
119
51
68
119
51
119
170
51
119
170
51
119
170
51
119
170
51
119
170
51
119
170
51
119
170
51
119
170
119
170
51
238
204
153
119
119
119
238
204
153
34
204
221
51
119
170
85
238
238
51
119
170
51
68
119
51
119
170
51
119
170
51
68
119
51
68
119
51
68
119
51
68
119
51
68
119
51
119
170
51
119
170
51
68
119
51
68
119
51
68
119
51
68
119
51
68
119
51
68
119
51
119
170
51
119
170
85
238
238
85
238
238
238
204
153
204
204
187
238
204
153
119
170
51
85
238
238
85
238
238
85
238
238
51
119
170
51
119
170
51
119
170
51
119
170
51
119
170
34
204
221
85
238
238
85
238
238
34
204
221
34
204
221
51
119
170
51
119
170
51
68
119
51
119
170
51
119
170
34
204
221
34
204
221
51
119
170
51
119
170
85
238
238
85
238
238
85
238
238
85
238
238
85
238
238
51
119
170
51
119
170
85
238
238
85
238
238
85
238
238
51
119
170
51
119
170
51
68
119
51
68
119
51
68
119
51
68
119
51
68
119
51
68
119
51
68
119
51
119
170
51
119
170
51
68
119
34
204
221
85
238
238
85
238
238
51
68
119
51
68
119
51
68
119
85
238
238
34
204
221
34
204
221
85
238
238
51
68
119
51
68
119
51
68
119
221
238
238
51
119
170
51
68
119
51
68
119
51
68
119
51
68
119
51
68
119
51
119
170
51
119
170
51
119
170
51
119
170
51
119
170
51
119
170
51
119
170
51
68
119
51
119
170
51
119
170
51
119
170
51
119
170
51
119
170
51
119
170
51
119
170
51
119
170
238
204
153
119
170
51
238
204
153
238
204
153
238
204
153
85
238
238
51
119
170
51
68
119
51
119
170
51
119
170
51
119
170
51
119
170
51
119
170
238
204
153
238
204
153
238
204
153
34
204
221
34
204
221
85
238
238
85
238
238
51
119
170
51
119
170
51
119
170
51
119
170
34
204
221
34
204
221
51
119
170
51
119
170
51
119
170
51
119
170
51
119
170
34
204
221
51
68
119
51
119
170
51
119
170
51
119
170
51
68
119
51
68
119
51
68
119
51
119
170
51
119
170
51
119
170
51
119
170
51
119
170
51
119
170
51
119
170
51
119
170
51
119
170
51
119
170
51
119
170
51
119
170
51
119
170
51
119
170
51
119
170
51
119
170
51
119
170
51
119
170
51
119
170
51
119
170
51
119
170
51
119
170
238
204
153
238
204
153
238
204
153
238
204
153
238
204
153
238
204
153
238
204
153
238
204
153
85
238
238
51
119
170
51
119
170
51
119
170
51
68
119
51
68
119
51
119
170
51
119
170
51
119
170
51
68
119
51
68
119
119
170
51
119
170
51
238
204
153
238
204
153
238
204
153
34
204
221
51
119
170
51
119
170
51
119
170
51
68
119
51
68
119
51
119
170
51
119
170
51
119
170
51
68
119
51
68
119
238
204
153
238
204
153
238
204
153
238
204
153
238
204
153
238
204
153
238
204
153
238
204
153
238
204
153
238
204
153
238
204
153
238
204
153
238
204
153
238
204
153
238
204
153
238
204
153
51
68
119
51
119
170
51
119
170
51
119
170
51
68
119
51
68
119
51
68
119
51
119
170
51
119
170
51
119
170
51
119
170
51
119
170
51
119
170
238
204
153
238
204
153
238
204
153
119
170
51
119
170
51
85
85
85
119
119
119
119
119
119
85
238
238
51
119
170
51
119
170
34
204
221
34
204
221
51
68
119
51
68
119
51
119
170
51
119
170
51
119
170
51
68
119
34
204
221
34
204
221
85
238
238
85
238
238
51
119
170
51
119
170
51
119
170
51
68
119
51
68
119
51
68
119
51
119
170
51
119
170
51
119
170
34
204
221
238
204
153
238
204
153
51
68
119
51
68
119
85
238
238
51
119
170
51
119
170
51
68
119
51
68
119
51
119
170
51
119
170
51
119
170
51
119
170
153
153
136
153
153
136
119
119
119
119
119
119
51
119
68
51
119
170
51
119
170
51
119
170
51
119
170
51
119
170
51
119
170
51
119
170
51
119
170
51
119
170
51
68
119
51
68
119
51
119
170
51
119
170
51
119
170
51
68
119
51
68
119
51
68
119
51
119
170
51
119
170
51
119
170
51
68
119
51
68
119
51
68
119
51
119
170
51
119
170
51
119
170
51
119
170
51
119
170
51
119
170
51
119
170
51
119
170
51
119
170
119
170
51
238
204
153
119
119
119
238
153
102
238
204
153
85
238
238
51
119
170
85
238
238
51
119
170
51
68
119
51
68
119
51
119
170
51
119
170
51
119
170
51
68
119
51
68
119
51
68
119
51
119
170
51
119
170
51
119
170
51
68
119
51
68
119
51
68
119
51
119
170
51
119
170
51
119
170
85
238
238
85
238
238
238
204
153
153
153
136
238
153
102
238
204
153
51
119
170
51
119
170
34
204
221
85
238
238
85
238
238
34
204
221
34
204
221
51
119
170
51
119
170
51
119
170
51
119
170
85
238
238
85
238
238
34
204
221
34
204
221
51
119
170
51
119
170
51
119
170
51
119
170
51
119
170
85
238
238
85
238
238
34
204
221
85
238
238
51
119
170
51
119
170
34
204
221
34
204
221
34
204
221
34
204
221
34
204
221
34
204
221
51
68
119
51
119
170
51
119
170
51
119
170
51
68
119
51
68
119
51
68
119
51
119
170
51
119
170
51
68
119
51
68
119
51
119
170
51
119
170
34
204
221
34
204
221
85
238
238
85
238
238
85
238
238
34
204
221
34
204
221
51
68
119
51
68
119
51
68
119
51
119
170
51
119
170
51
68
119
51
68
119
51
119
170
51
119
170
51
119
170
51
68
119
51
68
119
51
119
170
51
119
170
51
119
170
51
119
170
51
119
170
51
119
170
51
119
170
51
119
170
51
119
170
51
119
170
51
119
170
51
119
170
51
119
170
51
119
170
51
119
170
51
119
170
238
204
153
119
170
51
238
204
153
238
204
153
238
204
153
85
238
238
51
119
170
51
119
170
51
119
170
51
119
170
51
119
170
51
119
170
51
119
170
85
238
238
238
204
153
238
204
153
238
204
153
238
204
153
34
204
221
34
204
221
85
238
238
34
204
221
51
119
170
238
204
153
238
204
153
34
204
221
34
204
221
51
119
170
51
119
170
238
204
153
238
204
153
238
204
153
51
119
170
51
68
119
51
68
119
51
119
170
51
119
170
85
238
238
51
119
170
51
68
119
51
68
119
51
119
170
51
119
170
51
119
170
51
119
170
51
119
170
51
119
170
85
238
238
34
204
221
51
119
170
51
119
170
51
119
170
51
119
170
51
119
170
51
119
170
51
119
170
51
119
170
51
119
170
51
119
170
51
119
170
51
119
170
85
238
238
238
204
153
238
204
153
238
204
153
238
204
153
238
204
153
238
204
153
238
204
153
34
204
221
51
119
170
51
119
170
51
68
119
51
68
119
51
68
119
51
68
119
51
68
119
51
119
170
51
119
170
51
119
170
119
170
51
119
170
51
238
204
153
238
204
153
238
204
153
34
204
221
51
119
170
51
68
119
51
68
119
51
68
119
51
68
119
51
68
119
51
68
119
51
119
170
51
119
170
51
119
170
238
204
153
238
204
153
238
204
153
238
204
153
238
204
153
238
204
153
238
204
153
238
204
153
238
204
153
238
204
153
238
204
153
238
204
153
238
204
153
238
204
153
238
204
153
238
204
153
51
119
170
51
68
119
51
68
119
51
119
170
51
119
170
51
119
170
51
119
170
51
68
119
51
119
170
51
119
170
51
119
170
51
119
170
51
119
170
34
204
221
238
204
153
238
204
153
119
170
51
119
170
51
85
85
85
85
85
85
85
238
238
85
238
238
51
119
170
51
119
170
85
238
238
34
204
221
51
119
170
51
119
170
51
119
170
51
68
119
51
68
119
51
119
170
238
204
153
238
204
153
34
204
221
34
204
221
85
238
238
51
119
170
51
119
170
51
119
170
51
68
119
51
68
119
51
119
170
51
119
170
51
119
170
34
204
221
238
204
153
238
204
153
51
119
170
51
119
170
51
119
170
51
68
119
51
68
119
51
68
119
51
68
119
51
68
119
51
68
119
51
119
170
85
238
238
51
119
170
119
119
119
51
119
68
51
119
68
51
119
68
85
238
238
85
238
238
85
238
238
51
119
170
51
119
170
51
119
170
51
119
170
51
68
119
51
68
119
51
68
119
51
68
119
51
68
119
51
68
119
51
119
170
85
238
238
51
119
170
51
119
170
51
68
119
51
68
119
51
119
170
51
119
170
51
119
170
51
119
170
51
68
119
51
119
170
51
119
170
51
119
170
51
119
170
51
119
170
51
119
170
51
119
170
51
119
170
119
170
51
238
153
102
119
119
119
119
119
119
238
204
153
85
238
238
51
119
170
85
238
238
51
68
119
51
68
119
51
68
119
51
68
119
51
68
119
51
119
170
51
119
170
51
119
170
51
119
170
51
68
119
51
68
119
51
119
170
51
119
170
51
119
170
51
119
170
51
68
119
51
119
170
51
119
170
85
238
238
85
238
238
34
204
221
153
153
136
153
153
136
238
204
153
34
204
221
34
204
221
238
204
153
238
204
153
238
204
153
85
238
238
85
238
238
85
238
238
85
238
238
34
204
221
51
119
170
51
119
170
51
119
170
51
119
170
34
204
221
34
204
221
34
204
221
34
204
221
85
238
238
85
238
238
51
119
170
51
119
170
51
119
170
51
119
170
34
204
221
34
204
221
238
204
153
238
204
153
238
204
153
238
153
102
119
119
119
119
119
119
51
119
170
51
68
119
51
68
119
51
119
170
51
119
170
34
204
221
51
119
170
51
68
119
51
68
119
51
68
119
51
68
119
51
68
119
34
204
221
51
119
170
34
204
221
34
204
221
34
204
221
34
204
221
34
204
221
51
119
170
51
119
170
51
119
170
51
119
170
51
68
119
51
68
119
51
68
119
51
68
119
51
68
119
51
68
119
51
119
170
51
119
170
51
119
170
34
204
221
51
119
170
51
119
170
51
119
170
51
119
170
51
119
170
51
119
170
51
119
170
51
119
170
51
119
170
51
119
170
51
119
170
51
119
170
51
119
170
51
119
170
34
204
221
238
204
153
119
170
51
238
204
153
238
204
153
85
238
238
51
119
170
51
119
170
51
119
170
51
119
170
51
119
170
51
119
170
51
119
170
51
119
170
85
238
238
238
204
153
119
170
51
238
204
153
238
204
153
238
204
153
238
204
153
238
204
153
238
204
153
238
204
153
238
204
153
238
204
153
238
204
153
238
204
153
238
204
153
238
204
153
238
204
153
238
204
153
238
204
153
51
68
119
51
68
119
51
68
119
51
68
119
51
68
119
51
119
170
51
68
119
51
68
119
51
68
119
51
119
170
51
119
170
51
119
170
51
119
170
51
119
170
85
238
238
238
204
153
238
204
153
34
204
221
85
238
238
51
119
170
51
119
170
51
119
170
51
119
170
51
119
170
51
119
170
51
119
170
51
119
170
51
119
170
51
119
170
85
238
238
238
204
153
238
204
153
238
204
153
238
204
153
238
204
153
238
204
153
34
204
221
51
119
170
51
119
170
51
119
170
51
68
119
51
68
119
51
68
119
51
68
119
51
68
119
51
68
119
51
119
170
51
68
119
119
170
51
119
170
51
238
204
153
238
204
153
85
238
238
51
119
170
51
119
170
51
119
170
51
68
119
51
68
119
51
68
119
51
68
119
51
68
119
51
68
119
51
119
170
51
68
119
238
204
153
238
204
153
238
204
153
238
204
153
238
204
153
238
204
153
238
204
153
238
204
153
238
204
153
238
204
153
238
204
153
238
204
153
238
204
153
238
204
153
238
204
153
238
204
153
51
68
119
51
68
119
51
68
119
51
68
119
51
68
119
51
119
170
51
68
119
51
68
119
51
119
170
51
119
170
51
119
170
51
119
170
51
119
170
34
204
221
238
204
153
238
204
153
119
170
51
51
119
68
119
119
119
119
119
119
85
238
238
51
119
170
51
119
170
34
204
221
85
238
238
51
68
119
51
119
170
51
68
119
51
68
119
51
68
119
51
68
119
51
68
119
238
204
153
238
204
153
238
204
153
238
204
153
34
204
221
51
119
170
51
119
170
51
119
170
51
68
119
51
68
119
51
119
170
51
119
170
85
238
238
34
204
221
238
204
153
238
204
153
51
68
119
51
119
170
51
68
119
51
68
119
51
68
119
51
68
119
51
68
119
51
68
119
51
68
119
51
119
170
51
119
170
85
238
238
119
119
119
119
119
119
51
119
68
119
170
51
238
204
153
238
204
153
34
204
221
85
238
238
51
119
170
51
119
170
51
119
170
51
119
170
51
68
119
51
68
119
51
68
119
51
68
119
51
68
119
51
68
119
51
119
170
51
68
119
51
68
119
51
68
119
51
68
119
51
68
119
51
68
119
51
119
170
51
68
119
51
68
119
51
119
170
51
119
170
51
119
170
51
119
170
51
119
170
51
119
170
85
238
238
238
204
153
119
170
51
119
119
119
85
85
85
85
85
85
238
204
153
85
238
238
51
119
170
85
238
238
51
68
119
51
68
119
51
68
119
51
68
119
51
68
119
51
68
119
51
119
170
51
68
119
51
68
119
51
68
119
51
68
119
51
68
119
51
68
119
51
119
170
51
68
119
51
68
119
51
119
170
51
119
170
85
238
238
34
204
221
119
119
119
119
119
119
153
153
136
238
204
153
85
85
85
119
119
119
153
153
136
238
204
153
238
204
153
238
204
153
238
204
153
238
204
153
238
204
153
34
204
221
34
204
221
51
119
170
51
119
170
238
204
153
238
204
153
238
204
153
238
204
153
238
204
153
34
204
221
34
204
221
34
204
221
34
204
221
51
119
170
238
204
153
238
204
153
238
204
153
238
204
153
204
204
187
153
153
136
153
153
136
153
153
136
119
119
119
51
68
119
51
68
119
51
68
119
51
68
119
51
68
119
51
119
170
51
68
119
51
68
119
51
68
119
51
68
119
51
68
119
51
68
119
51
68
119
51
68
119
34
204
221
34
204
221
34
204
221
51
68
119
51
68
119
51
68
119
51
68
119
51
119
170
51
68
119
51
68
119
51
68
119
51
68
119
51
68
119
51
68
119
51
68
119
51
68
119
51
119
170
51
68
119
238
204
153
34
204
221
85
238
238
51
119
170
51
119
170
51
119
170
51
119
170
51
119
170
51
119
170
51
119
170
51
119
170
51
119
170
51
119
170
51
119
170
85
238
238
238
204
153
238
204
153
119
170
51
238
204
153
238
204
153
85
238
238
51
119
170
51
119
170
51
119
170
51
68
119
51
119
170
51
119
170
51
119
170
85
238
238
85
238
238
238
204
153
238
204
153
238
204
153
238
204
153
238
204
153
238
204
153
238
204
153
238
204
153
238
204
153
238
204
153
238
204
153
238
204
153
238
204
153
238
204
153
238
204
153
238
204
153
238
204
153
238
204
153
51
119
170
51
68
119
51
68
119
51
68
119
51
68
119
51
119
170
51
68
119
51
68
119
51
119
170
51
119
170
51
119
170
51
119
170
34
204
221
238
204
153
238
204
153
238
153
102
238
153
102
238
204
153
238
204
153
85
238
238
51
119
170
51
119
170
51
119
170
51
119
170
51
68
119
51
119
170
51
119
170
51
119
170
85
238
238
85
238
238
238
204
153
238
204
153
238
204
153
238
204
153
238
204
153
238
204
153
34
204
221
51
119
170
51
119
170
51
119
170
51
68
119
51
68
119
51
68
119
51
68
119
51
68
119
51
68
119
51
68
119
51
119
170
119
170
51
119
170
51
238
204
153
238
204
153
85
238
238
51
119
170
85
238
238
51
119
170
51
68
119
51
68
119
51
68
119
51
68
119
51
68
119
51
68
119
51
68
119
51
119
170
238
204
153
238
204
153
238
204
153
238
204
153
238
204
153
238
204
153
238
204
153
238
204
153
238
204
153
238
204
153
238
204
153
238
204
153
238
204
153
238
204
153
238
204
153
238
204
153
51
119
170
51
68
119
51
68
119
51
68
119
51
68
119
51
119
170
51
68
119
51
68
119
51
119
170
51
119
170
51
119
170
51
119
170
85
238
238
34
204
221
238
204
153
238
204
153
51
119
68
153
153
136
153
153
136
119
119
119
85
238
238
51
119
170
51
119
170
85
238
238
85
238
238
51
68
119
51
119
170
51
68
119
51
68
119
51
68
119
51
68
119
51
119
170
238
204
153
238
204
153
238
204
153
238
204
153
34
204
221
34
204
221
51
119
170
51
119
170
51
68
119
51
68
119
51
119
170
85
238
238
34
204
221
238
204
153
238
153
102
238
204
153
51
119
170
51
68
119
51
68
119
51
68
119
51
68
119
51
68
119
51
68
119
51
68
119
51
68
119
34
204
221
34
204
221
85
238
238
119
119
119
119
119
119
153
153
136
51
119
68
238
204
153
238
204
153
238
204
153
85
238
238
85
238
238
51
119
170
51
119
170
51
119
170
51
68
119
51
68
119
51
68
119
51
68
119
51
68
119
51
68
119
51
68
119
51
119
170
51
119
170
51
68
119
51
68
119
51
68
119
51
68
119
51
119
170
51
68
119
51
68
119
51
68
119
51
119
170
51
119
170
51
119
170
51
119
170
51
119
170
85
238
238
238
204
153
119
170
51
119
119
119
119
119
119
85
85
85
85
238
238
85
238
238
51
119
170
85
238
238
51
68
119
51
68
119
51
68
119
51
68
119
51
68
119
51
68
119
51
68
119
51
119
170
51
119
170
51
68
119
51
68
119
51
68
119
51
68
119
51
119
170
51
68
119
51
68
119
51
119
170
51
119
170
51
119
170
85
238
238
119
119
119
85
85
85
119
119
119
238
204
153
85
85
85
85
85
85
119
119
119
119
119
119
153
153
136
204
204
187
238
204
153
238
204
153
238
204
153
238
204
153
238
204
153
238
204
153
238
204
153
238
204
153
238
204
153
238
204
153
238
204
153
238
204
153
238
204
153
238
204
153
238
204
153
238
204
153
238
204
153
238
204
153
238
204
153
238
204
153
238
204
153
238
153
102
204
204
187
204
204
187
238
204
153
238
204
153
51
119
170
51
68
119
51
68
119
51
68
119
51
68
119
51
119
170
51
68
119
51
68
119
51
68
119
51
68
119
51
68
119
51
68
119
51
68
119
51
68
119
51
68
119
51
119
170
51
119
170
51
68
119
51
68
119
51
68
119
51
68
119
51
119
170
51
68
119
51
68
119
51
68
119
51
68
119
51
68
119
51
68
119
51
68
119
51
68
119
51
68
119
85
238
238
238
204
153
238
204
153
238
204
153
85
238
238
51
119
170
51
119
170
51
119
170
51
119
170
51
68
119
51
119
170
51
119
170
51
119
170
51
119
170
85
238
238
34
204
221
238
204
153
238
204
153
119
170
51
238
204
153
238
204
153
85
238
238
51
119
170
51
119
170
51
119
170
51
68
119
51
119
170
51
119
170
85
238
238
85
238
238
238
204
153
238
153
102
238
204
153
238
204
153
238
204
153
238
204
153
238
204
153
238
204
153
238
204
153
238
204
153
238
204
153
238
204
153
238
204
153
238
204
153
238
204
153
238
204
153
238
204
153
238
204
153
238
204
153
51
119
170
51
119
170
51
119
170
51
119
170
51
119
170
51
68
119
51
119
170
51
119
170
51
119
170
51
119
170
51
119
170
51
119
170
238
153
102
238
153
102
238
204
153
238
204
153
238
204
153
238
204
153
238
204
153
238
204
153
34
204
221
51
119
170
51
119
170
51
119
170
51
119
170
51
119
170
51
119
170
85
238
238
85
238
238
238
204
153
238
153
102
238
204
153
238
204
153
238
204
153
238
204
153
238
204
153
85
238
238
51
119
170
51
119
170
85
238
238
51
119
170
51
119
170
51
119
170
51
68
119
51
68
119
51
68
119
51
119
170
51
119
170
119
170
51
119
170
51
238
204
153
238
204
153
85
238
238
51
119
170
85
238
238
51
119
170
51
119
170
51
119
170
51
119
170
51
68
119
51
68
119
51
68
119
51
119
170
51
119
170
238
204
153
238
204
153
238
204
153
238
204
153
238
204
153
238
204
153
238
204
153
238
204
153
238
204
153
238
204
153
238
204
153
238
204
153
238
204
153
238
204
153
238
204
153
238
204
153
51
119
170
51
119
170
51
119
170
51
119
170
51
119
170
51
68
119
51
119
170
51
119
170
51
119
170
51
119
170
51
119
170
85
238
238
34
204
221
238
204
153
238
153
102
238
204
153
51
119
68
153
153
136
153
153
136
119
119
119
51
119
170
34
204
221
51
119
170
51
119
170
85
238
238
51
119
170
51
68
119
51
119
170
51
119
170
51
119
170
51
119
170
51
119
170
238
204
153
238
204
153
238
204
153
238
153
102
34
204
221
34
204
221
51
119
170
51
119
170
51
68
119
51
68
119
51
119
170
34
204
221
238
153
102
238
153
102
238
204
153
238
204
153
51
119
170
51
119
170
51
68
119
51
68
119
51
68
119
51
119
170
51
119
170
51
119
170
34
204
221
34
204
221
85
238
238
51
119
170
119
119
119
153
153
136
153
153
136
51
119
68
119
170
51
238
204
153
238
153
102
238
204
153
85
238
238
51
119
170
51
119
170
51
119
170
51
119
170
51
119
170
51
119
170
51
68
119
51
68
119
51
68
119
51
119
170
51
119
170
51
119
170
51
119
170
51
119
170
51
119
170
51
119
170
51
68
119
51
119
170
51
119
170
51
119
170
51
119
170
51
119
170
51
119
170
85
238
238
238
204
153
238
204
153
238
153
102
119
170
51
153
153
136
153
153
136
119
119
119
85
238
238
51
119
170
51
119
170
51
119
170
51
119
170
51
119
170
51
119
170
51
68
119
51
68
119
51
68
119
51
119
170
51
119
170
51
119
170
51
119
170
51
119
170
51
119
170
51
119
170
51
68
119
51
119
170
51
119
170
51
119
170
51
119
170
51
119
170
85
238
238
85
238
238
153
153
136
153
153
136
119
170
51
119
170
51
153
153
136
153
153
136
204
204
187
238
204
153
238
204
153
119
170
51
119
170
51
119
170
51
119
170
51
238
204
153
238
204
153
119
170
51
119
170
51
119
170
51
119
170
51
119
170
51
238
204
153
238
204
153
238
204
153
238
204
153
238
204
153
119
170
51
119
170
51
119
170
51
119
170
51
238
204
153
238
204
153
238
153
102
119
170
51
119
170
51
119
170
51
51
119
170
51
119
170
51
119
170
51
119
170
51
119
170
51
68
119
51
119
170
51
119
170
51
119
170
51
119
170
51
119
170
51
68
119
51
68
119
51
68
119
51
119
170
51
119
170
51
119
170
51
119
170
51
119
170
51
119
170
51
119
170
51
68
119
51
119
170
51
119
170
51
119
170
51
119
170
51
119
170
51
68
119
51
68
119
51
68
119
51
119
170
51
119
170
238
204
153
238
204
153
238
204
153
238
204
153
34
204
221
51
119
170
51
119
170
51
119
170
51
68
119
51
119
170
51
119
170
51
119
170
34
204
221
34
204
221
238
204
153
238
204
153
119
170
51
119
170
51
238
204
153
238
204
153
51
119
170
51
119
170
51
119
170
51
119
170
51
68
119
51
68
119
51
119
170
85
238
238
238
204
153
238
204
153
238
204
153
119
170
51
51
68
119
51
68
119
51
119
170
51
68
119
51
68
119
51
119
170
51
119
170
51
68
119
51
68
119
51
119
170
51
119
170
85
238
238
85
238
238
238
204
153
238
204
153
238
204
153
238
204
153
238
204
153
238
204
153
238
204
153
238
204
153
119
170
51
119
170
51
238
204
153
238
204
153
238
204
153
238
204
153
238
204
153
238
153
102
238
153
102
238
204
153
238
204
153
119
170
51
238
204
153
238
204
153
34
204
221
51
119
170
51
119
170
51
119
170
51
68
119
51
68
119
51
119
170
51
119
170
85
238
238
238
204
153
238
204
153
238
204
153
238
204
153
238
204
153
238
204
153
238
204
153
34
204
221
85
238
238
51
119
170
51
119
170
51
68
119
51
68
119
51
68
119
51
68
119
51
119
170
51
119
170
85
238
238
51
119
170
51
68
119
119
170
51
119
170
51
238
204
153
238
204
153
34
204
221
51
119
170
85
238
238
51
119
170
51
68
119
51
68
119
51
68
119
51
119
170
51
119
170
85
238
238
51
119
170
51
68
119
51
68
119
51
68
119
51
119
170
51
68
119
51
68
119
51
119
170
51
119
170
51
68
119
51
68
119
51
68
119
51
68
119
51
119
170
51
119
170
51
119
170
51
119
170
51
68
119
51
68
119
51
68
119
51
119
170
51
68
119
51
68
119
51
119
170
51
119
170
51
68
119
51
68
119
51
119
170
51
119
170
34
204
221
238
204
153
238
204
153
238
204
153
119
170
51
51
119
68
119
119
119
119
119
119
119
119
119
51
119
170
34
204
221
34
204
221
34
204
221
34
204
221
51
119
170
51
119
170
51
68
119
51
68
119
51
119
170
51
68
119
51
68
119
51
68
119
51
119
170
85
238
238
51
119
170
51
119
170
51
68
119
51
68
119
51
68
119
51
68
119
51
119
170
51
119
170
51
68
119
51
68
119
51
119
170
51
68
119
51
68
119
51
68
119
51
119
170
51
119
170
51
119
170
51
119
170
51
68
119
51
68
119
51
68
119
34
204
221
85
238
238
85
238
238
51
119
170
153
153
136
204
204
187
119
170
51
119
170
51
119
170
51
238
204
153
238
204
153
85
238
238
51
119
170
51
119
170
51
119
170
51
68
119
51
68
119
51
119
170
51
119
170
34
204
221
238
204
153
238
204
153
119
170
51
119
170
51
119
170
51
238
204
153
238
204
153
34
204
221
34
204
221
51
119
170
51
119
170
51
68
119
51
68
119
51
119
170
51
119
170
51
119
170
85
238
238
238
204
153
238
204
153
238
204
153
51
68
119
51
68
119
51
119
170
51
68
119
51
68
119
51
119
170
51
119
170
51
68
119
51
68
119
51
119
170
51
119
170
51
119
170
85
238
238
238
204
153
238
153
102
238
204
153
51
68
119
51
68
119
51
119
170
51
68
119
51
68
119
51
119
170
51
119
170
51
68
119
51
68
119
51
68
119
51
68
119
51
119
170
51
119
170
51
119
170
51
119
170
51
68
119
51
68
119
238
204
153
238
204
153
34
204
221
34
204
221
51
119
170
51
119
170
51
68
119
51
68
119
51
68
119
51
68
119
51
119
170
51
119
170
51
119
170
51
119
170
51
68
119
119
170
51
238
204
153
238
204
153
85
238
238
34
204
221
51
119
170
51
119
170
51
68
119
51
68
119
51
119
170
51
119
170
51
119
170
34
204
221
238
204
153
238
153
102
119
170
51
51
68
119
51
68
119
51
119
170
51
68
119
51
68
119
51
119
170
51
119
170
51
68
119
51
68
119
51
119
170
51
119
170
51
119
170
85
238
238
238
204
153
238
204
153
119
170
51
51
68
119
51
68
119
51
119
170
51
68
119
51
68
119
51
119
170
51
119
170
51
68
119
51
68
119
51
68
119
51
68
119
51
119
170
51
119
170
51
119
170
51
119
170
51
68
119
119
170
51
238
204
153
238
204
153
85
238
238
85
238
238
51
119
170
51
119
170
51
68
119
51
68
119
51
119
170
51
119
170
51
119
170
85
238
238
238
204
153
238
153
102
119
170
51
119
170
51
238
204
153
238
204
153
238
204
153
51
119
170
51
119
170
51
119
170
51
119
170
51
68
119
51
68
119
51
119
170
85
238
238
238
204
153
238
204
153
119
170
51
119
170
51
51
68
119
51
68
119
51
68
119
51
119
170
51
119
170
51
119
170
51
68
119
51
68
119
51
68
119
51
119
170
51
119
170
51
119
170
85
238
238
85
238
238
238
204
153
238
204
153
238
204
153
238
204
153
119
170
51
119
170
51
238
204
153
238
204
153
238
204
153
238
204
153
238
204
153
119
170
51
119
170
51
119
170
51
119
170
51
119
170
51
119
170
51
119
170
51
119
170
51
238
204
153
238
204
153
34
204
221
51
119
170
51
119
170
51
119
170
51
68
119
51
68
119
51
119
170
51
119
170
34
204
221
34
204
221
238
204
153
238
204
153
238
204
153
238
204
153
238
204
153
238
204
153
34
204
221
85
238
238
51
119
170
51
119
170
51
68
119
51
68
119
51
68
119
51
68
119
51
68
119
51
68
119
51
119
170
51
68
119
51
68
119
119
170
51
238
204
153
238
204
153
238
204
153
34
204
221
51
119
170
51
119
170
85
238
238
51
119
170
51
68
119
51
68
119
51
68
119
51
68
119
51
119
170
51
68
119
51
68
119
51
68
119
51
68
119
51
68
119
51
119
170
51
119
170
51
119
170
51
68
119
51
68
119
51
68
119
51
68
119
51
68
119
51
68
119
51
68
119
51
119
170
51
68
119
51
68
119
51
68
119
51
68
119
51
68
119
51
119
170
51
119
170
85
238
238
51
68
119
51
68
119
51
68
119
51
119
170
51
119
170
34
204
221
238
204
153
238
204
153
119
170
51
119
170
51
51
119
68
85
85
85
119
119
119
119
119
119
119
119
119
34
204
221
51
119
170
34
204
221
51
68
119
51
68
119
51
119
170
51
119
170
51
119
170
51
68
119
51
68
119
51
68
119
51
68
119
51
68
119
51
119
170
51
68
119
51
68
119
51
68
119
51
68
119
51
68
119
51
68
119
51
68
119
51
119
170
51
119
170
51
119
170
51
68
119
51
68
119
51
68
119
51
68
119
51
68
119
34
204
221
51
68
119
51
68
119
51
68
119
51
68
119
51
68
119
85
238
238
85
238
238
85
238
238
153
153
136
204
204
187
204
204
187
119
170
51
119
170
51
119
170
51
238
204
153
238
204
153
85
238
238
51
119
170
51
119
170
51
119
170
51
68
119
51
68
119
51
119
170
51
119
170
85
238
238
34
204
221
238
204
153
238
204
153
238
204
153
238
204
153
238
204
153
238
204
153
34
204
221
85
238
238
51
119
170
51
119
170
51
68
119
51
68
119
51
119
170
51
119
170
51
119
170
85
238
238
85
238
238
238
204
153
238
204
153
51
68
119
51
68
119
51
68
119
51
119
170
51
119
170
51
119
170
51
68
119
51
68
119
51
68
119
51
119
170
51
119
170
51
119
170
51
119
170
85
238
238
238
204
153
238
204
153
51
68
119
51
68
119
51
68
119
51
119
170
51
119
170
51
119
170
51
68
119
51
68
119
51
68
119
51
68
119
51
68
119
51
68
119
51
68
119
51
119
170
51
68
119
51
68
119
238
204
153
238
204
153
238
204
153
34
204
221
51
119
170
51
119
170
51
119
170
51
68
119
51
68
119
51
68
119
51
68
119
51
68
119
51
68
119
51
119
170
51
68
119
51
68
119
238
204
153
238
204
153
238
204
153
85
238
238
51
119
170
51
119
170
51
119
170
51
68
119
51
68
119
51
119
170
51
119
170
51
119
170
51
119
170
34
204
221
238
204
153
119
170
51
51
68
119
51
68
119
51
68
119
51
119
170
51
119
170
51
119
170
51
68
119
51
68
119
51
68
119
51
119
170
51
119
170
51
119
170
51
119
170
85
238
238
238
204
153
119
170
51
51
68
119
51
68
119
51
68
119
51
119
170
51
119
170
51
119
170
51
68
119
51
68
119
51
68
119
51
68
119
51
68
119
51
68
119
51
68
119
51
119
170
51
68
119
51
68
119
238
204
153
238
204
153
238
204
153
85
238
238
51
119
170
51
119
170
51
119
170
51
68
119
51
68
119
51
119
170
51
119
170
51
119
170
51
119
170
85
238
238
238
204
153
119
170
51
119
170
51
238
204
153
238
204
153
85
238
238
51
119
170
51
119
170
51
119
170
51
119
170
51
68
119
51
68
119
51
119
170
51
119
170
238
204
153
238
204
153
119
170
51
119
170
51
51
68
119
51
68
119
51
68
119
51
68
119
51
68
119
51
119
170
51
68
119
51
68
119
51
68
119
51
68
119
51
119
170
51
119
170
51
119
170
85
238
238
238
204
153
238
153
102
238
204
153
238
204
153
238
204
153
238
204
153
238
204
153
238
204
153
238
204
153
238
204
153
238
153
102
238
204
153
119
170
51
238
204
153
238
204
153
238
204
153
238
204
153
238
204
153
238
204
153
238
204
153
238
204
153
34
204
221
51
119
170
51
119
170
51
119
170
51
119
170
51
68
119
51
68
119
51
119
170
51
119
170
34
204
221
238
204
153
238
204
153
238
204
153
238
204
153
238
204
153
238
204
153
34
204
221
85
238
238
51
119
170
51
119
170
51
119
170
51
68
119
51
68
119
51
68
119
51
68
119
51
68
119
51
68
119
51
119
170
51
68
119
119
170
51
238
204
153
238
204
153
85
238
238
51
119
170
51
119
170
51
119
170
85
238
238
51
119
170
51
68
119
51
68
119
51
68
119
51
68
119
51
68
119
51
119
170
51
68
119
51
68
119
51
68
119
51
68
119
51
68
119
51
68
119
51
119
170
51
68
119
51
68
119
51
68
119
51
68
119
51
68
119
51
68
119
51
68
119
51
68
119
51
119
170
51
68
119
51
68
119
51
68
119
51
68
119
51
68
119
51
68
119
51
119
170
51
68
119
51
68
119
51
68
119
51
119
170
51
119
170
51
119
170
238
204
153
238
204
153
119
170
51
119
170
51
119
170
51
119
119
119
119
119
119
119
119
119
119
119
119
85
238
238
51
119
170
34
204
221
51
68
119
51
68
119
51
119
170
51
68
119
51
68
119
51
68
119
51
68
119
51
68
119
51
68
119
51
119
170
51
68
119
51
68
119
51
68
119
51
68
119
51
68
119
51
68
119
51
68
119
51
68
119
51
119
170
51
68
119
51
68
119
51
68
119
51
68
119
51
68
119
51
68
119
51
119
170
51
68
119
51
68
119
51
68
119
51
68
119
51
68
119
51
68
119
85
238
238
51
119
170
34
204
221
204
204
187
204
204
187
204
204
187
119
170
51
119
170
51
238
204
153
238
204
153
238
204
153
85
238
238
51
119
170
51
119
170
51
119
170
51
119
170
51
68
119
51
68
119
51
119
170
51
119
170
85
238
238
238
204
153
238
204
153
238
204
153
238
204
153
238
204
153
238
204
153
34
204
221
85
238
238
51
119
170
51
119
170
51
119
170
51
68
119
51
68
119
51
119
170
51
119
170
51
119
170
85
238
238
238
204
153
238
204
153
51
68
119
51
68
119
51
68
119
51
68
119
51
68
119
51
119
170
51
68
119
51
68
119
51
68
119
51
68
119
51
119
170
51
119
170
51
119
170
85
238
238
238
204
153
238
204
153
51
68
119
51
68
119
51
68
119
51
68
119
51
68
119
51
119
170
51
68
119
51
68
119
51
68
119
51
68
119
51
68
119
51
68
119
51
68
119
51
68
119
51
119
170
51
68
119
238
204
153
238
153
102
238
204
153
34
204
221
51
119
170
51
119
170
51
119
170
51
119
170
51
68
119
51
68
119
51
68
119
51
68
119
51
68
119
51
68
119
51
119
170
51
68
119
238
204
153
238
153
102
238
204
153
34
204
221
51
119
170
51
119
170
51
119
170
51
119
170
51
68
119
51
68
119
51
119
170
51
119
170
51
119
170
85
238
238
238
204
153
238
204
153
51
68
119
51
68
119
51
68
119
51
68
119
51
68
119
51
119
170
51
68
119
51
68
119
51
68
119
51
68
119
51
119
170
51
119
170
51
119
170
85
238
238
238
204
153
238
204
153
51
68
119
51
68
119
51
68
119
51
68
119
51
68
119
51
119
170
51
68
119
51
68
119
51
68
119
51
68
119
51
68
119
51
68
119
51
68
119
51
68
119
51
119
170
51
68
119
238
204
153
238
153
102
238
204
153
85
238
238
51
119
170
51
119
170
51
119
170
51
119
170
51
68
119
51
68
119
51
119
170
51
119
170
51
119
170
85
238
238
238
204
153
238
204
153
119
170
51
238
204
153
238
204
153
85
238
238
51
119
170
51
119
170
51
119
170
51
119
170
51
68
119
51
68
119
51
119
170
51
119
170
238
204
153
238
204
153
238
204
153
119
170
51
51
119
170
51
68
119
51
68
119
51
68
119
51
68
119
51
68
119
51
119
170
51
68
119
51
68
119
51
68
119
51
119
170
51
119
170
51
119
170
51
119
170
34
204
221
238
204
153
51
119
170
238
204
153
238
204
153
238
204
153
34
204
221
34
204
221
51
119
170
51
119
170
238
204
153
238
204
153
238
204
153
238
204
153
238
204
153
238
204
153
238
204
153
238
204
153
238
204
153
238
204
153
34
204
221
51
119
170
51
119
170
51
119
170
51
119
170
51
119
170
51
68
119
51
68
119
51
119
170
51
119
170
51
119
170
238
204
153
238
204
153
238
204
153
238
204
153
238
204
153
238
204
153
238
204
153
34
204
221
51
119
170
51
119
170
51
119
170
51
68
119
51
68
119
51
68
119
51
68
119
51
68
119
51
68
119
51
68
119
51
119
170
119
170
51
238
204
153
238
204
153
85
238
238
51
119
170
51
119
170
51
119
170
85
238
238
51
119
170
51
68
119
51
68
119
51
68
119
51
68
119
51
68
119
51
68
119
51
119
170
51
119
170
51
68
119
51
68
119
51
68
119
51
68
119
51
68
119
51
119
170
51
68
119
51
68
119
51
68
119
51
68
119
51
68
119
51
68
119
51
68
119
51
68
119
51
119
170
51
119
170
51
68
119
51
68
119
51
68
119
51
68
119
51
68
119
51
119
170
51
68
119
51
68
119
51
119
170
34
204
221
51
119
170
238
204
153
238
204
153
238
204
153
119
170
51
51
119
68
119
119
119
119
119
119
119
119
119
85
238
238
85
238
238
51
119
170
34
204
221
51
68
119
51
119
170
51
68
119
51
68
119
51
68
119
51
68
119
51
68
119
51
119
170
51
119
170
51
68
119
51
68
119
51
68
119
51
68
119
51
68
119
51
68
119
51
68
119
51
68
119
51
119
170
51
68
119
51
68
119
51
68
119
51
68
119
51
68
119
51
119
170
51
119
170
51
68
119
51
68
119
51
68
119
51
68
119
51
68
119
51
68
119
51
68
119
85
238
238
51
119
170
51
119
170
204
204
187
204
204
187
51
119
68
204
204
187
204
204
187
238
204
153
238
204
153
85
238
238
51
119
170
51
119
170
51
119
170
51
119
170
51
119
170
51
68
119
51
68
119
51
119
170
51
119
170
51
119
170
238
204
153
238
204
153
238
204
153
238
204
153
238
204
153
238
204
153
238
204
153
34
204
221
51
119
170
51
119
170
51
119
170
51
68
119
51
68
119
51
119
170
51
119
170
51
119
170
51
119
170
85
238
238
238
204
153
51
119
170
51
68
119
51
68
119
51
68
119
51
68
119
51
68
119
51
119
170
51
68
119
51
68
119
51
68
119
51
119
170
51
119
170
51
119
170
85
238
238
238
204
153
238
204
153
51
119
170
51
68
119
51
68
119
51
68
119
51
68
119
51
68
119
51
119
170
51
68
119
51
68
119
51
68
119
51
68
119
51
68
119
51
68
119
51
68
119
51
68
119
51
119
170
51
119
170
238
204
153
34
204
221
51
119
170
51
119
170
51
119
170
51
119
170
51
119
170
51
68
119
51
68
119
51
68
119
51
68
119
51
68
119
51
68
119
51
68
119
51
119
170
51
119
170
238
204
153
34
204
221
51
119
170
51
119
170
51
119
170
51
119
170
51
119
170
51
68
119
51
68
119
51
119
170
51
119
170
51
119
170
85
238
238
238
204
153
238
204
153
51
119
170
51
68
119
51
68
119
51
68
119
51
68
119
51
68
119
51
119
170
51
68
119
51
68
119
51
68
119
51
119
170
51
119
170
51
119
170
34
204
221
238
204
153
238
204
153
51
119
170
51
68
119
51
68
119
51
68
119
51
68
119
51
68
119
51
119
170
51
68
119
51
68
119
51
68
119
51
68
119
51
68
119
51
68
119
51
68
119
51
68
119
51
119
170
51
119
170
238
204
153
85
238
238
51
119
170
51
119
170
51
119
170
51
119
170
51
119
170
51
68
119
51
68
119
51
119
170
51
119
170
51
119
170
34
204
221
238
204
153
238
204
153
119
170
51
238
204
153
238
204
153
85
238
238
85
238
238
51
119
170
51
119
170
51
119
170
51
68
119
51
119
170
51
119
170
51
119
170
85
238
238
238
204
153
238
204
153
119
170
51
51
119
170
51
119
170
51
68
119
51
119
170
51
119
170
51
119
170
85
238
238
51
119
170
51
119
170
51
68
119
51
68
119
51
119
170
51
119
170
51
119
170
51
119
170
51
119
170
51
119
170
51
119
170
34
204
221
34
204
221
34
204
221
51
119
170
51
119
170
51
119
170
51
119
170
238
204
153
238
204
153
238
204
153
34
204
221
34
204
221
51
119
170
51
119
170
51
119
170
51
119
170
51
119
170
51
119
170
51
119
170
51
119
170
51
119
170
51
119
170
51
119
170
51
68
119
51
119
170
51
119
170
51
119
170
51
119
170
238
204
153
238
204
153
238
204
153
238
204
153
238
204
153
238
204
153
34
204
221
51
119
170
51
119
170
51
119
170
51
119
170
51
68
119
51
68
119
51
68
119
51
68
119
51
68
119
51
68
119
51
68
119
119
170
51
238
204
153
238
204
153
85
238
238
85
238
238
51
119
170
85
238
238
51
119
170
51
119
170
51
68
119
51
68
119
51
68
119
51
68
119
51
68
119
51
68
119
51
68
119
51
119
170
51
119
170
51
68
119
51
119
170
51
119
170
51
119
170
85
238
238
51
119
170
51
119
170
51
68
119
51
68
119
51
68
119
51
68
119
51
68
119
51
68
119
51
68
119
85
238
238
51
119
170
51
68
119
51
119
170
51
119
170
51
119
170
51
119
170
51
119
170
51
119
170
51
119
170
34
204
221
51
119
170
85
238
238
238
204
153
238
204
153
119
170
51
51
119
68
85
85
85
119
119
119
51
68
119
85
238
238
34
204
221
51
119
170
34
204
221
51
119
170
221
238
238
51
119
170
51
119
170
51
119
170
51
68
119
51
119
170
51
119
170
51
68
119
51
68
119
51
68
119
51
68
119
51
68
119
51
68
119
51
68
119
51
119
170
51
119
170
34
204
221
51
119
170
51
119
170
51
119
170
51
68
119
51
119
170
51
119
170
51
68
119
51
68
119
51
68
119
51
68
119
51
68
119
51
68
119
51
68
119
51
119
170
85
238
238
51
119
170
51
119
170
51
119
170
153
153
136
119
170
51
204
204
187
204
204
187
51
119
170
51
119
170
51
119
170
51
119
170
51
119
170
51
119
170
51
119
170
51
119
170
51
119
170
51
68
119
51
119
170
51
119
170
51
119
170
51
119
170
238
204
153
238
204
153
238
204
153
238
204
153
238
204
153
238
204
153
34
204
221
51
119
170
51
119
170
51
119
170
51
119
170
51
68
119
51
119
170
51
119
170
51
119
170
51
119
170
51
119
170
51
119
170
51
119
170
51
119
170
51
68
119
51
119
170
51
119
170
51
119
170
51
119
170
51
119
170
51
119
170
51
68
119
51
119
170
51
119
170
51
119
170
51
119
170
85
238
238
238
204
153
51
119
170
51
119
170
51
68
119
51
119
170
51
119
170
51
119
170
85
238
238
51
119
170
51
119
170
51
68
119
51
68
119
51
68
119
51
68
119
51
68
119
51
68
119
51
68
119
51
119
170
51
119
170
51
119
170
51
119
170
51
119
170
51
119
170
51
119
170
51
119
170
51
119
170
51
68
119
51
68
119
51
68
119
51
68
119
51
68
119
51
68
119
51
68
119
51
119
170
51
119
170
51
119
170
51
119
170
51
119
170
51
119
170
51
119
170
51
119
170
51
119
170
51
68
119
51
119
170
51
119
170
51
119
170
51
119
170
85
238
238
238
204
153
51
119
170
51
119
170
51
68
119
51
119
170
51
119
170
51
119
170
85
238
238
51
119
170
51
119
170
51
68
119
51
119
170
51
119
170
51
119
170
51
119
170
34
204
221
238
204
153
51
119
170
51
119
170
51
68
119
51
119
170
51
119
170
51
119
170
51
119
170
51
119
170
51
119
170
51
68
119
51
68
119
51
68
119
51
68
119
51
68
119
51
68
119
51
68
119
51
119
170
51
119
170
51
119
170
51
119
170
51
119
170
51
119
170
51
119
170
51
119
170
51
119
170
51
68
119
51
119
170
51
119
170
51
119
170
51
119
170
34
204
221
238
204
153
119
170
51
238
204
153
238
204
153
85
238
238
85
238
238
51
119
170
51
119
170
51
119
170
51
68
119
51
119
170
51
119
170
51
119
170
85
238
238
238
204
153
238
204
153
119
170
51
51
68
119
51
119
170
51
119
170
51
68
119
51
68
119
51
68
119
51
68
119
51
119
170
51
119
170
51
119
170
51
119
170
51
119
170
51
119
170
51
119
170
51
119
170
51
119
170
51
119
170
51
119
170
51
119
170
51
119
170
51
119
170
51
119
170
51
119
170
51
119
170
51
119
170
51
119
170
34
204
221
34
204
221
51
119
170
51
119
170
51
119
170
51
119
170
51
119
170
51
119
170
51
119
170
51
119
170
51
119
170
51
119
170
51
119
170
51
119
170
51
119
170
51
119
170
51
119
170
51
119
170
51
119
170
51
119
170
238
204
153
238
204
153
238
204
153
238
204
153
238
204
153
238
204
153
34
204
221
51
119
170
51
119
170
51
119
170
51
119
170
51
119
170
51
119
170
51
68
119
51
68
119
51
68
119
51
119
170
51
119
170
119
170
51
238
204
153
238
204
153
85
238
238
85
238
238
51
119
170
85
238
238
51
119
170
51
119
170
51
119
170
51
119
170
51
68
119
51
68
119
51
68
119
51
119
170
51
119
170
51
68
119
51
119
170
51
119
170
51
68
119
51
68
119
51
68
119
51
68
119
51
119
170
51
119
170
51
119
170
51
119
170
51
68
119
51
68
119
51
68
119
51
119
170
51
119
170
51
68
119
51
119
170
51
119
170
51
68
119
51
68
119
51
68
119
51
68
119
51
119
170
51
119
170
51
119
170
51
119
170
51
119
170
85
238
238
238
204
153
238
204
153
119
170
51
119
170
51
51
119
68
51
119
170
51
119
170
85
238
238
51
119
170
51
119
170
34
204
221
34
204
221
51
68
119
51
68
119
51
68
119
51
68
119
51
119
170
51
119
170
51
68
119
51
119
170
51
119
170
51
68
119
51
68
119
51
68
119
51
119
170
51
119
170
51
119
170
51
119
170
51
68
119
51
68
119
51
68
119
51
68
119
51
119
170
51
119
170
51
68
119
51
119
170
51
119
170
51
68
119
51
68
119
51
68
119
51
119
170
51
119
170
51
119
170
34
204
221
34
204
221
51
119
170
119
119
119
119
119
119
119
170
51
204
204
187
204
204
187
51
119
170
51
119
170
51
119
170
51
119
170
51
119
170
51
119
170
51
119
170
51
119
170
51
119
170
51
119
170
51
119
170
51
119
170
51
119
170
51
119
170
238
204
153
238
204
153
238
204
153
238
204
153
238
204
153
238
204
153
34
204
221
51
119
170
51
119
170
51
119
170
51
119
170
51
119
170
51
119
170
51
119
170
51
119
170
51
119
170
51
119
170
51
119
170
51
68
119
51
119
170
51
119
170
51
68
119
51
68
119
51
68
119
51
68
119
51
119
170
51
119
170
51
119
170
51
119
170
51
119
170
51
119
170
51
119
170
51
119
170
51
119
170
51
68
119
51
119
170
51
119
170
51
68
119
51
68
119
51
68
119
51
68
119
51
119
170
51
119
170
51
119
170
51
119
170
51
68
119
51
68
119
51
68
119
51
119
170
51
119
170
51
119
170
51
119
170
51
119
170
51
119
170
51
119
170
51
119
170
51
119
170
51
119
170
51
119
170
51
119
170
51
119
170
51
68
119
51
68
119
51
68
119
51
119
170
51
119
170
51
119
170
51
119
170
51
119
170
51
119
170
51
119
170
51
119
170
51
119
170
51
119
170
51
119
170
51
119
170
51
119
170
51
119
170
51
119
170
51
119
170
51
119
170
51
119
170
51
68
119
51
119
170
51
119
170
51
68
119
51
68
119
51
68
119
51
68
119
51
119
170
51
119
170
51
119
170
51
119
170
51
119
170
51
119
170
51
119
170
51
119
170
51
119
170
51
68
119
51
119
170
85
238
238
51
68
119
51
68
119
51
68
119
51
68
119
51
119
170
51
119
170
51
119
170
51
119
170
51
68
119
51
68
119
51
68
119
51
119
170
51
119
170
51
119
170
51
119
170
51
119
170
51
119
170
51
119
170
51
119
170
51
119
170
51
119
170
51
119
170
51
119
170
51
119
170
51
119
170
51
119
170
51
119
170
51
119
170
51
119
170
238
204
153
238
204
153
238
204
153
238
204
153
85
238
238
51
119
170
51
119
170
51
119
170
51
119
170
51
119
170
51
119
170
51
119
170
85
238
238
238
204
153
238
204
153
119
170
51
51
68
119
51
68
119
51
119
170
51
119
170
51
68
119
51
68
119
51
68
119
51
68
119
51
68
119
51
68
119
51
68
119
51
119
170
51
119
170
51
119
170
51
119
170
51
119
170
51
119
170
51
119
170
51
119
170
51
119
170
51
119
170
51
119
170
51
119
170
51
119
170
51
119
170
51
119
170
51
119
170
51
119
170
51
119
170
51
119
170
51
119
170
51
119
170
51
119
170
51
119
170
51
119
170
51
119
170
51
119
170
51
119
170
51
68
119
51
68
119
51
68
119
51
68
119
51
119
170
51
119
170
51
119
170
85
238
238
238
204
153
238
204
153
238
204
153
238
204
153
238
204
153
238
204
153
34
204
221
51
119
170
51
119
170
51
68
119
51
68
119
51
68
119
51
68
119
51
119
170
51
119
170
51
119
170
51
68
119
51
68
119
119
170
51
238
204
153
238
204
153
238
204
153
85
238
238
51
119
170
85
238
238
51
119
170
51
68
119
51
68
119
51
68
119
51
119
170
51
119
170
51
119
170
51
68
119
51
68
119
51
68
119
51
68
119
51
119
170
51
119
170
51
68
119
51
68
119
51
68
119
51
68
119
51
68
119
51
68
119
51
68
119
51
119
170
51
119
170
51
119
170
51
68
119
51
68
119
51
68
119
51
68
119
51
119
170
51
119
170
51
68
119
51
68
119
51
68
119
51
68
119
51
119
170
51
119
170
51
119
170
51
119
170
51
119
170
238
204
153
238
204
153
238
204
153
119
170
51
119
170
51
119
119
119
51
119
170
51
68
119
51
68
119
51
119
170
51
119
170
85
238
238
51
68
119
51
68
119
51
68
119
51
119
170
51
119
170
51
68
119
51
68
119
51
68
119
51
68
119
51
119
170
51
119
170
51
119
170
51
68
119
51
68
119
51
68
119
51
68
119
51
68
119
51
68
119
51
68
119
51
119
170
85
238
238
51
68
119
51
68
119
51
68
119
51
68
119
51
119
170
51
119
170
51
119
170
51
68
119
51
68
119
34
204
221
85
238
238
85
238
238
51
119
170
119
119
119
119
119
119
51
119
68
51
119
68
204
204
187
51
119
170
51
119
170
51
119
170
51
119
170
51
119
170
51
119
170
51
119
170
51
68
119
51
68
119
51
68
119
51
119
170
51
119
170
51
119
170
85
238
238
238
204
153
238
204
153
238
204
153
238
204
153
238
204
153
238
204
153
85
238
238
51
119
170
51
119
170
51
68
119
51
68
119
51
68
119
51
119
170
51
119
170
51
119
170
51
119
170
51
119
170
51
119
170
51
68
119
51
68
119
51
119
170
51
119
170
51
68
119
51
68
119
51
68
119
51
68
119
51
68
119
51
68
119
51
68
119
51
119
170
51
119
170
51
119
170
51
119
170
51
119
170
51
68
119
51
68
119
51
119
170
51
119
170
51
68
119
51
68
119
51
68
119
51
68
119
51
68
119
51
68
119
51
68
119
51
119
170
51
119
170
51
119
170
51
68
119
51
68
119
51
119
170
51
119
170
51
119
170
51
119
170
51
119
170
51
119
170
51
119
170
51
68
119
51
68
119
51
68
119
51
68
119
51
119
170
51
119
170
51
119
170
51
68
119
51
68
119
51
119
170
51
119
170
51
119
170
51
119
170
51
119
170
51
119
170
51
119
170
51
68
119
51
68
119
51
68
119
51
68
119
51
119
170
51
119
170
51
119
170
51
119
170
51
119
170
51
68
119
51
68
119
51
119
170
51
119
170
51
68
119
51
68
119
51
68
119
51
68
119
51
68
119
51
68
119
51
68
119
51
119
170
51
119
170
51
119
170
51
119
170
51
119
170
51
68
119
51
68
119
51
119
170
51
119
170
51
68
119
51
68
119
51
68
119
51
68
119
51
68
119
51
68
119
51
68
119
85
238
238
51
119
170
51
119
170
51
68
119
51
68
119
51
119
170
51
119
170
51
119
170
51
119
170
51
119
170
51
119
170
51
119
170
51
68
119
51
68
119
51
68
119
51
68
119
51
119
170
51
119
170
51
119
170
51
119
170
51
119
170
238
204
153
119
170
51
238
204
153
238
204
153
85
238
238
51
119
170
51
119
170
51
119
170
51
119
170
51
119
170
51
119
170
51
119
170
51
119
170
85
238
238
238
204
153
119
170
51
51
68
119
51
68
119
51
119
170
51
119
170
51
119
170
51
119
170
51
68
119
51
68
119
51
68
119
51
68
119
51
68
119
51
119
170
51
68
119
51
68
119
51
119
170
51
119
170
51
68
119
51
68
119
51
119
170
51
119
170
51
119
170
51
119
170
51
119
170
51
68
119
51
68
119
51
68
119
51
68
119
51
119
170
51
68
119
51
68
119
51
119
170
51
119
170
51
68
119
51
68
119
51
119
170
51
119
170
51
119
170
51
119
170
51
68
119
51
68
119
51
68
119
51
68
119
51
119
170
51
119
170
51
119
170
85
238
238
238
204
153
238
204
153
238
204
153
238
204
153
238
204
153
34
204
221
51
119
170
51
119
170
51
119
170
51
68
119
51
68
119
51
68
119
51
119
170
51
119
170
51
68
119
51
68
119
51
68
119
51
68
119
119
170
51
119
170
51
238
204
153
238
204
153
85
238
238
51
119
170
51
119
170
51
119
170
51
119
170
51
68
119
51
68
119
51
119
170
51
68
119
51
68
119
51
68
119
51
68
119
51
68
119
51
68
119
51
119
170
51
119
170
51
119
170
51
119
170
51
68
119
51
68
119
51
68
119
51
68
119
51
68
119
51
119
170
51
68
119
51
119
170
51
119
170
51
119
170
51
68
119
51
68
119
51
119
170
51
119
170
51
119
170
51
119
170
51
68
119
51
119
170
51
119
170
51
119
170
85
238
238
51
119
170
51
119
170
85
238
238
238
204
153
238
204
153
119
170
51
51
119
68
119
119
119
119
119
119
51
68
119
51
68
119
51
68
119
51
119
170
85
238
238
34
204
221
34
204
221
51
119
170
51
119
170
51
119
170
51
68
119
51
68
119
51
68
119
51
68
119
51
68
119
51
68
119
51
119
170
51
68
119
51
68
119
51
68
119
51
68
119
51
68
119
51
119
170
51
119
170
51
119
170
51
119
170
51
68
119
51
68
119
51
68
119
51
68
119
51
68
119
51
68
119
51
119
170
51
68
119
51
68
119
85
238
238
51
119
170
51
119
170
204
204
187
153
153
136
119
119
119
204
204
187
51
119
68
51
119
68
51
68
119
51
68
119
51
68
119
51
119
170
51
119
170
51
119
170
51
119
170
51
68
119
51
68
119
51
68
119
51
119
170
51
119
170
51
119
170
34
204
221
238
204
153
238
204
153
238
204
153
238
204
153
238
204
153
34
204
221
51
119
170
51
119
170
51
119
170
51
68
119
51
68
119
51
68
119
51
119
170
51
68
119
51
68
119
51
68
119
51
119
170
51
119
170
51
68
119
51
68
119
51
119
170
85
238
238
51
119
170
51
119
170
51
68
119
51
68
119
51
68
119
51
68
119
51
68
119
51
119
170
51
68
119
51
68
119
51
68
119
51
119
170
51
68
119
51
68
119
51
119
170
51
119
170
51
119
170
51
119
170
51
68
119
51
68
119
51
68
119
51
68
119
51
68
119
51
119
170
51
68
119
51
119
170
51
119
170
51
119
170
51
68
119
51
68
119
51
119
170
51
119
170
51
119
170
51
119
170
51
68
119
51
68
119
51
68
119
51
68
119
51
68
119
51
119
170
51
68
119
51
68
119
51
68
119
51
68
119
51
68
119
51
68
119
51
119
170
51
119
170
51
119
170
51
119
170
51
68
119
51
68
119
51
68
119
51
68
119
51
68
119
51
119
170
51
68
119
51
68
119
51
68
119
51
119
170
51
68
119
51
68
119
51
119
170
51
119
170
51
119
170
51
119
170
51
68
119
51
68
119
51
68
119
51
68
119
51
68
119
51
119
170
51
68
119
51
119
170
51
119
170
51
119
170
51
68
119
51
68
119
51
119
170
51
119
170
51
119
170
51
119
170
51
68
119
51
68
119
51
68
119
51
68
119
51
68
119
51
119
170
51
68
119
51
119
170
51
119
170
51
119
170
51
68
119
51
68
119
51
119
170
51
119
170
51
119
170
51
119
170
51
68
119
51
68
119
51
68
119
51
68
119
51
68
119
51
119
170
51
68
119
51
119
170
51
119
170
51
119
170
238
204
153
238
204
153
238
204
153
238
204
153
85
238
238
34
204
221
51
119
170
51
119
170
51
119
170
51
119
170
51
119
170
51
119
170
51
119
170
85
238
238
238
204
153
238
204
153
51
68
119
51
119
170
51
119
170
51
68
119
51
119
170
51
119
170
51
119
170
51
119
170
51
119
170
51
119
170
51
119
170
51
119
170
51
119
170
51
68
119
51
68
119
51
68
119
51
68
119
51
119
170
51
119
170
51
68
119
51
119
170
51
119
170
51
119
170
51
119
170
51
119
170
51
119
170
51
119
170
51
119
170
51
119
170
51
68
119
51
68
119
51
68
119
51
68
119
51
119
170
51
119
170
51
68
119
51
68
119
51
119
170
51
119
170
51
119
170
51
119
170
51
119
170
51
119
170
51
119
170
85
238
238
85
238
238
238
204
153
238
204
153
238
204
153
238
204
153
238
204
153
34
204
221
51
119
170
51
119
170
51
119
170
51
119
170
51
119
170
51
119
170
85
238
238
51
119
170
51
119
170
51
68
119
51
68
119
51
68
119
119
170
51
238
204
153
238
204
153
238
204
153
85
238
238
51
119
170
51
119
170
85
238
238
51
119
170
51
119
170
51
119
170
51
119
170
51
119
170
51
68
119
51
68
119
51
68
119
51
68
119
51
119
170
51
119
170
51
68
119
51
119
170
51
119
170
51
119
170
51
119
170
51
119
170
51
119
170
51
119
170
51
119
170
51
119
170
51
119
170
51
119
170
51
119
170
51
119
170
51
119
170
51
119
170
51
68
119
51
68
119
51
119
170
51
119
170
51
119
170
51
119
170
51
119
170
85
238
238
51
119
170
51
119
170
85
238
238
238
204
153
238
204
153
119
170
51
51
119
68
153
153
136
119
119
119
51
119
170
51
68
119
51
68
119
51
119
170
85
238
238
85
238
238
34
204
221
51
68
119
51
68
119
51
119
170
51
119
170
51
68
119
51
68
119
51
68
119
51
68
119
51
119
170
221
238
238
51
119
170
51
119
170
51
119
170
51
119
170
51
119
170
51
119
170
51
68
119
51
68
119
51
119
170
51
119
170
51
68
119
51
68
119
51
68
119
51
68
119
51
119
170
51
119
170
51
119
170
51
119
170
34
204
221
51
119
170
51
119
170
204
204
187
153
153
136
119
170
51
204
204
187
204
204
187
204
204
187
51
68
119
51
68
119
51
68
119
51
68
119
51
68
119
51
119
170
51
119
170
51
119
170
51
119
170
51
119
170
51
119
170
51
119
170
85
238
238
34
204
221
238
204
153
238
204
153
238
204
153
238
204
153
238
204
153
34
204
221
51
119
170
51
119
170
51
119
170
51
119
170
51
119
170
51
119
170
51
119
170
51
119
170
51
68
119
51
68
119
51
68
119
51
68
119
51
68
119
51
119
170
51
119
170
51
68
119
51
68
119
51
119
170
51
119
170
51
119
170
51
119
170
51
119
170
51
119
170
51
119
170
51
119
170
51
68
119
51
68
119
51
68
119
51
68
119
51
119
170
51
119
170
51
68
119
51
68
119
51
119
170
51
119
170
51
119
170
51
119
170
51
119
170
51
119
170
51
119
170
51
119
170
51
119
170
51
119
170
51
119
170
51
68
119
51
119
170
51
119
170
51
68
119
51
68
119
51
119
170
51
119
170
51
119
170
51
119
170
51
119
170
51
119
170
85
238
238
51
119
170
51
68
119
51
68
119
51
68
119
51
68
119
51
119
170
51
119
170
51
68
119
51
68
119
51
119
170
51
119
170
51
119
170
51
119
170
51
119
170
85
238
238
51
119
170
51
119
170
51
68
119
51
68
119
51
68
119
51
68
119
51
119
170
51
119
170
51
68
119
51
68
119
51
119
170
51
119
170
51
119
170
51
119
170
51
119
170
51
119
170
51
119
170
51
119
170
51
119
170
51
119
170
51
119
170
51
68
119
51
119
170
51
119
170
51
68
119
51
68
119
51
119
170
51
119
170
51
119
170
51
119
170
51
119
170
51
119
170
51
119
170
51
119
170
51
119
170
51
119
170
51
119
170
51
68
119
51
119
170
51
119
170
51
68
119
51
68
119
51
119
170
51
119
170
51
119
170
51
119
170
51
119
170
51
119
170
51
119
170
51
119
170
51
119
170
51
119
170
51
119
170
238
204
153
238
204
153
238
204
153
85
238
238
85
238
238
85
238
238
51
119
170
51
119
170
51
119
170
51
119
170
51
119
170
51
119
170
51
119
170
51
119
170
238
204
153
238
204
153
51
119
170
51
119
170
51
119
170
51
119
170
51
119
170
51
119
170
51
119
170
51
119
170
51
119
170
51
119
170
51
119
170
51
119
170
51
68
119
51
119
170
51
119
170
51
119
170
51
119
170
51
119
170
51
119
170
51
119
170
51
119
170
51
119
170
51
119
170
51
119
170
51
119
170
51
119
170
51
68
119
51
68
119
51
68
119
51
119
170
51
119
170
51
119
170
51
119
170
51
68
119
51
68
119
51
68
119
51
68
119
51
68
119
51
68
119
51
68
119
51
119
170
51
119
170
51
119
170
51
119
170
85
238
238
238
204
153
238
204
153
238
204
153
238
204
153
238
204
153
238
204
153
34
204
221
85
238
238
51
119
170
51
119
170
51
68
119
51
119
170
51
119
170
51
119
170
51
119
170
51
119
170
51
119
170
51
119
170
51
119
170
119
170
51
238
204
153
238
204
153
85
238
238
85
238
238
85
238
238
51
119
170
51
119
170
85
238
238
85
238
238
51
119
170
51
119
170
51
119
170
51
119
170
51
119
170
51
119
170
51
119
170
51
119
170
51
119
170
51
119
170
51
119
170
51
119
170
51
119
170
51
119
170
51
119
170
51
119
170
51
119
170
51
119
170
51
119
170
51
119
170
51
119
170
51
119
170
51
119
170
51
119
170
51
119
170
51
119
170
51
119
170
51
119
170
51
119
170
51
119
170
51
119
170
85
238
238
51
119
170
51
119
170
51
119
170
51
119
170
238
204
153
238
204
153
119
170
51
119
170
51
51
119
68
153
153
136
119
119
119
51
119
170
51
68
119
51
68
119
51
119
170
85
238
238
85
238
238
34
204
221
51
68
119
51
68
119
51
68
119
51
119
170
34
204
221
85
238
238
51
119
170
51
68
119
51
68
119
51
68
119
51
119
170
51
119
170
51
68
119
51
68
119
51
68
119
51
68
119
51
68
119
51
68
119
51
68
119
51
119
170
34
204
221
85
238
238
51
119
170
51
68
119
51
68
119
51
68
119
34
204
221
51
119
170
51
119
170
119
119
119
85
85
85
153
153
136
119
170
51
119
170
51
204
204
187
119
170
51
51
119
170
51
119
170
51
119
170
51
119
170
51
119
170
51
119
170
51
119
170
51
68
119
51
119
170
51
119
170
51
119
170
51
119
170
34
204
221
238
204
153
238
204
153
238
204
153
238
204
153
238
204
153
238
204
153
34
204
221
85
238
238
51
119
170
51
119
170
51
68
119
51
119
170
51
119
170
51
119
170
51
119
170
51
119
170
51
68
119
51
68
119
51
68
119
51
119
170
51
68
119
51
68
119
51
68
119
51
68
119
51
68
119
51
68
119
51
68
119
51
119
170
51
119
170
51
68
119
51
68
119
51
68
119
51
119
170
51
119
170
51
119
170
51
119
170
51
68
119
51
68
119
51
68
119
51
68
119
51
68
119
51
68
119
51
68
119
51
119
170
51
119
170
51
119
170
51
119
170
51
119
170
51
119
170
51
119
170
51
119
170
51
119
170
51
119
170
51
119
170
51
119
170
51
119
170
51
68
119
51
68
119
51
68
119
51
119
170
51
119
170
51
68
119
51
68
119
51
68
119
51
119
170
51
119
170
51
119
170
85
238
238
51
68
119
51
68
119
51
68
119
51
68
119
51
68
119
51
68
119
51
68
119
51
119
170
51
119
170
51
68
119
51
68
119
51
68
119
51
119
170
51
119
170
51
119
170
51
119
170
51
68
119
51
68
119
51
68
119
51
68
119
51
68
119
51
68
119
51
68
119
51
119
170
51
119
170
51
119
170
51
119
170
51
119
170
51
119
170
51
119
170
51
119
170
51
119
170
51
119
170
51
119
170
51
119
170
51
119
170
51
68
119
51
68
119
51
68
119
51
119
170
51
119
170
51
119
170
51
119
170
51
119
170
51
119
170
51
119
170
51
119
170
85
238
238
51
68
119
51
68
119
51
68
119
51
68
119
51
68
119
51
68
119
51
68
119
51
119
170
51
119
170
51
119
170
51
119
170
51
119
170
51
119
170
51
119
170
51
119
170
238
204
153
238
204
153
238
204
153
85
238
238
85
238
238
85
238
238
34
204
221
51
119
170
51
119
170
51
119
170
51
119
170
51
119
170
51
119
170
51
119
170
238
204
153
238
204
153
51
119
170
51
119
170
51
119
170
51
119
170
51
119
170
51
119
170
51
119
170
51
119
170
51
119
170
51
119
170
51
119
170
51
119
170
51
119
170
51
119
170
51
119
170
51
119
170
51
119
170
51
119
170
51
119
170
51
119
170
51
119
170
51
119
170
51
119
170
51
119
170
51
119
170
51
119
170
51
119
170
51
68
119
51
68
119
51
68
119
51
68
119
51
68
119
51
119
170
51
119
170
51
68
119
51
68
119
51
68
119
51
68
119
51
68
119
51
68
119
51
119
170
51
119
170
51
119
170
51
119
170
85
238
238
238
204
153
238
204
153
238
204
153
238
204
153
238
204
153
238
153
102
238
204
153
85
238
238
51
119
170
51
119
170
51
68
119
51
119
170
51
119
170
51
119
170
51
119
170
51
119
170
51
119
170
51
119
170
51
119
170
119
170
51
238
204
153
238
204
153
85
238
238
85
238
238
85
238
238
51
119
170
51
119
170
51
119
170
51
119
170
51
119
170
85
238
238
85
238
238
51
119
170
51
119
170
51
119
170
51
119
170
51
119
170
51
119
170
51
119
170
51
119
170
51
119
170
51
119
170
51
119
170
51
119
170
51
119
170
51
119
170
85
238
238
85
238
238
51
119
170
51
119
170
85
238
238
85
238
238
51
119
170
85
238
238
85
238
238
51
119
170
51
119
170
51
119
170
51
119
170
51
119
170
51
119
170
51
119
170
85
238
238
51
119
170
51
119
170
238
204
153
238
204
153
119
170
51
119
170
51
204
204
187
204
204
187
119
119
119
119
119
119
119
119
119
51
68
119
51
68
119
51
119
170
51
119
170
85
238
238
34
204
221
34
204
221
85
238
238
85
238
238
85
238
238
85
238
238
85
238
238
85
238
238
85
238
238
85
238
238
85
238
238
34
204
221
51
119
170
51
119
170
51
119
170
51
119
170
51
119
170
51
119
170
34
204
221
85
238
238
85
238
238
85
238
238
85
238
238
85
238
238
85
238
238
85
238
238
34
204
221
51
119
170
51
68
119
85
85
85
85
85
85
153
153
136
119
170
51
204
204
187
119
170
51
119
170
51
51
119
170
51
119
170
51
119
170
51
119
170
51
119
170
51
119
170
51
119
170
51
68
119
51
119
170
51
119
170
51
119
170
51
119
170
34
204
221
238
204
153
238
204
153
238
204
153
238
204
153
238
204
153
238
153
102
238
204
153
34
204
221
51
119
170
51
119
170
51
68
119
51
119
170
51
119
170
51
119
170
51
119
170
51
119
170
51
119
170
51
119
170
51
119
170
51
119
170
51
119
170
51
68
119
51
68
119
51
68
119
51
68
119
51
68
119
51
68
119
51
68
119
51
119
170
51
119
170
51
68
119
51
68
119
51
68
119
51
68
119
51
68
119
51
119
170
51
119
170
51
68
119
51
68
119
51
68
119
51
68
119
51
68
119
51
68
119
51
119
170
51
119
170
51
119
170
51
119
170
51
119
170
51
119
170
51
119
170
51
119
170
51
119
170
51
119
170
51
119
170
51
119
170
51
119
170
51
119
170
51
68
119
51
68
119
51
68
119
51
119
170
51
119
170
51
68
119
51
68
119
51
68
119
51
68
119
51
68
119
51
119
170
51
119
170
51
68
119
51
68
119
51
68
119
51
68
119
51
68
119
51
68
119
51
68
119
51
119
170
51
119
170
51
68
119
51
68
119
51
68
119
51
68
119
51
68
119
51
119
170
51
119
170
51
68
119
51
68
119
51
68
119
51
68
119
51
68
119
51
68
119
51
119
170
51
119
170
51
119
170
51
119
170
51
119
170
51
119
170
51
119
170
51
119
170
51
119
170
51
119
170
51
119
170
51
119
170
51
119
170
51
119
170
51
68
119
51
68
119
51
119
170
51
119
170
51
119
170
51
119
170
51
119
170
51
119
170
51
119
170
51
119
170
51
119
170
51
119
170
51
68
119
51
68
119
51
68
119
51
68
119
51
68
119
51
68
119
51
119
170
51
119
170
51
119
170
51
119
170
51
119
170
51
119
170
51
119
170
51
119
170
238
204
153
238
204
153
238
204
153
85
238
238
85
238
238
85
238
238
85
238
238
34
204
221
51
119
170
51
119
170
51
119
170
51
119
170
51
119
170
238
204
153
238
204
153
238
204
153
34
204
221
85
238
238
85
238
238
85
238
238
51
119
170
51
119
170
51
119
170
51
119
170
34
204
221
34
204
221
51
119
170
51
119
170
51
119
170
51
119
170
51
119
170
85
238
238
85
238
238
85
238
238
85
238
238
51
119
170
51
119
170
51
119
170
51
119
170
51
119
170
51
119
170
51
68
119
51
68
119
51
119
170
51
119
170
51
119
170
51
68
119
51
68
119
51
68
119
85
238
238
51
119
170
51
119
170
51
68
119
51
68
119
51
68
119
51
119
170
51
119
170
51
119
170
51
119
170
51
119
170
51
119
170
238
204
153
238
204
153
238
204
153
238
204
153
238
204
153
238
204
153
238
204
153
238
204
153
85
238
238
51
119
170
51
119
170
51
119
170
51
119
170
51
119
170
51
119
170
51
119
170
51
119
170
51
119
170
51
119
170
119
170
51
238
204
153
238
204
153
85
238
238
85
238
238
85
238
238
85
238
238
85
238
238
51
119
170
51
119
170
51
119
170
51
119
170
51
119
170
51
119
170
51
119
170
51
119
170
51
119
170
85
238
238
85
238
238
51
119
170
51
119
170
51
119
170
51
119
170
51
119
170
51
119
170
51
119
170
51
119
170
51
119
170
51
119
170
85
238
238
85
238
238
51
119
170
51
119
170
51
119
170
51
119
170
51
119
170
85
238
238
85
238
238
85
238
238
85
238
238
51
119
170
85
238
238
85
238
238
51
119
170
51
119
170
238
204
153
238
204
153
238
204
153
119
170
51
51
119
68
204
204
187
204
204
187
153
153
136
119
119
119
119
119
119
119
119
119
119
119
119
51
119
170
51
119
170
51
119
170
51
119
170
85
238
238
85
238
238
34
204
221
34
204
221
85
238
238
85
238
238
51
119
170
51
119
170
51
119
170
51
119
170
51
119
170
51
119
170
51
119
170
34
204
221
85
238
238
85
238
238
85
238
238
85
238
238
34
204
221
51
119
170
51
119
170
51
119
170
34
204
221
85
238
238
51
119
170
51
119
170
34
204
221
119
119
119
85
85
85
119
170
51
204
204
187
204
204
187
204
204
187
51
119
68
119
170
51
51
119
170
51
119
170
51
119
170
51
119
170
51
119
170
51
119
170
51
119
170
51
119
170
51
119
170
51
119
170
51
119
170
51
119
170
51
119
170
238
204
153
238
204
153
238
204
153
238
204
153
238
204
153
238
204
153
238
204
153
238
204
153
34
204
221
51
119
170
51
119
170
51
119
170
51
119
170
51
119
170
51
119
170
51
119
170
51
119
170
51
119
170
51
119
170
51
68
119
51
119
170
51
119
170
51
119
170
51
68
119
51
68
119
51
68
119
51
119
170
51
119
170
51
68
119
51
68
119
51
119
170
51
119
170
51
119
170
51
68
119
51
68
119
51
68
119
51
119
170
51
119
170
51
119
170
51
68
119
51
68
119
51
68
119
51
119
170
51
119
170
51
119
170
51
119
170
51
119
170
51
119
170
51
119
170
51
119
170
51
119
170
51
119
170
51
119
170
51
119
170
51
119
170
51
119
170
51
119
170
51
119
170
51
119
170
51
119
170
51
68
119
51
68
119
51
119
170
51
119
170
51
119
170
51
68
119
51
68
119
51
68
119
51
119
170
51
119
170
51
119
170
51
68
119
51
68
119
51
68
119
51
119
170
51
119
170
51
68
119
51
68
119
51
119
170
51
119
170
51
119
170
51
68
119
51
68
119
51
68
119
85
238
238
51
119
170
51
119
170
51
68
119
51
68
119
51
68
119
51
119
170
51
119
170
51
119
170
51
119
170
51
119
170
51
119
170
51
119
170
51
119
170
51
119
170
51
119
170
51
119
170
51
119
170
51
119
170
51
119
170
51
119
170
51
119
170
51
119
170
51
119
170
51
119
170
51
119
170
51
119
170
51
119
170
51
119
170
51
119
170
51
119
170
51
68
119
51
119
170
51
119
170
51
119
170
51
68
119
51
68
119
51
68
119
51
119
170
51
119
170
51
119
170
51
119
170
51
119
170
51
119
170
51
119
170
51
119
170
51
119
170
119
170
51
238
204
153
238
153
102
238
204
153
85
238
238
85
238
238
85
238
238
85
238
238
85
238
238
85
238
238
51
119
170
85
238
238
85
238
238
238
204
153
238
204
153
119
170
51
238
204
153
238
204
153
85
238
238
85
238
238
85
238
238
85
238
238
51
119
170
238
204
153
238
204
153
34
204
221
34
204
221
51
119
170
51
119
170
238
204
153
238
204
153
238
204
153
238
204
153
238
204
153
85
238
238
85
238
238
51
119
170
51
119
170
51
119
170
51
119
170
51
68
119
51
68
119
51
68
119
51
68
119
51
68
119
51
119
170
51
119
170
51
119
170
51
119
170
51
68
119
51
68
119
51
119
170
51
119
170
51
119
170
51
119
170
51
68
119
51
119
170
51
119
170
51
119
170
51
119
170
51
119
170
34
204
221
238
204
153
238
204
153
238
204
153
238
204
153
238
204
153
238
204
153
238
204
153
34
204
221
51
119
170
51
119
170
51
119
170
51
119
170
51
119
170
51
119
170
51
119
170
51
119
170
51
119
170
85
238
238
119
170
51
238
204
153
238
153
102
238
204
153
85
238
238
85
238
238
85
238
238
85
238
238
85
238
238
85
238
238
85
238
238
85
238
238
51
119
170
51
119
170
51
119
170
51
119
170
34
204
221
34
204
221
34
204
221
85
238
238
51
119
170
51
119
170
51
119
170
85
238
238
85
238
238
34
204
221
51
119
170
51
119
170
51
119
170
51
119
170
51
119
170
34
204
221
34
204
221
85
238
238
51
119
170
51
119
170
51
119
170
51
119
170
51
119
170
51
119
170
51
119
170
51
119
170
51
119
170
85
238
238
85
238
238
238
204
153
238
204
153
119
170
51
119
170
51
51
119
68
51
119
68
204
204
187
204
204
187
51
119
68
51
119
68
153
153
136
119
119
119
119
119
119
85
85
85
85
85
85
119
119
119
119
119
119
119
170
51
119
119
119
85
85
85
85
85
85
85
85
85
119
170
51
119
119
119
119
119
119
85
85
85
85
85
85
85
85
85
85
85
85
119
119
119
119
119
119
51
119
68
119
119
119
119
119
119
85
85
85
85
85
85
119
119
119
119
119
119
119
119
119
119
119
119
119
119
119
119
119
119
85
85
85
119
119
119
119
170
51
119
170
51
204
204
187
204
204
187
119
170
51
119
170
51
119
170
51
34
204
221
51
119
170
51
119
170
51
119
170
51
119
170
51
119
170
51
119
170
51
119
170
51
119
170
51
119
170
51
119
170
51
119
170
51
119
170
34
204
221
238
204
153
238
204
153
238
204
153
238
204
153
238
204
153
238
204
153
238
204
153
34
204
221
51
119
170
51
119
170
51
119
170
51
119
170
51
119
170
51
119
170
51
119
170
51
119
170
51
119
170
34
204
221
51
119
170
51
68
119
51
68
119
51
119
170
51
119
170
51
119
170
51
119
170
51
68
119
51
68
119
51
68
119
51
68
119
51
68
119
51
68
119
85
238
238
51
119
170
51
119
170
51
119
170
51
68
119
51
68
119
51
119
170
51
119
170
51
119
170
51
119
170
51
68
119
51
119
170
51
119
170
51
119
170
51
119
170
51
119
170
51
119
170
51
119
170
51
119
170
85
238
238
85
238
238
34
204
221
51
119
170
51
119
170
51
119
170
51
119
170
51
68
119
51
68
119
51
68
119
51
68
119
51
68
119
51
68
119
51
119
170
85
238
238
51
119
170
51
119
170
51
68
119
51
68
119
51
119
170
51
119
170
85
238
238
51
119
170
51
68
119
51
68
119
51
68
119
51
68
119
51
68
119
51
68
119
51
119
170
51
119
170
51
119
170
51
119
170
51
68
119
51
68
119
51
119
170
51
119
170
51
119
170
51
119
170
51
68
119
51
119
170
51
119
170
51
119
170
51
119
170
51
119
170
51
119
170
51
119
170
51
119
170
34
204
221
85
238
238
85
238
238
51
119
170
51
119
170
51
119
170
51
119
170
51
68
119
51
119
170
51
119
170
51
119
170
51
119
170
51
119
170
51
119
170
51
119
170
51
119
170
51
119
170
51
68
119
51
68
119
51
119
170
51
119
170
85
238
238
51
119
170
51
68
119
51
119
170
51
119
170
51
119
170
51
119
170
51
119
170
51
119
170
51
119
170
51
119
170
119
170
51
119
170
51
238
204
153
238
153
102
238
204
153
85
238
238
85
238
238
238
204
153
238
204
153
238
204
153
85
238
238
85
238
238
238
204
153
238
153
102
238
204
153
119
170
51
238
204
153
238
204
153
238
204
153
238
204
153
238
204
153
238
204
153
238
204
153
238
204
153
238
204
153
238
204
153
238
204
153
238
204
153
238
204
153
238
204
153
238
204
153
238
204
153
238
204
153
238
204
153
238
204
153
85
238
238
51
119
170
51
119
170
51
119
170
51
119
170
51
68
119
51
68
119
51
68
119
51
68
119
51
68
119
51
68
119
51
119
170
51
68
119
51
68
119
51
68
119
51
68
119
51
68
119
51
68
119
51
119
170
51
68
119
51
68
119
51
119
170
51
119
170
51
119
170
51
119
170
51
119
170
34
204
221
238
204
153
238
204
153
238
204
153
238
204
153
238
204
153
238
204
153
34
204
221
51
119
170
51
119
170
51
119
170
51
119
170
51
119
170
51
119
170
51
119
170
51
119
170
51
119
170
85
238
238
238
204
153
119
170
51
119
170
51
238
204
153
238
153
102
238
204
153
85
238
238
85
238
238
238
204
153
238
204
153
238
204
153
238
204
153
85
238
238
85
238
238
85
238
238
85
238
238
238
204
153
238
204
153
238
204
153
34
204
221
34
204
221
85
238
238
85
238
238
85
238
238
238
204
153
238
204
153
34
204
221
34
204
221
51
119
170
51
119
170
238
204
153
238
204
153
238
204
153
238
204
153
34
204
221
85
238
238
34
204
221
51
119
170
51
119
170
51
119
170
51
119
170
238
204
153
85
238
238
85
238
238
85
238
238
238
204
153
238
153
102
238
204
153
119
170
51
119
170
51
204
204
187
204
204
187
51
119
68
51
119
68
51
119
68
51
119
68
51
119
68
51
119
68
51
119
68
119
119
119
153
153
136
51
119
68
51
119
68
153
153
136
153
153
136
153
153
136
153
153
136
51
119
68
51
119
68
119
170
51
153
153
136
51
119
68
153
153
136
153
153
136
153
153
136
153
153
136
119
170
51
119
170
51
153
153
136
153
153
136
119
170
51
153
153
136
153
153
136
153
153
136
153
153
136
119
119
119
119
119
119
119
119
119
85
85
85
119
170
51
119
170
51
153
153
136
153
153
136
153
153
136
119
170
51
119
170
51
119
170
51
238
204
153
85
238
238
85
238
238
51
119
170
51
119
170
51
119
170
51
119
170
51
119
170
51
119
170
51
119
170
51
119
170
51
119
170
51
119
170
34
204
221
238
204
153
238
204
153
238
204
153
238
204
153
238
204
153
238
204
153
85
238
238
51
119
170
51
119
170
51
119
170
51
119
170
51
119
170
51
119
170
51
119
170
51
119
170
51
119
170
34
204
221
238
204
153
51
68
119
51
68
119
51
68
119
51
68
119
51
68
119
51
119
170
51
68
119
51
68
119
51
68
119
51
68
119
51
68
119
51
68
119
51
68
119
51
68
119
51
119
170
51
68
119
51
68
119
51
68
119
51
68
119
51
68
119
51
68
119
51
119
170
51
68
119
51
68
119
51
119
170
51
119
170
51
119
170
51
119
170
51
119
170
51
119
170
85
238
238
238
204
153
238
204
153
238
204
153
85
238
238
34
204
221
51
119
170
51
119
170
51
119
170
51
119
170
51
68
119
51
68
119
51
68
119
51
68
119
51
68
119
51
68
119
51
119
170
51
68
119
51
68
119
51
68
119
51
68
119
51
68
119
51
68
119
51
119
170
51
68
119
51
68
119
51
68
119
51
68
119
51
68
119
51
68
119
51
68
119
51
68
119
51
119
170
51
68
119
51
68
119
51
68
119
51
68
119
51
68
119
51
68
119
51
119
170
51
68
119
51
68
119
51
119
170
51
119
170
51
119
170
51
119
170
51
119
170
51
119
170
34
204
221
238
204
153
238
204
153
238
204
153
85
238
238
85
238
238
51
119
170
51
119
170
51
119
170
51
119
170
51
119
170
51
119
170
51
119
170
51
119
170
51
119
170
51
119
170
34
204
221
238
204
153
51
68
119
51
68
119
51
68
119
51
68
119
51
68
119
51
119
170
51
68
119
51
68
119
51
119
170
51
119
170
51
119
170
51
119
170
51
119
170
51
119
170
85
238
238
238
204
153
119
170
51
119
170
51
119
170
51
238
204
153
238
153
102
238
204
153
238
204
153
238
204
153
238
204
153
238
204
153
238
204
153
238
204
153
238
153
102
238
204
153
119
170
51
119
170
51
119
170
51
238
204
153
238
204
153
238
204
153
238
204
153
238
204
153
238
204
153
238
204
153
238
204
153
238
204
153
238
204
153
238
204
153
238
204
153
238
204
153
238
204
153
238
204
153
238
204
153
238
204
153
238
153
102
238
204
153
85
238
238
51
119
170
51
119
170
51
119
170
51
68
119
51
68
119
51
68
119
51
68
119
51
68
119
51
68
119
51
68
119
51
119
170
51
119
170
51
68
119
51
68
119
51
68
119
51
68
119
51
119
170
51
68
119
51
68
119
51
68
119
51
119
170
51
119
170
51
119
170
85
238
238
85
238
238
238
204
153
238
204
153
238
204
153
238
204
153
238
204
153
238
204
153
34
204
221
51
119
170
51
119
170
51
119
170
51
68
119
51
119
170
51
119
170
51
119
170
51
119
170
85
238
238
85
238
238
238
204
153
119
170
51
119
170
51
119
170
51
238
204
153
238
153
102
238
204
153
238
204
153
238
204
153
238
204
153
238
204
153
238
204
153
238
204
153
238
204
153
238
204
153
238
204
153
238
204
153
238
204
153
238
204
153
238
204
153
238
204
153
238
204
153
238
204
153
238
204
153
238
204
153
238
204
153
238
204
153
238
204
153
238
204
153
238
204
153
238
204
153
238
204
153
238
204
153
238
204
153
238
204
153
238
204
153
34
204
221
34
204
221
34
204
221
238
204
153
238
204
153
238
153
102
238
204
153
238
204
153
238
204
153
238
153
102
238
204
153
119
170
51
119
170
51
119
170
51
119
170
51
204
204
187
204
204
187
51
119
68
204
204
187
204
204
187
51
119
68
51
119
68
51
119
68
119
170
51
51
119
68
51
119
68
51
119
68
153
153
136
153
153
136
119
170
51
51
119
68
51
119
68
51
119
68
119
170
51
119
170
51
51
119
68
51
119
68
51
119
68
51
119
68
51
119
68
119
170
51
119
170
51
51
119
68
51
119
68
119
170
51
153
153
136
153
153
136
153
153
136
153
153
136
51
119
68
51
119
68
119
170
51
119
170
51
119
170
51
51
119
68
51
119
68
153
153
136
119
170
51
119
170
51
51
119
68
119
170
51
238
153
102
238
204
153
238
204
153
85
238
238
51
119
170
51
119
170
51
119
170
51
119
170
51
68
119
51
119
170
51
119
170
51
119
170
85
238
238
34
204
221
238
204
153
238
204
153
238
204
153
238
204
153
238
204
153
238
204
153
85
238
238
51
119
170
51
119
170
51
119
170
51
68
119
51
119
170
51
119
170
51
119
170
51
119
170
85
238
238
34
204
221
238
204
153
51
119
170
51
68
119
51
68
119
51
68
119
51
68
119
51
119
170
51
68
119
51
68
119
51
68
119
51
68
119
51
68
119
51
68
119
51
68
119
51
68
119
51
68
119
51
119
170
51
119
170
51
68
119
51
68
119
51
68
119
51
68
119
51
119
170
51
68
119
51
68
119
51
68
119
51
119
170
51
119
170
51
119
170
51
119
170
51
119
170
85
238
238
238
204
153
238
204
153
238
204
153
238
204
153
85
238
238
34
204
221
51
119
170
51
119
170
51
119
170
51
68
119
51
68
119
51
68
119
51
68
119
51
68
119
51
68
119
51
68
119
51
119
170
51
119
170
51
68
119
51
68
119
51
68
119
51
68
119
51
119
170
51
68
119
51
68
119
51
68
119
51
68
119
51
68
119
51
68
119
51
68
119
51
68
119
51
68
119
51
119
170
51
119
170
51
68
119
51
68
119
51
68
119
51
68
119
51
119
170
51
68
119
51
68
119
51
68
119
51
119
170
51
119
170
51
119
170
51
119
170
51
119
170
34
204
221
238
204
153
238
204
153
238
204
153
238
204
153
85
238
238
34
204
221
51
119
170
51
119
170
51
119
170
51
68
119
51
119
170
51
119
170
51
119
170
51
119
170
51
119
170
85
238
238
238
204
153
51
119
170
51
68
119
51
68
119
51
68
119
51
68
119
51
119
170
51
68
119
51
68
119
51
68
119
51
119
170
51
119
170
51
119
170
51
119
170
51
119
170
34
204
221
238
204
153
119
170
51
119
170
51
119
170
51
119
170
51
238
204
153
238
204
153
238
204
153
238
204
153
119
170
51
238
204
153
238
204
153
238
204
153
238
204
153
119
170
51
119
170
51
119
170
51
119
170
51
119
170
51
238
204
153
238
204
153
238
204
153
238
204
153
238
204
153
238
204
153
238
204
153
238
204
153
238
204
153
238
204
153
238
204
153
238
204
153
238
204
153
238
204
153
238
204
153
238
204
153
238
204
153
238
153
102
238
153
102
51
119
170
51
119
170
51
119
170
51
119
170
51
119
170
51
119
170
51
68
119
51
68
119
51
68
119
51
119
170
51
119
170
51
119
170
51
119
170
51
119
170
51
119
170
51
119
170
51
68
119
51
119
170
51
119
170
51
119
170
51
119
170
51
119
170
85
238
238
85
238
238
238
204
153
238
153
102
238
204
153
238
204
153
238
204
153
238
204
153
238
204
153
34
204
221
51
119
170
51
119
170
51
119
170
51
119
170
51
119
170
51
119
170
51
119
170
85
238
238
85
238
238
238
204
153
238
153
102
119
170
51
119
170
51
119
170
51
119
170
51
238
204
153
238
204
153
238
204
153
238
204
153
119
170
51
119
170
51
238
204
153
238
204
153
119
170
51
119
170
51
238
204
153
238
204
153
119
170
51
238
204
153
238
204
153
238
204
153
238
204
153
238
204
153
119
170
51
119
170
51
119
170
51
119
170
51
238
204
153
238
204
153
119
170
51
119
170
51
119
170
51
119
170
51
238
204
153
238
204
153
238
204
153
238
204
153
238
204
153
238
204
153
119
170
51
119
170
51
238
204
153
238
204
153
238
204
153
119
170
51
238
204
153
119
170
51
238
204
153
119
170
51
119
170
51
119
170
51
51
119
68
51
119
68
51
119
68
51
119
68
51
119
68
119
170
51
119
170
51
51
119
68
119
170
51
119
170
51
119
170
51
119
170
51
119
170
51
119
170
51
51
119
68
119
170
51
119
170
51
51
119
68
51
119
68
119
170
51
119
170
51
119
170
51
119
170
51
51
119
68
119
170
51
119
170
51
119
170
51
119
170
51
119
170
51
119
170
51
119
170
51
119
170
51
51
119
68
51
119
68
119
170
51
119
170
51
119
170
51
119
170
51
119
170
51
119
170
51
119
170
51
119
170
51
51
119
68
119
170
51
119
170
51
119
170
51
238
204
153
238
204
153
238
204
153
238
204
153
34
204
221
51
119
170
51
119
170
51
119
170
51
68
119
51
119
170
51
119
170
85
238
238
34
204
221
238
204
153
238
153
102
238
204
153
238
204
153
238
204
153
238
204
153
238
204
153
34
204
221
51
119
170
51
119
170
51
119
170
51
68
119
51
119
170
51
119
170
51
119
170
85
238
238
34
204
221
238
204
153
238
153
102
51
119
170
51
119
170
51
119
170
51
119
170
51
119
170
51
68
119
51
119
170
51
119
170
51
119
170
51
119
170
51
119
170
51
68
119
51
68
119
51
68
119
51
119
170
51
119
170
51
119
170
51
119
170
51
119
170
51
119
170
51
119
170
51
68
119
51
119
170
51
119
170
51
119
170
51
119
170
51
119
170
51
119
170
51
119
170
85
238
238
238
204
153
238
204
153
119
170
51
119
170
51
238
204
153
238
204
153
85
238
238
34
204
221
51
119
170
51
119
170
51
119
170
51
119
170
51
119
170
51
68
119
51
68
119
51
68
119
51
119
170
51
119
170
51
119
170
51
119
170
51
119
170
51
119
170
51
119
170
51
68
119
51
119
170
51
119
170
51
119
170
51
119
170
51
119
170
51
68
119
51
68
119
51
68
119
51
119
170
51
119
170
51
119
170
51
119
170
51
119
170
51
119
170
51
119
170
51
68
119
51
119
170
51
119
170
51
119
170
51
119
170
51
119
170
51
119
170
34
204
221
238
204
153
238
204
153
238
153
102
238
204
153
238
204
153
238
153
102
238
204
153
85
238
238
34
204
221
51
119
170
51
119
170
51
68
119
51
119
170
51
119
170
85
238
238
85
238
238
238
204
153
238
204
153
238
153
102
51
119
170
51
119
170
51
119
170
51
119
170
51
119
170
51
68
119
51
119
170
51
119
170
51
119
170
51
119
170
51
119
170
51
119
170
34
204
221
238
204
153
238
204
153
238
153
102
51
68
119
51
68
119
51
119
170
51
68
119
51
68
119
51
119
170
51
119
170
51
68
119
51
68
119
51
119
170
51
119
170
51
119
170
85
238
238
238
204
153
238
204
153
119
170
51
119
170
51
238
204
153
238
204
153
85
238
238
34
204
221
51
119
170
51
119
170
51
68
119
51
68
119
51
68
119
51
68
119
51
119
170
51
119
170
51
119
170
51
119
170
51
68
119
119
170
51
238
204
153
238
204
153
85
238
238
51
119
170
51
119
170
51
119
170
51
68
119
51
68
119
51
119
170
51
119
170
51
119
170
34
204
221
238
204
153
238
204
153
238
204
153
119
170
51
238
204
153
238
204
153
85
238
238
51
119
170
51
119
170
51
119
170
51
68
119
51
68
119
51
119
170
51
119
170
51
68
119
51
68
119
51
119
170
51
68
119
51
68
119
51
119
170
51
119
170
51
119
170
51
119
170
51
119
170
51
68
119
51
119
170
51
119
170
51
119
170
51
119
170
51
119
170
51
119
170
34
204
221
238
204
153
238
204
153
238
153
102
238
153
102
238
204
153
238
204
153
34
204
221
51
119
170
51
119
170
51
119
170
51
119
170
51
119
170
51
119
170
51
68
119
51
119
170
51
119
170
51
119
170
51
119
170
51
119
170
0
0
0
0
0
0
0
0
0
0
0
0
0
0
0
0
0
0
0
0
0
0
0
0
0
0
0
0
0
0
0
0
0
0
0
0
0
0
0
0
0
0
0
0
0
0
0
0
0
0
0
0
0
0
0
0
0
0
0
0
0
0
0
0
0
0
0
0
0
0
0
0
0
0
0
0
0
0
0
0
0
0
0
0
0
0
0
0
0
0
0
0
0
0
0
0
0
0
0
0
0
0
0
0
0
0
0
0
0
0
0
0
0
0
0
0
0
0
0
0
0
0
0
0
0
0
0
0
0
0
0
0
0
0
0
0
0
0
0
0
0
0
0
0
0
0
0
0
0
0
0
0
0
0
0
0
0
0
0
0
0
0
0
0
0
0
0
0
0
0
0
0
0
0
0
0
0
0
0
0
0
0
0
0
0
0
0
0
0
0
0
0
0
0
0
0
0
0
0
0
0
0
0
0
0
0
0
0
0
0
0
0
0
0
0
0
0
0
0
0
0
0
0
0
0
0
0
0
0
0
0
0
0
0
0
0
0
0
0
0
0
0
0
0
0
0
0
0
0
0
0
0
0
0
0
0
0
0
0
0
0
0
0
0
0
0
0
0
0
0
0
0
0
0
0
0
0
0
0
0
0
0
0
0
0
0
0
0
0
0
0
0
0
0
0
0
0
0
0
0
0
0
0
0
0
0
0
0
0
0
0
0
0
0
0
0
0
0
0
0
0
0
0
0
0
0
0
0
0
0
0
0
0
0
0
0
0
0
0
0
0
0
0
0
0
0
0
0
0
0
0
0
0
0
0
0
0
0
0
0
0
0
0
0
0
0
0
0
0
0
0
0
0
0
0
0
0
0
0
0
0
0
0
0
0
0
0
0
0
0
0
0
0
0
0
0
0
0
0
0
0
0
0
0
0
0
0
0
0
0
0
0
0
0
0
0
0
0
0
0
0
0
0
0
0
0
0
0
0
0
0
0
0
0
0
0
0
0
0
0
0
0
0
0
0
0
0
0
0
0
0
0
0
0
0
0
0
0
0
0
0
0
0
0
0
0
0
0
0
0
0
0
0
0
0
0
0
0
0
0
0
0
0
0
0
0
0
0
0
0
0
0
0
0
0
0
0
0
0
0
0
0
0
0
0
0
0
0
0
0
0
0
0
0
0
0
0
0
0
0
0
0
0
0
0
0
0
0
0
0
0
0
0
0
0
0
0
0
0
0
0
0
0
0
0
0
0
0
0
0
0
0
0
0
0
0
0
0
0
0
0
0
0
0
0
0
0
0
0
0
0
0
0
0
0
0
0
0
0
0
0
0
0
0
0
0
0
0
0
0
0
0
0
0
0
0
0
0
0
0
0
0
0
0
0
0
0
0
0
0
0
0
0
0
0
0
0
0
0
0
0
0
0
0
0
0
0
0
0
0
0
0
0
0
0
0
0
0
0
0
0
0
0
0
0
0
0
0
0
0
0
0
0
0
0
0
0
0
0
0
0
0
0
0
0
0
0
0
0
0
0
0
51
68
119
51
68
119
51
68
119
51
119
170
51
119
170
51
119
170
51
68
119
51
68
119
51
68
119
51
119
170
51
119
170
51
119
170
51
119
170
85
238
238
238
204
153
238
204
153
238
204
153
238
204
153
238
204
153
85
238
238
51
119
170
51
119
170
51
119
170
51
68
119
51
68
119
51
68
119
51
68
119
51
68
119
51
68
119
51
119
170
51
68
119
51
68
119
238
204
153
238
204
153
238
204
153
85
238
238
51
119
170
51
119
170
51
119
170
51
68
119
51
68
119
51
119
170
51
119
170
51
119
170
34
204
221
34
204
221
238
204
153
238
204
153
119
170
51
238
204
153
85
238
238
51
119
170
51
119
170
51
119
170
51
119
170
51
68
119
51
68
119
51
68
119
51
119
170
51
119
170
51
119
170
51
68
119
51
68
119
51
68
119
51
119
170
51
68
119
51
68
119
51
68
119
51
68
119
51
119
170
51
68
119
51
68
119
51
68
119
51
119
170
51
119
170
51
119
170
51
119
170
51
119
170
34
204
221
238
204
153
238
204
153
34
204
221
51
119
170
51
119
170
51
119
170
51
119
170
51
119
170
51
68
119
51
68
119
51
68
119
51
119
170
51
68
119
51
68
119
51
68
119
51
68
119
51
119
170
0
0
0
51
34
51
51
119
170
51
119
170
51
119
170
51
119
170
51
119
170
51
119
170
51
119
170
51
119
170
51
119
170
51
119
170
51
119
170
51
119
170
51
34
51
0
0
0
0
0
0
51
34
51
0
0
0
51
119
170
0
0
0
51
119
170
0
0
0
51
119
170
0
0
0
51
119
170
0
0
0
51
119
170
0
0
0
51
119
170
0
0
0
0
0
0
0
0
0
0
0
0
0
0
0
0
0
0
0
0
0
0
0
0
0
0
0
51
51
51
0
0
0
0
0
0
0
0
0
51
51
51
0
0
0
0
0
0
0
0
0
0
0
0
0
0
0
0
0
0
0
0
0
0
0
0
0
0
0
0
0
0
102
51
68
102
51
68
102
51
68
0
0
0
0
0
0
0
0
0
0
0
0
0
0
0
0
0
0
0
0
0
0
0
0
0
0
0
0
0
0
119
34
34
0
0
0
0
0
0
0
0
0
0
0
0
0
0
0
0
0
0
0
0
0
0
0
0
119
34
34
0
0
0
0
0
0
0
0
0
0
0
0
0
0
0
0
0
0
0
0
0
0
0
0
0
0
0
0
0
0
0
0
0
0
0
0
0
0
0
0
0
0
0
0
0
0
0
0
0
0
0
0
0
0
0
0
0
0
0
0
51
119
170
187
221
68
119
170
51
238
153
102
187
119
85
51
68
119
51
119
170
0
0
0
119
68
68
221
238
238
255
255
255
119
170
51
119
170
51
119
170
51
0
0
0
0
0
0
0
0
0
0
0
0
0
0
0
0
0
0
0
0
0
0
0
0
0
0
0
0
0
0
0
0
0
0
0
0
0
0
0
0
0
0
0
0
0
0
0
0
0
0
0
0
0
0
0
0
0
0
0
0
0
0
0
0
0
0
0
0
0
0
0
0
0
0
0
0
0
0
0
0
0
0
0
0
0
0
0
0
0
0
0
0
0
0
0
0
0
0
0
0
0
0
0
0
0
0
0
0
0
0
0
0
0
0
0
0
0
0
0
0
0
0
0
0
0
0
0
0
0
0
0
0
0
0
0
0
0
0
0
0
0
0
0
0
0
0
0
0
0
0
0
0
0
0
0
0
0
0
0
0
0
0
0
0
0
0
0
0
0
0
0
0
0
0
0
0
0
0
0
0
0
0
0
0
0
0
0
0
0
0
0
0
0
0
0
0
0
0
0
0
0
0
0
0
0
0
0
0
0
0
0
0
0
0
0
0
0
0
0
0
0
0
0
0
0
0
0
0
0
0
0
0
0
0
0
0
0
0
0
0
0
0
0
0
0
0
0
0
0
0
0
0
0
0
0
0
0
0
0
0
0
0
0
0
0
0
0
0
0
0
0
0
0
0
0
0
0
0
0
0
0
0
0
0
0
0
0
0
0
0
0
0
0
0
0
0
0
0
0
0
0
0
0
0
0
0
0
0
0
0
0
0
0
0
0
0
0
0
0
0
0
0
0
0
0
0
0
0
0
0
0
0
0
0
0
0
0
0
0
51
68
119
51
68
119
51
68
119
51
68
119
51
68
119
51
119
170
51
68
119
51
68
119
51
68
119
51
68
119
51
119
170
51
119
170
51
119
170
85
238
238
238
204
153
238
204
153
238
204
153
238
153
102
238
204
153
34
204
221
51
119
170
51
119
170
51
119
170
51
119
170
51
68
119
51
68
119
51
68
119
51
68
119
51
68
119
51
68
119
51
119
170
51
68
119
238
204
153
238
153
102
238
204
153
85
238
238
51
119
170
51
119
170
51
119
170
51
119
170
51
68
119
51
68
119
51
119
170
51
119
170
51
119
170
34
204
221
238
204
153
238
153
102
238
204
153
238
204
153
85
238
238
51
119
170
51
119
170
51
119
170
51
68
119
51
68
119
51
68
119
51
68
119
51
119
170
51
68
119
51
68
119
51
68
119
51
68
119
51
68
119
51
68
119
51
68
119
51
68
119
51
68
119
51
68
119
51
119
170
51
68
119
51
68
119
51
119
170
51
119
170
51
119
170
51
119
170
51
119
170
51
119
170
85
238
238
238
204
153
238
204
153
85
238
238
51
119
170
51
119
170
51
119
170
51
119
170
51
119
170
51
119
170
51
68
119
51
68
119
51
119
170
51
68
119
51
68
119
51
68
119
51
68
119
51
68
119
0
0
0
51
119
170
51
119
170
51
119
170
221
238
238
221
238
238
221
238
238
221
238
238
221
238
238
221
238
238
221
238
238
221
238
238
51
119
170
51
119
170
51
68
119
0
0
0
0
0
0
0
0
0
51
119
170
0
0
0
221
238
238
0
0
0
221
238
238
0
0
0
221
238
238
0
0
0
221
238
238
0
0
0
51
119
170
0
0
0
51
119
170
0
0
0
0
0
0
0
0
0
0
0
0
0
0
0
0
0
0
0
0
0
51
51
51
119
68
68
51
51
51
0
0
0
51
51
51
119
68
68
51
51
51
0
0
0
0
0
0
0
0
0
0
0
0
0
0
0
0
0
0
0
0
0
102
51
68
102
51
68
153
85
85
153
85
85
153
85
85
102
51
68
102
51
68
0
0
0
0
0
0
0
0
0
0
0
0
0
0
0
0
0
0
0
0
0
119
34
34
170
17
17
119
34
34
0
0
0
0
0
0
0
0
0
0
0
0
0
0
0
0
0
0
119
34
34
170
17
17
119
34
34
0
0
0
0
0
0
0
0
0
0
0
0
0
0
0
0
0
0
238
153
102
238
153
102
238
153
102
238
153
102
238
153
102
0
0
0
0
0
0
0
0
0
0
0
0
0
0
0
0
0
0
0
0
0
0
0
0
51
68
119
153
85
85
204
204
187
153
153
136
119
119
119
85
85
85
51
51
51
68
85
85
51
119
170
51
119
68
119
170
51
187
221
68
0
255
0
51
119
170
0
0
0
0
0
0
0
0
0
0
0
0
0
0
0
0
0
0
0
0
0
0
0
0
0
0
0
0
0
0
0
0
0
0
0
0
0
0
0
0
0
0
0
0
0
0
0
0
0
0
0
0
0
0
0
0
0
0
0
0
0
0
0
0
0
0
0
0
0
0
0
0
0
0
0
0
0
0
0
0
0
0
0
0
0
0
0
0
0
0
0
0
0
0
0
0
0
0
0
0
0
0
0
0
0
0
0
0
0
0
0
0
0
0
0
0
0
0
0
0
0
0
0
0
0
0
0
0
0
0
0
0
0
0
0
0
0
0
0
0
0
0
0
0
0
0
0
0
0
0
0
0
0
0
0
0
0
0
0
0
0
0
0
0
0
0
0
0
0
0
0
0
0
0
0
0
0
0
0
0
0
0
0
0
0
0
0
0
0
0
0
0
0
0
0
0
0
0
0
0
0
0
0
0
0
0
0
0
0
0
0
0
0
0
0
0
0
0
0
0
0
0
0
0
0
0
0
0
0
0
0
0
0
0
0
0
0
0
0
0
0
0
0
0
0
0
0
0
0
0
0
0
0
0
0
0
0
0
0
0
0
0
0
0
0
0
0
0
0
0
0
0
0
0
0
0
0
0
0
0
0
0
0
0
0
0
0
0
0
0
0
0
0
0
0
0
0
0
0
0
0
0
0
0
0
0
0
0
0
0
0
0
0
0
0
0
0
0
0
0
0
0
0
0
0
0
0
0
0
0
0
0
0
0
0
0
0
0
0
51
119
170
51
68
119
51
68
119
51
68
119
51
68
119
51
68
119
51
119
170
51
68
119
51
68
119
51
68
119
51
119
170
51
119
170
51
119
170
34
204
221
238
204
153
238
204
153
51
119
170
238
204
153
34
204
221
51
119
170
51
119
170
51
119
170
51
119
170
51
119
170
51
68
119
51
68
119
51
68
119
51
68
119
51
68
119
51
68
119
51
68
119
51
119
170
51
119
170
238
204
153
85
238
238
51
119
170
51
119
170
51
119
170
51
119
170
51
119
170
51
68
119
51
68
119
51
119
170
51
119
170
51
119
170
51
119
170
34
204
221
238
204
153
238
204
153
238
204
153
34
204
221
51
119
170
51
119
170
51
119
170
51
68
119
51
68
119
51
68
119
51
119
170
51
68
119
51
68
119
51
68
119
51
68
119
51
68
119
51
119
170
51
119
170
51
68
119
51
68
119
51
119
170
51
119
170
85
238
238
51
119
170
51
68
119
51
119
170
51
119
170
51
119
170
51
119
170
51
119
170
51
119
170
51
119
170
51
119
170
51
119
170
51
119
170
51
119
170
51
119
170
51
119
170
51
119
170
51
119
170
51
119
170
51
68
119
51
119
170
85
238
238
51
119
170
51
119
170
51
68
119
51
68
119
51
119
170
0
0
0
51
119
170
51
68
119
51
68
119
221
238
238
68
85
85
68
85
85
68
85
85
221
238
238
68
85
85
68
85
85
221
238
238
51
51
51
51
51
51
51
68
119
0
0
0
0
0
0
51
119
170
0
0
0
51
68
119
0
0
0
68
85
85
0
0
0
68
85
85
0
0
0
68
85
85
0
0
0
221
238
238
0
0
0
51
51
51
0
0
0
0
0
0
0
0
0
0
0
0
0
0
0
0
0
0
0
0
0
51
51
51
221
238
238
119
68
68
51
51
51
51
51
51
221
238
238
119
68
68
221
238
238
51
51
51
0
0
0
0
0
0
0
0
0
0
0
0
0
0
0
187
119
85
153
85
85
153
85
85
153
85
85
51
68
119
153
85
85
153
85
85
153
85
85
102
51
68
0
0
0
0
0
0
0
0
0
0
0
0
0
0
0
119
34
34
170
17
17
170
17
17
170
17
17
119
34
34
0
0
0
0
0
0
0
0
0
0
0
0
119
34
34
170
17
17
170
17
17
170
17
17
119
34
34
0
0
0
0
0
0
0
0
0
0
0
0
238
153
102
238
153
102
238
153
102
238
153
102
238
153
102
238
153
102
238
153
102
238
153
102
238
153
102
238
153
102
187
119
85
0
0
0
0
0
0
0
0
0
51
68
119
51
119
68
119
170
51
51
119
68
51
119
68
51
119
170
51
119
170
51
119
170
51
119
170
51
119
170
51
119
170
51
119
170
51
119
170
51
119
170
0
0
0
0
0
0
0
0
0
0
0
0
0
0
0
0
0
0
0
0
0
0
0
0
0
0
0
0
0
0
0
0
0
0
0
0
0
0
0
0
0
0
0
0
0
0
0
0
0
0
0
0
0
0
0
0
0
0
0
0
0
0
0
0
0
0
0
0
0
0
0
0
0
0
0
0
0
0
0
0
0
0
0
0
0
0
0
0
0
0
0
0
0
0
0
0
0
0
0
0
0
0
0
0
0
0
0
0
0
0
0
0
0
0
0
0
0
0
0
0
0
0
0
0
0
0
0
0
0
0
0
0
0
0
0
0
0
0
0
0
0
0
0
0
0
0
0
0
0
0
0
0
0
0
0
0
0
0
0
0
0
0
0
0
0
0
0
0
0
0
0
0
0
0
0
0
0
0
0
0
0
0
0
0
0
0
0
0
0
0
0
0
0
0
0
0
0
0
0
0
0
0
0
0
0
0
0
0
0
0
0
0
0
0
0
0
0
0
0
0
0
0
0
0
0
0
0
0
0
0
0
0
0
0
0
0
0
0
0
0
0
0
0
0
0
0
0
0
0
0
0
0
0
0
0
0
0
0
0
0
0
0
0
0
0
0
0
0
0
0
0
0
0
0
0
0
0
0
0
0
0
0
0
0
0
0
0
0
0
0
0
0
0
0
0
0
0
0
0
0
0
0
0
0
0
0
0
0
0
0
0
0
0
0
0
0
0
0
0
0
0
0
0
0
0
0
0
0
0
0
0
0
0
0
0
0
0
0
0
51
119
170
51
119
170
51
68
119
51
119
170
51
119
170
51
119
170
85
238
238
51
119
170
51
119
170
51
68
119
51
119
170
51
119
170
51
119
170
51
119
170
34
204
221
238
204
153
51
119
170
51
119
170
51
119
170
51
119
170
51
119
170
51
119
170
51
119
170
51
119
170
51
119
170
51
68
119
51
68
119
51
68
119
51
68
119
51
68
119
51
68
119
51
68
119
51
119
170
51
119
170
51
119
170
51
119
170
51
119
170
51
119
170
51
119
170
51
119
170
51
119
170
51
119
170
51
119
170
51
119
170
51
119
170
51
119
170
51
119
170
51
119
170
238
204
153
34
204
221
51
119
170
51
119
170
51
119
170
51
119
170
51
68
119
51
119
170
51
119
170
85
238
238
51
119
170
51
119
170
51
119
170
51
68
119
51
119
170
51
119
170
51
68
119
51
119
170
51
119
170
51
119
170
51
68
119
51
68
119
51
68
119
51
119
170
51
119
170
51
119
170
51
119
170
51
119
170
51
119
170
51
119
170
51
119
170
51
119
170
51
119
170
51
119
170
51
119
170
51
119
170
51
119
170
51
119
170
51
119
170
51
119
170
51
119
170
51
68
119
51
68
119
51
68
119
51
119
170
51
119
170
51
119
170
51
68
119
0
0
0
51
119
170
51
68
119
51
68
119
221
238
238
221
238
238
221
238
238
221
238
238
221
238
238
221
238
238
221
238
238
221
238
238
51
51
51
51
51
51
51
68
119
0
0
0
0
0
0
0
0
0
51
68
119
0
0
0
221
238
238
0
0
0
221
238
238
0
0
0
221
238
238
0
0
0
221
238
238
0
0
0
51
51
51
0
0
0
51
119
170
0
0
0
0
0
0
0
0
0
0
0
0
0
0
0
51
51
51
221
238
238
255
255
255
153
153
136
51
51
51
221
238
238
255
255
255
153
153
136
255
255
255
221
238
238
51
51
51
0
0
0
0
0
0
0
0
0
187
119
85
238
153
102
187
119
85
187
119
85
153
85
85
153
85
85
153
85
85
153
85
85
153
85
85
187
119
85
153
85
85
0
0
0
0
0
0
0
0
0
0
0
0
0
0
0
119
34
34
170
17
17
170
17
17
170
17
17
119
34
34
0
0
0
0
0
0
119
34
34
170
17
17
170
17
17
170
17
17
119
34
34
0
0
0
0
0
0
0
0
0
0
0
0
0
0
0
238
153
102
238
153
102
51
119
170
51
119
170
238
153
102
238
153
102
51
119
170
238
153
102
238
153
102
187
119
85
187
119
85
0
0
0
0
0
0
0
0
0
51
119
170
51
119
170
51
119
170
51
119
170
51
119
170
51
119
170
51
119
170
51
119
170
51
119
170
51
119
170
51
119
170
51
119
170
51
119
170
51
119
170
0
0
0
0
0
0
0
0
0
0
0
0
0
0
0
0
0
0
0
0
0
0
0
0
0
0
0
0
0
0
0
0
0
0
0
0
0
0
0
0
0
0
0
0
0
0
0
0
0
0
0
0
0
0
0
0
0
0
0
0
0
0
0
0
0
0
0
0
0
0
0
0
0
0
0
0
0
0
0
0
0
0
0
0
0
0
0
0
0
0
0
0
0
0
0
0
0
0
0
0
0
0
0
0
0
0
0
0
0
0
0
0
0
0
0
0
0
0
0
0
0
0
0
0
0
0
0
0
0
0
0
0
0
0
0
0
0
0
0
0
0
0
0
0
0
0
0
0
0
0
0
0
0
0
0
0
0
0
0
0
0
0
0
0
0
0
0
0
0
0
0
0
0
0
0
0
0
0
0
0
0
0
0
0
0
0
0
0
0
0
0
0
0
0
0
0
0
0
0
0
0
0
0
0
0
0
0
0
0
0
0
0
0
0
0
0
0
0
0
0
0
0
0
0
0
0
0
0
0
0
0
0
0
0
0
0
0
0
0
0
0
0
0
0
0
0
0
0
0
0
0
0
0
0
0
0
0
0
0
0
0
0
0
0
0
0
0
0
0
0
0
0
0
0
0
0
0
0
0
0
0
0
0
0
0
0
0
0
0
0
0
0
0
0
0
0
0
0
0
0
0
0
0
0
0
0
0
0
0
0
0
0
0
0
0
0
0
0
0
0
0
0
0
0
0
0
0
0
0
0
0
0
0
0
0
0
0
0
0
51
68
119
51
119
170
51
119
170
51
68
119
51
68
119
51
68
119
51
68
119
51
119
170
51
119
170
51
119
170
51
119
170
51
119
170
51
119
170
51
119
170
51
119
170
51
119
170
51
119
170
51
119
170
51
119
170
51
119
170
51
119
170
51
119
170
51
119
170
51
119
170
85
238
238
51
119
170
51
119
170
51
68
119
51
68
119
51
68
119
51
119
170
51
119
170
51
119
170
51
119
170
51
119
170
51
119
170
51
119
170
51
119
170
51
119
170
51
119
170
51
119
170
51
119
170
51
119
170
51
119
170
51
119
170
51
119
170
51
119
170
51
119
170
51
119
170
51
119
170
51
119
170
51
119
170
51
119
170
51
119
170
51
119
170
51
119
170
51
119
170
51
68
119
51
68
119
51
68
119
51
68
119
51
119
170
51
119
170
51
68
119
51
119
170
51
119
170
51
68
119
51
68
119
51
68
119
51
68
119
51
68
119
51
68
119
51
119
170
51
119
170
51
119
170
51
119
170
51
119
170
51
119
170
51
119
170
51
119
170
51
119
170
51
119
170
51
119
170
51
119
170
51
119
170
51
119
170
51
119
170
51
119
170
51
68
119
51
68
119
51
68
119
51
68
119
51
68
119
51
68
119
51
119
170
51
119
170
0
0
0
51
119
170
51
119
170
51
119
170
221
238
238
68
85
85
221
238
238
68
85
85
68
85
85
68
85
85
221
238
238
221
238
238
51
119
170
51
119
170
51
68
119
0
0
0
0
0
0
51
119
170
0
0
0
51
119
170
0
0
0
68
85
85
0
0
0
68
85
85
0
0
0
68
85
85
0
0
0
221
238
238
0
0
0
51
119
170
0
0
0
0
0
0
0
0
0
0
0
0
0
0
0
51
51
51
221
238
238
255
255
255
255
255
255
102
51
68
51
51
51
221
238
238
255
255
255
102
51
68
255
255
255
255
255
255
221
238
238
51
51
51
0
0
0
0
0
0
187
119
85
238
153
102
238
153
102
238
153
102
153
85
85
153
85
85
153
85
85
187
119
85
187
119
85
187
119
85
153
85
85
0
0
0
0
0
0
0
0
0
0
0
0
0
0
0
0
0
0
119
34
34
170
17
17
170
17
17
170
17
17
119
34
34
119
34
34
170
17
17
170
17
17
170
17
17
119
34
34
0
0
0
0
0
0
0
0
0
0
0
0
0
0
0
0
0
0
238
153
102
51
119
170
51
119
170
51
119
170
51
119
170
51
119
170
51
119
170
51
119
170
238
153
102
187
119
85
0
0
0
0
0
0
0
0
0
0
0
0
51
119
170
51
119
170
51
119
170
51
119
170
51
119
170
51
119
170
51
119
170
51
119
170
51
119
170
51
119
170
51
119
170
51
119
170
51
119
170
51
119
170
0
0
0
0
0
0
0
0
0
0
0
0
0
0
0
0
0
0
0
0
0
0
0
0
0
0
0
0
0
0
0
0
0
0
0
0
0
0
0
0
0
0
0
0
0
0
0
0
0
0
0
0
0
0
0
0
0
0
0
0
0
0
0
0
0
0
0
0
0
0
0
0
0
0
0
0
0
0
0
0
0
0
0
0
0
0
0
0
0
0
0
0
0
0
0
0
0
0
0
0
0
0
0
0
0
0
0
0
0
0
0
0
0
0
0
0
0
0
0
0
0
0
0
0
0
0
0
0
0
0
0
0
0
0
0
0
0
0
0
0
0
0
0
0
0
0
0
0
0
0
0
0
0
0
0
0
0
0
0
0
0
0
0
0
0
0
0
0
0
0
0
0
0
0
0
0
0
0
0
0
0
0
0
0
0
0
0
0
0
0
0
0
0
0
0
0
0
0
0
0
0
0
0
0
0
0
0
0
0
0
0
0
0
0
0
0
0
0
0
0
0
0
0
0
0
0
0
0
0
0
0
0
0
0
0
0
0
0
0
0
0
0
0
0
0
0
0
0
0
0
0
0
0
0
0
0
0
0
0
0
0
0
0
0
0
0
0
0
0
0
0
0
0
0
0
0
0
0
0
0
0
0
0
0
0
0
0
0
0
0
0
0
0
0
0
0
0
0
0
0
0
0
0
0
0
0
0
0
0
0
0
0
0
0
0
0
0
0
0
0
0
0
0
0
0
0
0
0
0
0
0
0
0
0
0
0
0
0
0
51
68
119
51
68
119
51
119
170
51
119
170
51
68
119
51
68
119
51
68
119
51
68
119
51
68
119
51
68
119
51
68
119
51
119
170
51
119
170
51
119
170
51
119
170
51
119
170
51
119
170
51
119
170
51
119
170
51
119
170
51
119
170
51
119
170
51
119
170
51
68
119
51
68
119
51
68
119
51
68
119
51
119
170
51
119
170
51
119
170
51
68
119
51
68
119
51
119
170
51
119
170
51
119
170
51
119
170
51
119
170
51
119
170
51
119
170
51
119
170
51
119
170
51
119
170
51
119
170
51
119
170
51
119
170
51
119
170
51
119
170
51
119
170
51
119
170
51
119
170
51
119
170
51
119
170
51
119
170
51
68
119
51
68
119
51
68
119
51
68
119
51
68
119
51
68
119
51
68
119
51
119
170
51
119
170
51
68
119
51
68
119
85
238
238
51
68
119
51
68
119
51
68
119
51
68
119
51
68
119
51
68
119
51
68
119
51
119
170
51
119
170
51
119
170
51
119
170
51
119
170
51
119
170
51
119
170
51
119
170
51
119
170
51
119
170
51
119
170
51
119
170
51
119
170
51
119
170
51
119
170
51
119
170
51
68
119
51
68
119
51
68
119
51
68
119
51
68
119
51
68
119
51
68
119
85
238
238
0
0
0
51
119
170
51
119
170
51
119
170
221
238
238
221
238
238
221
238
238
221
238
238
221
238
238
221
238
238
221
238
238
221
238
238
51
119
170
51
119
170
51
68
119
0
0
0
0
0
0
0
0
0
51
119
170
0
0
0
221
238
238
0
0
0
221
238
238
0
0
0
221
238
238
0
0
0
221
238
238
0
0
0
51
119
170
0
0
0
51
119
170
0
0
0
0
0
0
0
0
0
51
51
51
221
238
238
51
51
51
221
238
238
255
255
255
102
51
68
51
51
51
221
238
238
255
255
255
102
51
68
102
51
68
102
51
68
119
68
68
51
51
51
0
0
0
0
0
0
187
119
85
238
153
102
238
153
102
238
153
102
238
153
102
187
119
85
187
119
85
187
119
85
187
119
85
187
119
85
153
85
85
0
0
0
0
0
0
0
0
0
0
0
0
0
0
0
0
0
0
0
0
0
119
34
34
170
17
17
170
17
17
170
17
17
170
17
17
170
17
17
170
17
17
119
34
34
0
0
0
0
0
0
0
0
0
0
0
0
0
0
0
0
0
0
0
0
0
238
153
102
51
119
170
51
119
68
51
119
68
153
85
85
51
119
170
51
119
170
51
119
170
238
153
102
187
119
85
0
0
0
0
0
0
0
0
0
0
0
0
51
119
170
51
119
170
51
119
170
51
119
170
51
119
170
51
119
170
51
119
170
51
119
170
51
119
170
51
119
170
51
119
170
51
119
170
51
119
170
51
119
170
0
0
0
0
0
0
0
0
0
0
0
0
0
0
0
0
0
0
0
0
0
0
0
0
0
0
0
0
0
0
0
0
0
0
0
0
0
0
0
0
0
0
0
0
0
0
0
0
0
0
0
0
0
0
0
0
0
0
0
0
0
0
0
0
0
0
0
0
0
0
0
0
0
0
0
0
0
0
0
0
0
0
0
0
0
0
0
0
0
0
0
0
0
0
0
0
0
0
0
0
0
0
0
0
0
0
0
0
0
0
0
0
0
0
0
0
0
0
0
0
0
0
0
0
0
0
0
0
0
0
0
0
0
0
0
0
0
0
0
0
0
0
0
0
0
0
0
0
0
0
0
0
0
0
0
0
0
0
0
0
0
0
0
0
0
0
0
0
0
0
0
0
0
0
0
0
0
0
0
0
0
0
0
0
0
0
0
0
0
0
0
0
0
0
0
0
0
0
0
0
0
0
0
0
0
0
0
0
0
0
0
0
0
0
0
0
0
0
0
0
0
0
0
0
0
0
0
0
0
0
0
0
0
0
0
0
0
0
0
0
0
0
0
0
0
0
0
0
0
0
0
0
0
0
0
0
0
0
0
0
0
0
0
0
0
0
0
0
0
0
0
0
0
0
0
0
0
0
0
0
0
0
0
0
0
0
0
0
0
0
0
0
0
0
0
0
0
0
0
0
0
0
0
0
0
0
0
0
0
0
0
0
0
0
0
0
0
0
0
0
0
0
0
0
0
0
0
0
0
0
0
0
0
0
0
0
0
0
0
51
68
119
51
68
119
51
119
170
51
119
170
51
119
170
51
119
170
51
68
119
51
68
119
51
68
119
51
68
119
51
68
119
51
119
170
51
119
170
51
119
170
51
119
170
51
119
170
51
68
119
51
68
119
51
119
170
51
119
170
51
119
170
51
119
170
51
68
119
51
68
119
51
68
119
51
68
119
51
68
119
51
119
170
51
68
119
85
238
238
51
119
170
51
119
170
51
68
119
51
68
119
51
119
170
51
119
170
51
119
170
51
119
170
51
119
170
51
68
119
51
68
119
51
68
119
51
68
119
51
68
119
51
68
119
51
68
119
51
119
170
51
119
170
51
119
170
51
119
170
51
119
170
51
68
119
51
119
170
51
68
119
51
68
119
51
68
119
51
68
119
51
68
119
51
119
170
51
119
170
51
119
170
51
119
170
51
68
119
51
68
119
51
68
119
51
119
170
51
119
170
51
68
119
51
68
119
51
119
170
51
119
170
51
119
170
51
119
170
51
119
170
51
119
170
51
119
170
51
119
170
51
119
170
51
119
170
51
119
170
51
119
170
51
119
170
51
119
170
51
119
170
51
119
170
51
119
170
51
119
170
51
119
170
51
119
170
51
119
170
51
119
170
51
68
119
51
68
119
51
119
170
51
119
170
51
68
119
0
0
0
51
119
170
51
119
170
51
119
170
221
238
238
85
85
85
221
238
238
85
85
85
85
85
85
221
238
238
85
85
85
221
238
238
51
119
170
51
119
170
51
68
119
0
0
0
0
0
0
51
119
170
0
0
0
51
119
170
0
0
0
85
85
85
0
0
0
85
85
85
0
0
0
221
238
238
0
0
0
85
85
85
0
0
0
51
119
170
0
0
0
0
0
0
0
0
0
51
51
51
221
238
238
51
51
51
0
0
0
51
51
51
221
238
238
102
51
68
51
51
51
51
51
51
221
238
238
102
51
68
255
255
255
187
119
85
187
119
85
51
51
51
0
0
0
0
0
0
187
119
85
238
153
102
238
153
102
51
68
119
238
153
102
187
119
85
51
68
119
187
119
85
187
119
85
187
119
85
153
85
85
0
0
0
0
0
0
0
0
0
0
0
0
0
0
0
0
0
0
0
0
0
0
0
0
119
34
34
170
17
17
170
17
17
170
17
17
170
17
17
119
34
34
0
0
0
0
0
0
0
0
0
0
0
0
0
0
0
0
0
0
0
0
0
0
0
0
238
153
102
51
119
170
153
85
85
153
85
85
119
119
119
153
85
85
119
170
51
51
119
170
238
153
102
187
119
85
0
0
0
0
0
0
0
0
0
0
0
0
51
119
170
51
119
170
51
119
170
51
119
170
51
119
170
51
119
170
51
119
170
51
119
170
51
119
170
51
119
170
51
119
170
51
119
170
51
119
170
51
119
170
0
0
0
0
0
0
0
0
0
0
0
0
0
0
0
0
0
0
0
0
0
0
0
0
0
0
0
0
0
0
0
0
0
0
0
0
0
0
0
0
0
0
0
0
0
0
0
0
0
0
0
0
0
0
0
0
0
0
0
0
0
0
0
0
0
0
0
0
0
0
0
0
0
0
0
0
0
0
0
0
0
0
0
0
0
0
0
0
0
0
0
0
0
0
0
0
0
0
0
0
0
0
0
0
0
0
0
0
0
0
0
0
0
0
0
0
0
0
0
0
0
0
0
0
0
0
0
0
0
0
0
0
0
0
0
0
0
0
0
0
0
0
0
0
0
0
0
0
0
0
0
0
0
0
0
0
0
0
0
0
0
0
0
0
0
0
0
0
0
0
0
0
0
0
0
0
0
0
0
0
0
0
0
0
0
0
0
0
0
0
0
0
0
0
0
0
0
0
0
0
0
0
0
0
0
0
0
0
0
0
0
0
0
0
0
0
0
0
0
0
0
0
0
0
0
0
0
0
0
0
0
0
0
0
0
0
0
0
0
0
0
0
0
0
0
0
0
0
0
0
0
0
0
0
0
0
0
0
0
0
0
0
0
0
0
0
0
0
0
0
0
0
0
0
0
0
0
0
0
0
0
0
0
0
0
0
0
0
0
0
0
0
0
0
0
0
0
0
0
0
0
0
0
0
0
0
0
0
0
0
0
0
0
0
0
0
0
0
0
0
0
0
0
0
0
0
0
0
0
0
0
0
0
0
0
0
0
0
0
51
68
119
51
119
170
51
119
170
51
68
119
51
68
119
51
119
170
51
119
170
51
119
170
51
119
170
51
119
170
51
119
170
51
119
170
51
119
170
51
119
170
51
119
170
51
119
170
51
68
119
51
119
170
51
119
170
51
68
119
51
68
119
51
119
170
51
119
170
51
119
170
51
119
170
51
119
170
51
119
170
51
119
170
51
119
170
51
119
170
51
119
170
51
119
170
51
68
119
51
68
119
51
68
119
51
68
119
51
119
170
51
119
170
51
119
170
51
119
170
51
119
170
51
68
119
51
68
119
51
68
119
51
68
119
51
68
119
51
68
119
51
68
119
51
119
170
51
119
170
51
119
170
51
119
170
51
119
170
51
119
170
51
119
170
51
119
170
51
119
170
51
119
170
51
119
170
51
68
119
51
68
119
51
119
170
51
119
170
51
68
119
51
68
119
51
68
119
51
119
170
51
119
170
51
119
170
51
119
170
51
68
119
51
68
119
51
68
119
51
68
119
51
68
119
51
119
170
51
68
119
51
119
170
51
119
170
51
119
170
51
119
170
51
119
170
51
119
170
51
68
119
51
119
170
51
68
119
51
68
119
51
68
119
51
68
119
51
68
119
51
119
170
51
119
170
51
119
170
51
119
170
51
68
119
51
68
119
0
0
0
51
119
170
51
119
170
51
119
170
221
238
238
221
238
238
221
238
238
221
238
238
221
238
238
221
238
238
221
238
238
221
238
238
51
119
170
51
119
170
51
68
119
0
0
0
0
0
0
0
0
0
51
119
170
0
0
0
221
238
238
0
0
0
221
238
238
0
0
0
221
238
238
0
0
0
221
238
238
0
0
0
51
119
170
0
0
0
51
119
170
0
0
0
51
51
51
187
119
85
51
51
51
51
51
51
51
51
51
51
51
51
51
51
51
153
153
136
51
51
51
51
51
51
221
238
238
102
51
68
221
238
238
51
34
51
119
68
68
51
51
51
0
0
0
0
0
0
187
119
85
238
153
102
238
153
102
238
153
102
238
153
102
187
119
85
187
119
85
51
68
119
187
119
85
187
119
85
153
85
85
0
0
0
0
0
0
0
0
0
0
0
0
0
0
0
0
0
0
0
0
0
0
0
0
119
34
34
170
17
17
170
17
17
170
17
17
170
17
17
119
34
34
0
0
0
0
0
0
0
0
0
0
0
0
0
0
0
0
0
0
0
0
0
0
0
0
238
153
102
51
119
170
51
119
68
153
85
85
85
85
85
119
119
119
119
170
51
51
119
170
187
119
85
187
119
85
0
0
0
0
0
0
0
0
0
0
0
0
51
119
170
51
119
170
51
119
170
51
119
170
51
119
170
51
119
170
51
119
170
51
119
170
51
119
170
51
119
170
51
119
170
51
119
170
51
119
170
51
119
170
0
0
0
0
0
0
0
0
0
0
0
0
0
0
0
0
0
0
0
0
0
0
0
0
0
0
0
0
0
0
0
0
0
0
0
0
0
0
0
0
0
0
0
0
0
0
0
0
0
0
0
0
0
0
0
0
0
0
0
0
0
0
0
0
0
0
0
0
0
0
0
0
0
0
0
0
0
0
0
0
0
0
0
0
0
0
0
0
0
0
0
0
0
0
0
0
0
0
0
0
0
0
0
0
0
0
0
0
0
0
0
0
0
0
0
0
0
0
0
0
0
0
0
0
0
0
0
0
0
0
0
0
0
0
0
0
0
0
0
0
0
0
0
0
0
0
0
0
0
0
0
0
0
0
0
0
0
0
0
0
0
0
0
0
0
0
0
0
0
0
0
0
0
0
0
0
0
0
0
0
0
0
0
0
0
0
0
0
0
0
0
0
0
0
0
0
0
0
0
0
0
0
0
0
0
0
0
0
0
0
0
0
0
0
0
0
0
0
0
0
0
0
0
0
0
0
0
0
0
0
0
0
0
0
0
0
0
0
0
0
0
0
0
0
0
0
0
0
0
0
0
0
0
0
0
0
0
0
0
0
0
0
0
0
0
0
0
0
0
0
0
0
0
0
0
0
0
0
0
0
0
0
0
0
0
0
0
0
0
0
0
0
0
0
0
0
0
0
0
0
0
0
0
0
0
0
0
0
0
0
0
0
0
0
0
0
0
0
0
0
0
0
0
0
0
0
0
0
0
0
0
0
0
0
0
0
0
0
0
51
119
170
51
119
170
51
119
170
51
119
170
51
119
170
51
68
119
51
68
119
51
68
119
51
119
170
51
119
170
51
68
119
51
119
170
51
119
170
51
119
170
51
119
170
51
119
170
51
119
170
51
119
170
51
119
170
51
119
170
51
119
170
51
68
119
51
68
119
51
68
119
51
119
170
51
119
170
51
119
170
51
119
170
51
119
170
51
119
170
51
119
170
51
119
170
51
68
119
51
119
170
51
119
170
51
119
170
51
119
170
51
119
170
51
119
170
51
119
170
51
119
170
51
119
170
51
119
170
51
119
170
51
68
119
51
68
119
51
68
119
51
68
119
51
119
170
51
119
170
51
119
170
51
119
170
51
119
170
51
119
170
51
119
170
51
119
170
51
68
119
51
68
119
51
68
119
51
68
119
51
68
119
51
68
119
51
68
119
51
119
170
51
119
170
51
119
170
51
119
170
51
119
170
51
119
170
51
119
170
51
119
170
51
68
119
51
68
119
51
68
119
51
68
119
51
119
170
51
119
170
51
119
170
51
119
170
51
119
170
51
119
170
51
119
170
51
119
170
51
119
170
51
119
170
51
68
119
51
68
119
51
68
119
51
68
119
51
119
170
51
119
170
51
119
170
51
119
170
51
119
170
51
119
170
51
119
170
0
0
0
51
119
170
51
119
170
51
119
170
51
119
170
51
119
170
51
119
170
51
119
170
51
119
170
51
119
170
51
119
170
51
119
170
51
119
170
51
119
170
51
68
119
0
0
0
0
0
0
51
119
170
0
0
0
51
119
170
0
0
0
51
119
170
0
0
0
51
119
170
0
0
0
51
119
170
0
0
0
51
119
170
0
0
0
51
119
170
0
0
0
0
0
0
0
0
0
51
51
51
187
119
85
119
68
68
187
119
85
187
119
85
187
119
85
119
68
68
51
51
51
51
51
51
51
51
51
153
153
136
51
51
51
51
34
51
119
68
68
51
51
51
0
0
0
0
0
0
187
119
85
238
153
102
51
68
119
238
153
102
238
153
102
187
119
85
187
119
85
187
119
85
51
68
119
187
119
85
153
85
85
51
34
51
0
0
0
0
0
0
0
0
0
0
0
0
0
0
0
0
0
0
119
34
34
170
17
17
170
17
17
170
17
17
170
17
17
170
17
17
170
17
17
119
34
34
0
0
0
0
0
0
0
0
0
0
0
0
0
0
0
0
0
0
0
0
0
238
153
102
51
119
170
51
119
170
51
119
68
51
119
68
51
119
68
51
119
170
51
119
170
187
119
85
0
0
0
0
0
0
0
0
0
0
0
0
0
0
0
51
119
170
51
119
170
51
119
170
51
119
170
51
119
170
51
119
170
51
119
170
51
119
170
51
119
170
51
119
170
51
119
170
51
119
170
51
119
170
51
119
170
0
0
0
0
0
0
0
0
0
0
0
0
0
0
0
0
0
0
0
0
0
0
0
0
0
0
0
0
0
0
0
0
0
0
0
0
0
0
0
0
0
0
0
0
0
0
0
0
0
0
0
0
0
0
0
0
0
0
0
0
0
0
0
0
0
0
0
0
0
0
0
0
0
0
0
0
0
0
0
0
0
0
0
0
0
0
0
0
0
0
0
0
0
0
0
0
0
0
0
0
0
0
0
0
0
0
0
0
0
0
0
0
0
0
0
0
0
0
0
0
0
0
0
0
0
0
0
0
0
0
0
0
0
0
0
0
0
0
0
0
0
0
0
0
0
0
0
0
0
0
0
0
0
0
0
0
0
0
0
0
0
0
0
0
0
0
0
0
0
0
0
0
0
0
0
0
0
0
0
0
0
0
0
0
0
0
0
0
0
0
0
0
0
0
0
0
0
0
0
0
0
0
0
0
0
0
0
0
0
0
0
0
0
0
0
0
0
0
0
0
0
0
0
0
0
0
0
0
0
0
0
0
0
0
0
0
0
0
0
0
0
0
0
0
0
0
0
0
0
0
0
0
0
0
0
0
0
0
0
0
0
0
0
0
0
0
0
0
0
0
0
0
0
0
0
0
0
0
0
0
0
0
0
0
0
0
0
0
0
0
0
0
0
0
0
0
0
0
0
0
0
0
0
0
0
0
0
0
0
0
0
0
0
0
0
0
0
0
0
0
0
0
0
0
0
0
0
0
0
0
0
0
0
0
0
0
0
0
0
51
119
170
51
119
170
51
119
170
51
119
170
51
119
170
51
119
170
51
68
119
51
68
119
51
68
119
51
119
170
51
119
170
51
119
170
51
119
170
51
119
170
51
119
170
51
119
170
51
119
170
51
119
170
51
119
170
51
119
170
51
119
170
51
119
170
51
68
119
51
68
119
51
119
170
51
119
170
51
119
170
51
119
170
51
119
170
51
119
170
51
119
170
51
119
170
51
119
170
51
119
170
51
119
170
51
119
170
51
119
170
51
119
170
51
119
170
51
119
170
51
119
170
51
119
170
51
119
170
51
119
170
51
119
170
51
119
170
51
119
170
51
119
170
51
119
170
51
119
170
51
119
170
51
119
170
51
119
170
51
119
170
51
119
170
51
119
170
51
68
119
51
68
119
51
68
119
51
68
119
51
68
119
51
68
119
51
119
170
51
119
170
51
119
170
51
119
170
51
119
170
51
119
170
51
119
170
51
119
170
51
119
170
51
119
170
51
119
170
51
119
170
51
119
170
51
119
170
51
119
170
51
119
170
51
119
170
51
119
170
51
119
170
51
119
170
51
119
170
51
119
170
51
119
170
51
119
170
51
119
170
51
119
170
51
119
170
51
119
170
51
119
170
51
119
170
51
119
170
51
119
170
51
119
170
51
119
170
0
0
0
51
119
170
51
119
170
51
119
170
85
85
85
85
85
85
85
85
85
85
85
85
85
85
85
85
85
85
85
85
85
51
68
119
51
119
170
51
119
170
51
68
119
0
0
0
0
0
0
0
0
0
51
119
170
0
0
0
85
85
85
0
0
0
85
85
85
0
0
0
85
85
85
0
0
0
85
85
85
0
0
0
51
119
170
0
0
0
51
119
170
0
0
0
0
0
0
51
51
51
187
119
85
119
68
68
119
68
68
119
68
68
119
68
68
119
68
68
187
119
85
187
119
85
187
119
85
119
68
68
119
68
68
119
68
68
119
68
68
51
51
51
0
0
0
0
0
0
187
119
85
238
153
102
238
153
102
238
153
102
238
153
102
187
119
85
187
119
85
187
119
85
187
119
85
187
119
85
153
85
85
51
34
51
51
34
51
0
0
0
0
0
0
0
0
0
0
0
0
119
34
34
170
17
17
170
17
17
170
17
17
119
34
34
119
34
34
170
17
17
170
17
17
170
17
17
119
34
34
0
0
0
0
0
0
0
0
0
0
0
0
0
0
0
0
0
0
238
153
102
51
119
170
119
170
51
119
68
68
119
170
51
119
170
51
51
119
170
119
170
51
187
119
85
0
0
0
0
0
0
0
0
0
0
0
0
0
0
0
51
119
170
51
119
170
51
119
170
51
119
170
51
119
170
51
119
170
51
119
170
51
119
170
51
119
170
51
119
170
51
119
170
51
119
170
51
119
170
51
119
170
0
0
0
0
0
0
0
0
0
0
0
0
0
0
0
0
0
0
0
0
0
0
0
0
0
0
0
0
0
0
0
0
0
0
0
0
0
0
0
0
0
0
0
0
0
0
0
0
0
0
0
0
0
0
0
0
0
0
0
0
0
0
0
0
0
0
0
0
0
0
0
0
0
0
0
0
0
0
0
0
0
0
0
0
0
0
0
0
0
0
0
0
0
0
0
0
0
0
0
0
0
0
0
0
0
0
0
0
0
0
0
0
0
0
0
0
0
0
0
0
0
0
0
0
0
0
0
0
0
0
0
0
0
0
0
0
0
0
0
0
0
0
0
0
0
0
0
0
0
0
0
0
0
0
0
0
0
0
0
0
0
0
0
0
0
0
0
0
0
0
0
0
0
0
0
0
0
0
0
0
0
0
0
0
0
0
0
0
0
0
0
0
0
0
0
0
0
0
0
0
0
0
0
0
0
0
0
0
0
0
0
0
0
0
0
0
0
0
0
0
0
0
0
0
0
0
0
0
0
0
0
0
0
0
0
0
0
0
0
0
0
0
0
0
0
0
0
0
0
0
0
0
0
0
0
0
0
0
0
0
0
0
0
0
0
0
0
0
0
0
0
0
0
0
0
0
0
0
0
0
0
0
0
0
0
0
0
0
0
0
0
0
0
0
0
0
0
0
0
0
0
0
0
0
0
0
0
0
0
0
0
0
0
0
0
0
0
0
0
0
0
0
0
0
0
0
0
0
0
0
0
0
0
0
0
0
0
0
0
51
119
170
51
119
170
51
119
170
51
119
170
51
119
170
51
119
170
51
119
170
51
119
170
51
119
170
51
119
170
51
119
170
51
119
170
51
119
170
51
119
170
51
119
170
51
119
170
85
238
238
34
204
221
34
204
221
51
119
170
51
119
170
51
119
170
51
119
170
51
119
170
51
119
170
51
119
170
51
119
170
51
119
170
51
119
170
51
119
170
51
119
170
51
119
170
34
204
221
34
204
221
85
238
238
85
238
238
51
119
170
51
119
170
51
119
170
51
119
170
85
238
238
85
238
238
51
119
170
51
119
170
51
119
170
51
119
170
51
119
170
34
204
221
51
119
170
51
119
170
51
119
170
51
119
170
51
119
170
51
119
170
51
119
170
51
119
170
51
119
170
51
68
119
51
68
119
51
68
119
51
119
170
51
119
170
85
238
238
51
68
119
51
119
170
51
119
170
51
119
170
51
119
170
51
119
170
51
119
170
51
119
170
51
119
170
51
119
170
51
68
119
51
119
170
51
119
170
51
119
170
51
119
170
34
204
221
238
204
153
238
204
153
34
204
221
51
119
170
51
119
170
51
119
170
51
119
170
51
68
119
51
119
170
51
119
170
51
119
170
51
119
170
51
119
170
51
119
170
51
119
170
51
119
170
51
119
170
0
0
0
51
119
170
51
119
170
51
119
170
85
85
85
51
68
119
51
68
119
85
85
85
85
85
85
85
85
85
85
85
85
51
68
119
51
119
170
51
119
170
51
68
119
0
0
0
0
0
0
51
119
170
0
0
0
51
119
170
0
0
0
51
68
119
0
0
0
85
85
85
0
0
0
85
85
85
0
0
0
51
68
119
0
0
0
51
119
170
0
0
0
0
0
0
0
0
0
51
51
51
187
119
85
119
68
68
51
34
51
119
68
68
51
34
51
119
68
68
51
34
51
119
68
68
51
34
51
119
68
68
51
34
51
187
119
85
102
51
68
51
51
51
0
0
0
0
0
0
0
0
0
187
119
85
238
153
102
238
153
102
238
153
102
187
119
85
187
119
85
187
119
85
187
119
85
153
85
85
51
34
51
51
34
51
51
34
51
0
0
0
0
0
0
0
0
0
119
34
34
170
17
17
170
17
17
170
17
17
119
34
34
0
0
0
0
0
0
119
34
34
170
17
17
170
17
17
170
17
17
119
34
34
0
0
0
0
0
0
0
0
0
0
0
0
0
0
0
238
153
102
51
119
170
51
119
170
119
170
51
119
170
51
119
170
51
51
119
170
119
170
51
187
119
85
187
119
85
0
0
0
0
0
0
0
0
0
0
0
0
51
119
170
51
119
170
51
119
170
51
119
170
51
119
170
51
119
170
51
119
170
51
119
170
51
119
170
51
119
170
51
119
170
51
119
170
51
119
170
51
119
170
0
0
0
0
0
0
0
0
0
0
0
0
0
0
0
0
0
0
0
0
0
0
0
0
0
0
0
0
0
0
0
0
0
0
0
0
0
0
0
0
0
0
0
0
0
0
0
0
0
0
0
0
0
0
0
0
0
0
0
0
0
0
0
0
0
0
0
0
0
0
0
0
0
0
0
0
0
0
0
0
0
0
0
0
0
0
0
0
0
0
0
0
0
0
0
0
0
0
0
0
0
0
0
0
0
0
0
0
0
0
0
0
0
0
0
0
0
0
0
0
0
0
0
0
0
0
0
0
0
0
0
0
0
0
0
0
0
0
0
0
0
0
0
0
0
0
0
0
0
0
0
0
0
0
0
0
0
0
0
0
0
0
0
0
0
0
0
0
0
0
0
0
0
0
0
0
0
0
0
0
0
0
0
0
0
0
0
0
0
0
0
0
0
0
0
0
0
0
0
0
0
0
0
0
0
0
0
0
0
0
0
0
0
0
0
0
0
0
0
0
0
0
0
0
0
0
0
0
0
0
0
0
0
0
0
0
0
0
0
0
0
0
0
0
0
0
0
0
0
0
0
0
0
0
0
0
0
0
0
0
0
0
0
0
0
0
0
0
0
0
0
0
0
0
0
0
0
0
0
0
0
0
0
0
0
0
0
0
0
0
0
0
0
0
0
0
0
0
0
0
0
0
0
0
0
0
0
0
0
0
0
0
0
0
0
0
0
0
0
0
0
0
0
0
0
0
0
0
0
0
0
0
0
0
0
0
0
0
0
85
238
238
34
204
221
34
204
221
51
119
170
51
119
170
51
119
170
51
119
170
51
119
170
51
119
170
51
119
170
51
119
170
51
119
170
51
119
170
51
119
170
85
238
238
238
204
153
238
204
153
238
204
153
34
204
221
85
238
238
51
119
170
51
119
170
51
119
170
51
119
170
51
119
170
51
119
170
51
119
170
51
119
170
51
119
170
51
119
170
34
204
221
238
204
153
238
204
153
238
204
153
34
204
221
34
204
221
85
238
238
34
204
221
51
119
170
238
204
153
238
204
153
85
238
238
85
238
238
51
119
170
51
119
170
238
204
153
238
204
153
238
204
153
51
119
170
51
119
170
51
119
170
51
119
170
51
119
170
51
119
170
51
119
170
51
119
170
51
68
119
51
119
170
51
119
170
51
119
170
51
119
170
51
68
119
51
68
119
51
119
170
51
119
170
238
204
153
85
238
238
51
119
170
51
119
170
51
119
170
51
119
170
51
119
170
51
68
119
51
68
119
51
119
170
51
119
170
51
119
170
34
204
221
238
204
153
238
204
153
238
204
153
238
204
153
34
204
221
51
119
170
51
119
170
51
119
170
51
68
119
51
68
119
51
119
170
51
119
170
51
119
170
51
119
170
51
119
170
85
238
238
238
204
153
51
119
170
0
0
0
51
119
170
51
119
170
51
119
170
85
85
85
51
68
119
51
68
119
85
85
85
85
85
85
85
85
85
85
85
85
51
68
119
51
119
170
51
119
170
51
68
119
0
0
0
0
0
0
0
0
0
51
119
170
0
0
0
85
85
85
0
0
0
51
68
119
0
0
0
85
85
85
0
0
0
85
85
85
0
0
0
51
119
170
0
0
0
51
119
170
0
0
0
0
0
0
0
0
0
51
51
51
102
51
68
119
68
68
119
68
68
119
68
68
119
68
68
119
68
68
119
68
68
119
68
68
119
68
68
119
68
68
119
68
68
102
51
68
51
51
51
0
0
0
0
0
0
0
0
0
0
0
0
187
119
85
187
119
85
238
153
102
187
119
85
187
119
85
153
85
85
153
85
85
51
34
51
51
34
51
51
34
51
51
34
51
0
0
0
0
0
0
119
34
34
170
17
17
170
17
17
170
17
17
119
34
34
0
0
0
0
0
0
0
0
0
0
0
0
119
34
34
170
17
17
170
17
17
170
17
17
119
34
34
0
0
0
0
0
0
0
0
0
0
0
0
238
153
102
51
119
170
51
119
170
51
119
170
51
119
170
51
119
170
51
119
170
238
153
102
238
153
102
187
119
85
0
0
0
0
0
0
0
0
0
0
0
0
51
119
170
51
119
170
51
119
170
51
119
170
51
119
170
51
119
170
51
119
170
51
119
170
51
119
170
51
119
170
51
119
170
51
119
170
51
119
170
51
119
170
0
0
0
0
0
0
0
0
0
0
0
0
0
0
0
0
0
0
0
0
0
0
0
0
0
0
0
0
0
0
0
0
0
0
0
0
0
0
0
0
0
0
0
0
0
0
0
0
0
0
0
0
0
0
0
0
0
0
0
0
0
0
0
0
0
0
0
0
0
0
0
0
0
0
0
0
0
0
0
0
0
0
0
0
0
0
0
0
0
0
0
0
0
0
0
0
0
0
0
0
0
0
0
0
0
0
0
0
0
0
0
0
0
0
0
0
0
0
0
0
0
0
0
0
0
0
0
0
0
0
0
0
0
0
0
0
0
0
0
0
0
0
0
0
0
0
0
0
0
0
0
0
0
0
0
0
0
0
0
0
0
0
0
0
0
0
0
0
0
0
0
0
0
0
0
0
0
0
0
0
0
0
0
0
0
0
0
0
0
0
0
0
0
0
0
0
0
0
0
0
0
0
0
0
0
0
0
0
0
0
0
0
0
0
0
0
0
0
0
0
0
0
0
0
0
0
0
0
0
0
0
0
0
0
0
0
0
0
0
0
0
0
0
0
0
0
0
0
0
0
0
0
0
0
0
0
0
0
0
0
0
0
0
0
0
0
0
0
0
0
0
0
0
0
0
0
0
0
0
0
0
0
0
0
0
0
0
0
0
0
0
0
0
0
0
0
0
0
0
0
0
0
0
0
0
0
0
0
0
0
0
0
0
0
0
0
0
0
0
0
0
0
0
0
0
0
0
0
0
0
0
0
0
0
0
0
0
0
0
238
204
153
238
204
153
34
204
221
85
238
238
51
119
170
51
119
170
51
119
170
51
119
170
51
119
170
51
119
170
51
119
170
51
119
170
51
119
170
51
119
170
34
204
221
238
204
153
238
204
153
238
204
153
238
204
153
34
204
221
85
238
238
51
119
170
51
119
170
51
119
170
51
119
170
51
119
170
51
119
170
51
119
170
51
119
170
34
204
221
34
204
221
238
204
153
238
204
153
238
204
153
238
204
153
238
204
153
238
204
153
238
204
153
238
204
153
238
204
153
238
204
153
238
204
153
238
204
153
238
204
153
238
204
153
238
204
153
238
204
153
238
204
153
238
204
153
34
204
221
51
119
170
51
119
170
51
119
170
51
119
170
51
119
170
51
119
170
51
68
119
51
68
119
51
119
170
51
68
119
51
68
119
51
68
119
51
68
119
51
68
119
238
204
153
238
153
102
238
204
153
85
238
238
51
119
170
51
119
170
51
119
170
51
119
170
51
68
119
51
68
119
51
119
170
51
119
170
51
119
170
85
238
238
238
204
153
238
204
153
238
204
153
238
204
153
85
238
238
51
119
170
51
119
170
51
119
170
51
68
119
51
68
119
51
119
170
51
119
170
51
119
170
51
119
170
85
238
238
238
204
153
238
153
102
238
204
153
0
0
0
51
34
51
51
119
170
51
119
170
85
85
85
51
68
119
51
68
119
85
85
85
85
85
85
85
85
85
85
85
85
51
68
119
51
119
170
51
119
170
51
68
119
0
0
0
0
0
0
51
34
51
0
0
0
51
119
170
0
0
0
51
68
119
0
0
0
85
85
85
0
0
0
85
85
85
0
0
0
51
68
119
0
0
0
51
119
170
0
0
0
0
0
0
0
0
0
0
0
0
221
238
238
85
238
238
102
51
68
102
51
68
102
51
68
102
51
68
102
51
68
102
51
68
102
51
68
102
51
68
102
51
68
102
51
68
51
51
51
0
0
0
0
0
0
0
0
0
0
0
0
0
0
0
0
0
0
0
0
0
187
119
85
153
85
85
153
85
85
51
34
51
51
34
51
51
34
51
51
34
51
51
34
51
51
34
51
0
0
0
0
0
0
0
0
0
119
34
34
170
17
17
119
34
34
0
0
0
0
0
0
0
0
0
0
0
0
0
0
0
0
0
0
119
34
34
170
17
17
119
34
34
0
0
0
0
0
0
0
0
0
0
0
0
0
0
0
0
0
0
238
153
102
238
153
102
238
153
102
238
153
102
238
153
102
238
153
102
238
153
102
187
119
85
187
119
85
0
0
0
0
0
0
0
0
0
0
0
0
51
119
170
51
119
170
51
119
170
51
119
170
51
119
170
51
119
170
51
119
170
51
119
170
51
119
170
51
119
170
51
119
170
51
119
170
51
119
170
51
119
170
0
0
0
0
0
0
0
0
0
0
0
0
0
0
0
0
0
0
0
0
0
0
0
0
0
0
0
0
0
0
0
0
0
0
0
0
0
0
0
0
0
0
0
0
0
0
0
0
0
0
0
0
0
0
0
0
0
0
0
0
0
0
0
0
0
0
0
0
0
0
0
0
0
0
0
0
0
0
0
0
0
0
0
0
0
0
0
0
0
0
0
0
0
0
0
0
0
0
0
0
0
0
0
0
0
0
0
0
0
0
0
0
0
0
0
0
0
0
0
0
0
0
0
0
0
0
0
0
0
0
0
0
0
0
0
0
0
0
0
0
0
0
0
0
0
0
0
0
0
0
0
0
0
0
0
0
0
0
0
0
0
0
0
0
0
0
0
0
0
0
0
0
0
0
0
0
0
0
0
0
0
0
0
0
0
0
0
0
0
0
0
0
0
0
0
0
0
0
0
0
0
0
0
0
0
0
0
0
0
0
0
0
0
0
0
0
0
0
0
0
0
0
0
0
0
0
0
0
0
0
0
0
0
0
0
0
0
0
0
0
0
0
0
0
0
0
0
0
0
0
0
0
0
0
0
0
0
0
0
0
0
0
0
0
0
0
0
0
0
0
0
0
0
0
0
0
0
0
0
0
0
0
0
0
0
0
0
0
0
0
0
0
0
0
0
0
0
0
0
0
0
0
0
0
0
0
0
0
0
0
0
0
0
0
0
0
0
0
0
0
0
0
0
0
0
0
0
0
0
0
0
0
0
0
0
0
0
0
0
238
204
153
238
204
153
238
204
153
34
204
221
85
238
238
51
119
170
51
119
170
51
119
170
51
119
170
51
119
170
51
119
170
51
119
170
34
204
221
238
204
153
238
204
153
238
153
102
238
204
153
238
204
153
238
153
102
238
204
153
34
204
221
34
204
221
51
119
170
51
119
170
51
119
170
51
119
170
51
119
170
51
119
170
34
204
221
238
204
153
238
204
153
238
153
102
238
204
153
238
204
153
238
204
153
238
204
153
238
204
153
238
204
153
238
204
153
238
204
153
238
204
153
238
204
153
238
204
153
238
204
153
238
204
153
238
204
153
238
204
153
238
204
153
238
204
153
34
204
221
51
119
170
51
119
170
51
119
170
51
119
170
51
119
170
51
68
119
51
68
119
51
68
119
51
119
170
51
68
119
51
68
119
51
68
119
51
68
119
51
119
170
238
204
153
238
204
153
238
204
153
85
238
238
51
119
170
51
119
170
51
119
170
51
68
119
51
68
119
51
119
170
51
119
170
51
119
170
51
119
170
85
238
238
238
204
153
119
170
51
119
170
51
238
204
153
85
238
238
51
119
170
51
119
170
51
119
170
51
119
170
51
68
119
51
68
119
51
119
170
51
119
170
51
119
170
85
238
238
238
204
153
238
204
153
238
204
153
0
0
0
51
34
51
51
34
51
51
119
170
85
85
85
85
85
85
85
85
85
85
85
85
85
85
85
85
85
85
85
85
85
51
68
119
51
119
170
51
119
170
51
34
51
0
0
0
0
0
0
0
0
0
51
34
51
0
0
0
85
85
85
0
0
0
85
85
85
0
0
0
85
85
85
0
0
0
85
85
85
0
0
0
51
119
170
0
0
0
51
34
51
0
0
0
0
0
0
0
0
0
0
0
0
221
238
238
85
238
238
34
204
221
51
119
170
51
119
170
51
68
119
51
68
119
51
68
119
51
68
119
51
68
119
51
68
119
0
0
0
0
0
0
0
0
0
0
0
0
0
0
0
0
0
0
0
0
0
0
0
0
0
0
0
51
34
51
51
34
51
51
34
51
51
34
51
51
34
51
51
34
51
51
34
51
51
34
51
0
0
0
0
0
0
0
0
0
0
0
0
119
34
34
0
0
0
0
0
0
0
0
0
0
0
0
0
0
0
0
0
0
0
0
0
0
0
0
119
34
34
0
0
0
0
0
0
0
0
0
0
0
0
0
0
0
0
0
0
0
0
0
0
0
0
0
0
0
0
0
0
0
0
0
0
0
0
0
0
0
0
0
0
0
0
0
0
0
0
0
0
0
0
0
0
0
0
0
0
0
0
51
119
170
51
119
170
51
119
170
51
119
170
51
119
170
51
119
170
51
119
170
51
119
170
51
119
170
51
119
170
51
119
170
51
119
170
51
119
170
51
119
170
0
0
0
0
0
0
0
0
0
0
0
0
0
0
0
0
0
0
0
0
0
0
0
0
0
0
0
0
0
0
0
0
0
0
0
0
0
0
0
0
0
0
0
0
0
0
0
0
0
0
0
0
0
0
0
0
0
0
0
0
0
0
0
0
0
0
0
0
0
0
0
0
0
0
0
0
0
0
0
0
0
0
0
0
0
0
0
0
0
0
0
0
0
0
0
0
0
0
0
0
0
0
0
0
0
0
0
0
0
0
0
0
0
0
0
0
0
0
0
0
0
0
0
0
0
0
0
0
0
0
0
0
0
0
0
0
0
0
0
0
0
0
0
0
0
0
0
0
0
0
0
0
0
0
0
0
0
0
0
0
0
0
0
0
0
0
0
0
0
0
0
0
0
0
0
0
0
0
0
0
0
0
0
0
0
0
0
0
0
0
0
0
0
0
0
0
0
0
0
0
0
0
0
0
0
0
0
0
0
0
0
0
0
0
0
0
0
0
0
0
0
0
0
0
0
0
0
0
0
0
0
0
0
0
0
0
0
0
0
0
0
0
0
0
0
0
0
0
0
0
0
0
0
0
0
0
0
0
0
0
0
0
0
0
0
0
0
0
0
0
0
0
0
0
0
0
0
0
0
0
0
0
0
0
0
0
0
0
0
0
0
0
0
0
0
0
0
0
0
0
0
0
0
0
0
0
0
0
0
0
0
0
0
0
0
0
0
0
0
0
0
0
0
0
0
0
0
0
0
0
0
0
0
0
0
0
0
0
0
238
204
153
238
204
153
238
153
102
238
204
153
34
204
221
34
204
221
51
119
170
51
119
170
51
119
170
51
119
170
51
119
170
51
119
170
34
204
221
238
204
153
238
204
153
238
204
153
238
204
153
238
204
153
238
204
153
238
153
102
238
153
102
34
204
221
51
119
170
51
119
170
51
119
170
51
119
170
51
119
170
51
119
170
238
153
102
238
153
102
238
204
153
238
204
153
238
204
153
238
204
153
238
204
153
238
204
153
238
204
153
238
204
153
238
204
153
238
204
153
238
204
153
238
204
153
238
204
153
238
204
153
238
204
153
238
204
153
238
204
153
119
170
51
238
153
102
238
204
153
238
204
153
34
204
221
51
119
170
51
119
170
51
119
170
51
119
170
51
119
170
51
119
170
51
68
119
51
119
170
51
119
170
51
119
170
51
119
170
51
119
170
119
170
51
238
204
153
238
204
153
85
238
238
85
238
238
51
119
170
51
119
170
51
68
119
51
68
119
51
119
170
51
119
170
51
119
170
85
238
238
238
204
153
238
153
102
119
170
51
119
170
51
238
153
102
238
204
153
85
238
238
51
119
170
51
119
170
51
119
170
51
68
119
51
68
119
51
119
170
51
119
170
85
238
238
85
238
238
238
204
153
238
204
153
119
170
51
0
0
0
0
0
0
0
0
0
0
0
0
0
0
0
0
0
0
0
0
0
0
0
0
0
0
0
0
0
0
0
0
0
0
0
0
0
0
0
0
0
0
0
0
0
0
0
0
0
0
0
0
0
0
0
0
0
0
0
0
0
0
0
0
0
0
0
0
0
0
0
0
0
0
0
0
0
0
0
0
0
0
0
0
0
0
0
0
0
0
0
0
0
0
0
0
0
0
0
0
0
0
0
0
0
0
0
0
0
0
0
0
0
0
0
0
0
0
0
0
0
0
0
0
0
0
0
0
0
0
0
0
0
0
0
0
0
0
0
0
0
0
0
0
0
0
0
0
0
0
0
0
0
0
0
0
0
0
0
0
0
0
0
0
0
0
0
0
0
0
0
0
0
0
0
0
0
0
0
0
0
0
0
0
0
0
0
0
0
0
0
0
0
0
0
0
0
0
0
0
0
0
0
0
0
0
0
0
0
0
0
0
0
0
0
0
0
0
0
0
0
0
0
0
0
0
0
0
0
0
0
0
0
0
0
0
0
0
0
0
0
0
0
0
0
0
0
0
0
0
0
0
0
0
0
0
0
0
0
0
0
0
0
0
0
0
0
0
0
0
0
0
0
0
0
0
0
0
0
0
0
0
0
0
0
0
0
0
0
0
0
0
0
0
0
0
0
0
0
0
0
0
0
0
0
0
0
0
0
0
0
0
0
0
0
0
0
0
0
0
0
0
0
0
0
0
0
0
0
0
0
0
0
0
0
0
0
0
0
0
0
0
0
0
0
0
0
0
0
0
0
0
0
0
0
0
0
0
0
0
0
0
0
0
0
0
0
0
0
0
0
0
0
0
0
0
0
0
0
0
0
0
0
0
0
0
0
0
0
0
0
0
0
0
0
0
0
0
0
0
0
0
0
0
0
0
0
0
0
0
0
0
0
0
0
0
0
0
0
0
0
0
0
0
0
0
0
0
0
0
0
0
0
0
0
0
0
0
0
0
0
0
0
0
0
0
0
0
0
0
0
0
0
0
0
0
0
0
0
0
0
0
0
0
0
0
0
0
0
0
0
0
0
0
0
0
0
0
0
0
0
0
0
0
0
0
0
0
0
0
0
0
0
0
0
0
0
0
0
0
0
0
0
0
0
0
0
0
0
0
0
0
0
0
0
0
0
0
0
0
0
0
0
0
0
0
0
0
0
0
0
0
0
0
0
0
0
0
0
0
0
0
0
0
0
0
0
0
0
0
0
0
0
0
0
0
0
0
0
0
0
0
0
0
0
0
0
0
0
0
0
0
0
0
0
0
0
0
0
0
0
0
0
0
0
0
0
0
0
0
0
0
0
0
0
0
0
0
0
0
0
0
0
0
0
0
0
0
0
0
0
0
0
0
0
0
0
0
0
0
0
0
0
0
0
0
0
0
0
0
0
0
0
0
0
0
0
0
0
0
0
0
0
0
0
0
0
0
0
0
0
0
0
0
0
0
0
0
0
0
0
0
0
0
0
0
0
0
0
0
0
0
0
0
0
0
0
0
0
0
0
0
0
0
0
0
0
0
0
0
0
0
0
0
0
0
0
0
0
0
0
0
0
0
0
0
0
0
0
0
0
0
0
0
0
0
0
0
0
0
0
0
0
0
0
0
0
0
0
0
0
0
0
0
0
0
0
0
0
0
0
0
0
0
0
0
0
0
0
0
0
0
0
0
0
0
0
0
0
0
0
0
0
0
0
0
0
0
0
0
0
0
0
0
0
0
0
0
0
0
0
0
0
0
0
0
0
0
0
0
0
0
0
0
0
0
0
0
0
0
0
0
0
0
0
0
0
0
0
0
0
0
0
0
0
0
0
0
0
0
0
0
0
0
0
0
0
0
0
0
0
0
0
0
0
0
0
0
0
0
0
0
0
0
0
0
0
0
0
0
0
0
0
0
0
0
0
0
0
0
0
0
0
0
0
0
0
0
0
0
0
0
0
0
0
0
0
0
0
0
0
0
0
0
0
0
0
0
0
0
0
0
0
0
0
0
0
0
0
0
0
0
0
0
0
0
0
0
0
0
0
0
0
0
0
0
0
0
0
0
0
0
0
0
0
0
0
0
0
0
0
0
0
0
0
0
0
0
0
0
0
0
0
0
0
0
0
0
0
0
0
0
0
0
0
0
0
0
0
0
0
0
0
0
0
0
0
0
0
0
0
0
0
0
0
0
0
0
0
0
0
0
0
0
0
0
0
0
0
0
0
0
0
0
0
0
0
0
0
0
0
0
0
0
0
0
0
0
0
0
0
0
0
0
0
0
0
0
0
0
0
0
0
0
0
0
0
0
0
0
0
0
0
0
0
0
0
0
0
0
0
0
0
0
0
0
0
0
0
0
0
0
0
0
0
0
0
0
0
0
0
0
0
0
0
0
0
0
0
0
0
0
0
0
0
0
0
0
0
0
0
0
0
0
0
0
0
0
0
0
0
0
0
0
0
0
0
0
0
0
0
0
0
0
0
0
0
0
0
0
0
0
0
0
0
0
0
0
0
0
0
0
0
0
0
0
0
0
0
0
0
0
0
0
0
0
0
0
0
0
0
0
0
0
0
0
0
0
0
0
0
0
0
0
0
0
0
0
0
0
0
0
0
0
0
0
0
0
0
0
0
0
0
0
0
0
0
0
0
0
0
0
0
0
0
0
0
0
0
0
0
0
0
0
0
0
0
0
0
0
51
51
51
51
51
51
0
0
0
0
0
0
0
0
0
0
0
0
0
0
0
0
0
0
0
0
0
0
0
0
0
0
0
0
0
0
0
0
0
0
0
0
0
0
0
0
0
0
0
0
0
0
0
0
0
0
0
0
0
0
0
0
0
0
0
0
0
0
0
0
0
0
51
51
51
0
0
0
0
0
0
51
51
51
0
0
0
0
0
0
0
0
0
0
0
0
0
0
0
0
0
0
187
221
68
0
0
0
0
0
0
0
0
0
0
0
0
0
0
0
0
0
0
0
0
0
0
0
0
51
119
68
51
119
68
0
0
0
0
0
0
0
0
0
0
0
0
0
0
0
0
0
0
0
0
0
187
221
68
0
0
0
187
221
68
51
119
68
0
0
0
0
0
0
0
0
0
51
51
51
51
51
51
0
0
0
0
0
0
0
0
0
0
0
0
0
0
0
0
0
0
0
0
0
0
0
0
0
0
0
0
0
0
0
0
0
0
0
0
0
0
0
0
0
0
0
0
0
0
0
0
0
0
0
0
0
0
0
0
0
0
0
0
0
0
0
0
0
0
0
0
0
0
0
0
0
0
0
0
0
0
0
0
0
0
0
0
0
0
0
0
0
0
0
0
0
0
0
0
0
0
0
0
0
0
0
0
0
0
0
0
0
0
0
0
0
0
0
0
0
0
0
0
0
0
0
0
0
0
0
0
0
0
0
0
0
0
0
0
0
0
0
0
0
0
0
0
0
0
0
0
0
0
0
0
0
0
0
0
0
0
0
0
0
0
0
0
0
0
0
0
0
0
0
0
0
0
0
0
0
0
0
0
0
0
0
0
0
0
0
0
0
0
0
0
0
0
0
0
0
0
0
0
0
0
0
0
0
0
0
0
0
0
0
0
0
0
0
0
0
0
0
0
0
0
0
0
0
0
0
0
0
0
0
0
0
0
0
0
0
0
0
0
0
0
0
0
0
0
0
0
0
0
0
0
0
0
0
0
0
0
0
0
0
0
0
0
0
0
0
0
0
0
0
0
0
0
0
0
0
0
0
0
0
0
0
0
0
0
0
0
0
0
0
0
0
0
0
0
0
0
0
0
0
0
0
0
0
0
0
0
0
0
0
0
0
0
0
0
0
0
0
0
0
0
0
0
0
0
0
0
0
0
0
0
0
0
0
0
0
0
0
0
0
0
0
0
0
0
0
0
0
0
0
0
0
0
0
0
0
0
0
0
0
0
0
51
51
51
0
0
0
0
0
0
51
51
51
0
0
0
0
0
0
0
0
0
0
0
0
0
0
0
0
0
0
0
0
0
0
0
0
0
0
0
0
0
0
0
0
0
0
0
0
0
0
0
0
0
0
0
0
0
0
0
0
0
0
0
0
0
0
0
0
0
0
0
0
0
0
0
0
0
0
0
0
0
0
0
0
0
0
0
0
0
0
0
0
0
0
0
0
0
0
0
0
0
0
0
0
0
0
0
0
0
0
0
0
0
0
0
0
0
0
0
0
0
0
0
0
0
0
0
0
0
0
0
0
0
0
0
0
0
0
0
0
0
0
0
0
0
0
0
0
0
0
0
0
0
0
0
0
0
0
0
0
0
0
0
0
0
0
0
0
0
0
0
0
0
0
0
0
0
0
0
0
0
0
0
0
0
0
0
0
0
0
0
0
0
0
0
0
0
0
0
0
0
0
0
0
0
0
0
0
0
0
0
0
0
0
0
0
0
0
0
0
0
0
0
0
0
0
0
0
0
0
0
0
0
0
0
0
0
0
0
0
0
0
0
0
0
0
0
0
0
0
0
0
0
0
0
0
0
0
0
0
0
0
0
0
0
0
0
0
0
0
0
0
0
0
0
0
0
0
0
0
0
0
0
0
0
0
0
0
0
0
0
0
0
0
0
0
0
0
0
0
0
0
0
0
0
0
0
0
0
0
0
0
0
0
0
0
0
0
0
0
0
0
0
0
0
0
0
0
0
0
0
0
0
0
0
0
0
0
0
0
0
0
0
0
0
0
0
0
0
0
0
0
0
0
0
0
0
0
0
0
0
0
0
0
0
0
0
0
0
0
0
0
0
0
0
0
0
0
0
0
0
0
0
0
0
0
0
0
0
0
0
0
0
0
0
0
0
0
0
0
0
0
0
0
0
0
0
0
0
0
0
0
0
0
51
51
51
187
119
85
51
51
51
51
51
51
0
0
0
0
0
0
0
0
0
51
51
51
51
51
51
51
51
51
0
0
0
51
51
51
0
0
0
0
0
0
0
0
0
0
0
0
0
0
0
0
0
0
0
0
0
0
0
0
0
0
0
0
0
0
0
0
0
51
51
51
187
119
85
51
51
51
51
51
51
187
119
85
51
51
51
0
0
0
0
0
0
0
0
0
0
0
0
187
221
68
51
119
68
51
51
51
85
85
85
85
85
85
51
51
51
51
51
51
0
0
0
0
0
0
51
119
68
119
170
51
51
119
68
68
85
85
0
0
0
0
0
0
0
0
0
51
51
51
51
51
51
0
0
0
0
0
0
187
221
68
51
119
68
0
0
0
0
0
0
0
0
0
51
51
51
119
119
119
102
51
68
51
51
51
51
119
68
0
0
0
0
0
0
0
0
0
0
0
0
0
0
0
0
0
0
0
0
0
0
0
0
0
0
0
0
0
0
0
0
0
0
0
0
0
0
0
0
0
0
0
0
0
0
0
0
0
0
0
0
0
0
0
0
0
0
0
0
0
0
0
0
0
0
0
0
0
0
0
0
0
0
0
0
0
0
0
0
0
0
0
0
0
0
0
0
0
0
0
0
0
0
0
0
0
0
0
0
0
0
0
0
0
0
0
0
0
0
0
0
0
0
0
0
0
0
0
0
0
0
0
0
0
0
0
0
0
0
0
0
0
0
0
0
0
0
0
0
0
0
0
0
0
0
0
0
0
0
0
0
0
0
0
0
0
0
0
0
0
0
0
0
0
0
0
0
0
0
0
0
0
0
0
0
0
0
0
0
0
0
0
0
0
0
0
0
0
0
0
0
0
0
0
0
0
0
0
0
0
0
0
0
0
0
0
0
0
0
0
0
0
0
0
0
0
0
0
0
0
0
0
0
0
0
0
0
0
0
0
0
0
0
0
0
0
0
0
0
0
0
0
0
0
0
0
0
0
0
0
0
0
0
0
0
0
0
0
0
0
0
0
0
0
0
0
0
0
0
0
0
0
0
0
0
0
0
0
0
0
0
0
0
0
0
0
0
0
0
0
0
0
0
0
0
0
0
0
0
0
0
0
0
0
0
51
51
51
51
51
51
51
51
51
51
51
51
0
0
0
0
0
0
0
0
0
0
0
0
0
0
0
0
0
0
0
0
0
0
0
0
0
0
0
0
0
0
0
0
0
51
51
51
51
51
51
238
204
68
51
51
51
51
51
51
238
204
68
51
51
51
0
0
0
0
0
0
0
0
0
0
0
0
0
0
0
0
0
0
0
0
0
0
0
0
0
0
0
0
0
0
0
0
0
0
0
0
0
0
0
0
0
0
0
0
0
0
0
0
0
0
0
0
0
0
0
0
0
0
0
0
0
0
0
0
0
0
0
0
0
0
0
0
0
0
0
0
0
0
0
0
0
0
0
0
0
0
0
0
0
0
0
0
0
0
0
0
0
0
0
0
0
0
0
0
0
0
0
0
0
0
0
0
0
0
0
0
0
0
0
0
0
0
0
153
153
136
0
0
0
0
0
0
0
0
0
0
0
0
0
0
0
0
0
0
0
0
0
0
0
0
0
0
0
0
0
0
0
0
0
0
0
0
0
0
0
0
0
0
0
0
0
0
0
0
0
0
0
0
0
0
0
0
0
0
0
0
0
0
0
0
0
0
0
0
0
0
0
0
0
0
0
0
0
0
0
0
0
0
0
0
0
0
0
0
0
0
0
0
0
0
0
0
0
0
0
0
0
0
0
0
0
0
0
0
0
0
0
0
0
0
0
0
0
0
0
0
0
0
0
0
0
0
0
0
0
0
0
0
0
0
0
0
0
0
0
0
0
0
0
0
0
0
0
0
0
0
0
0
0
0
0
0
0
0
0
0
0
0
0
0
0
0
0
0
0
0
0
0
0
0
0
0
0
0
0
0
0
0
0
0
0
0
0
0
0
0
0
0
0
0
0
0
0
0
0
0
0
0
0
0
0
0
0
0
0
0
0
0
0
0
0
0
0
0
0
0
0
0
0
0
0
0
0
0
0
0
0
0
0
0
0
0
0
0
0
0
0
0
0
0
0
0
0
0
0
0
0
0
0
0
0
0
0
0
0
0
0
0
0
0
0
0
0
0
0
0
0
0
0
0
0
0
51
51
51
238
153
102
187
119
85
51
51
51
0
0
0
51
51
51
119
119
119
153
153
136
119
68
68
51
51
51
119
68
68
51
51
51
0
0
0
0
0
0
0
0
0
0
0
0
0
0
0
0
0
0
0
0
0
0
0
0
0
0
0
0
0
0
51
51
51
153
153
136
153
85
85
187
119
85
51
51
51
0
0
0
0
0
0
0
0
0
0
0
0
0
0
0
51
51
51
51
51
51
51
119
68
51
34
51
153
85
85
51
119
68
153
85
85
51
51
51
51
119
68
119
170
51
51
119
68
51
119
68
51
119
68
68
85
85
0
0
0
51
51
51
119
119
119
102
51
68
51
51
51
51
51
51
51
119
68
0
0
0
0
0
0
0
0
0
51
51
51
153
153
136
102
51
68
51
34
51
51
51
51
51
51
51
0
0
0
0
0
0
0
0
0
0
0
0
0
0
0
0
0
0
0
0
0
0
0
0
0
0
0
0
0
0
0
0
0
0
0
0
0
0
0
0
0
0
0
0
0
0
0
0
0
0
0
0
0
0
0
0
0
0
0
0
0
0
0
0
0
0
0
0
0
0
0
0
0
0
0
0
0
0
0
0
0
0
0
0
0
0
0
0
0
0
0
0
0
0
0
0
0
0
0
0
0
0
0
0
0
0
0
0
0
0
0
0
0
0
0
0
0
0
0
0
0
0
0
0
0
0
0
0
0
0
0
0
0
0
0
0
0
0
0
0
0
0
0
0
0
0
0
0
0
0
0
0
0
0
0
0
0
0
0
0
0
0
0
0
0
0
0
0
0
0
0
0
0
0
0
0
0
0
0
0
0
0
0
0
0
0
0
0
0
0
0
0
0
0
0
0
0
0
0
0
0
0
0
0
0
0
0
0
0
0
0
0
0
0
0
0
0
0
0
0
0
0
0
0
0
0
0
0
0
0
0
0
0
0
0
0
0
0
0
0
0
0
0
0
0
0
0
0
0
0
0
0
0
0
0
0
0
0
0
0
0
0
0
0
0
0
0
0
0
0
51
51
51
51
51
51
0
0
0
0
0
0
0
0
0
0
0
0
0
0
0
0
0
0
0
0
0
0
0
0
0
0
0
0
0
0
51
51
51
187
221
68
119
170
51
119
170
51
51
51
51
0
0
0
0
0
0
0
0
0
0
0
0
0
0
0
0
0
0
0
0
0
0
0
0
0
0
0
51
51
51
238
153
102
51
51
51
238
204
68
51
51
51
238
153
102
51
51
51
51
51
51
51
51
51
0
0
0
0
0
0
0
0
0
0
0
0
0
0
0
0
0
0
0
0
0
0
0
0
0
0
0
0
0
0
0
0
0
0
0
0
0
0
0
0
0
0
51
51
51
51
51
51
0
0
0
0
0
0
0
0
0
0
0
0
0
0
0
0
0
0
0
0
0
0
0
0
51
51
51
51
51
51
0
0
0
0
0
0
0
0
0
0
0
0
0
0
0
0
0
0
0
0
0
0
0
0
0
0
0
0
0
0
0
0
0
0
0
0
0
0
0
0
0
0
0
0
0
153
153
136
0
0
0
0
0
0
0
0
0
0
0
0
51
51
51
51
51
51
0
0
0
0
0
0
0
0
0
0
0
0
0
0
0
0
0
0
0
0
0
0
0
0
0
0
0
51
51
51
51
51
51
51
51
51
0
0
0
0
0
0
0
0
0
0
0
0
0
0
0
0
0
0
0
0
0
0
0
0
0
0
0
0
0
0
0
0
0
51
51
51
51
51
51
0
0
0
51
51
51
51
51
51
51
51
51
0
0
0
51
51
51
51
51
51
0
0
0
0
0
0
0
0
0
0
0
0
0
0
0
0
0
0
0
0
0
0
0
0
0
0
0
0
0
0
0
0
0
0
0
0
0
0
0
0
0
0
0
0
0
0
0
0
0
0
0
0
0
0
0
0
0
0
0
0
0
0
0
0
0
0
0
0
0
0
0
0
0
0
0
0
0
0
0
0
0
0
0
0
0
0
0
0
0
0
0
0
0
0
0
0
0
0
0
0
0
0
0
0
0
0
0
0
0
0
0
0
0
0
0
0
0
0
0
0
0
0
0
0
0
0
51
51
51
51
51
51
51
51
51
0
0
0
0
0
0
0
0
0
0
0
0
0
0
0
0
0
0
0
0
0
0
0
0
51
51
51
187
119
85
119
68
68
187
119
85
51
51
51
51
51
51
119
119
119
119
119
119
153
153
136
119
68
68
119
119
119
51
51
51
0
0
0
0
0
0
0
0
0
0
0
0
51
51
51
0
0
0
51
51
51
0
0
0
0
0
0
0
0
0
51
51
51
204
204
187
204
204
187
153
85
85
153
85
85
51
51
51
0
0
0
0
0
0
0
0
0
51
51
51
187
119
85
51
119
68
153
85
85
119
68
68
51
119
68
68
85
85
153
85
85
51
51
51
51
119
68
51
119
68
68
85
85
51
119
68
68
85
85
68
85
85
0
0
0
51
51
51
153
153
136
85
85
85
153
85
85
119
68
68
51
51
51
68
85
85
51
119
68
51
51
51
153
153
136
85
85
85
51
34
51
51
51
51
102
51
68
51
51
51
51
119
68
0
0
0
0
0
0
0
0
0
0
0
0
0
0
0
0
0
0
0
0
0
0
0
0
0
0
0
0
0
0
0
0
0
0
0
0
0
0
0
0
0
0
0
0
0
0
0
0
0
0
0
0
0
0
0
0
0
0
0
0
0
0
0
0
0
0
0
0
0
0
0
0
0
0
0
0
0
0
0
0
0
0
0
0
0
0
0
0
0
0
0
0
0
0
0
0
0
0
0
0
0
0
0
0
0
0
0
0
0
0
0
0
0
0
0
0
0
0
0
0
0
0
0
0
0
0
0
0
0
0
0
0
0
0
0
0
0
0
0
0
0
0
0
0
0
0
0
0
0
0
0
0
0
0
0
0
0
0
0
0
0
0
0
0
0
0
0
0
0
0
0
0
0
0
0
0
0
0
0
0
0
0
0
0
0
0
0
0
0
0
0
0
0
0
0
0
0
0
0
0
0
0
0
0
0
0
0
0
0
0
0
0
0
0
0
0
0
0
0
0
0
0
0
0
0
0
0
0
0
0
0
0
0
0
0
0
0
0
0
0
0
0
0
0
0
0
0
0
0
0
0
0
0
0
0
0
0
0
0
0
0
51
51
51
51
51
51
238
204
68
238
153
102
51
51
51
0
0
0
0
0
0
0
0
0
0
0
0
0
0
0
0
0
0
0
0
0
0
0
0
0
0
0
0
0
0
51
51
51
51
51
51
119
170
51
51
119
68
51
51
51
0
0
0
0
0
0
0
0
0
0
0
0
0
0
0
0
0
0
0
0
0
0
0
0
51
51
51
238
204
68
238
153
102
238
153
102
187
119
85
238
153
102
238
204
68
187
119
85
187
119
85
51
51
51
0
0
0
0
0
0
0
0
0
0
0
0
0
0
0
0
0
0
0
0
0
0
0
0
0
0
0
0
0
0
0
0
0
51
51
51
51
51
51
187
221
68
119
170
51
51
51
51
0
0
0
0
0
0
0
0
0
0
0
0
0
0
0
0
0
0
51
51
51
255
255
255
255
255
255
51
51
51
0
0
0
0
0
0
51
51
51
51
51
51
0
0
0
0
0
0
0
0
0
0
0
0
0
0
0
0
0
0
0
0
0
0
0
0
0
0
0
153
153
136
0
0
0
0
0
0
0
0
0
0
0
0
51
51
51
102
51
68
119
68
68
51
51
51
0
0
0
0
0
0
0
0
0
0
0
0
0
0
0
51
51
51
51
51
51
51
51
51
51
34
51
119
68
68
153
85
85
51
51
51
51
51
51
0
0
0
0
0
0
0
0
0
0
0
0
0
0
0
0
0
0
0
0
0
0
0
0
0
0
0
51
51
51
119
68
68
51
51
51
153
85
85
119
68
68
119
68
68
51
51
51
102
51
68
51
51
51
0
0
0
0
0
0
0
0
0
0
0
0
0
0
0
0
0
0
0
0
0
0
0
0
51
51
51
0
0
0
51
51
51
0
0
0
51
51
51
0
0
0
51
51
51
0
0
0
0
0
0
0
0
0
0
0
0
0
0
0
0
0
0
0
0
0
0
0
0
0
0
0
0
0
0
0
0
0
0
0
0
0
0
0
0
0
0
0
0
0
0
0
0
0
0
0
0
0
0
0
0
0
0
0
0
0
0
0
0
0
0
0
0
0
0
0
0
0
0
0
51
51
51
51
51
51
102
51
68
119
68
68
187
119
85
51
51
51
51
51
51
0
0
0
0
0
0
0
0
0
0
0
0
0
0
0
0
0
0
51
51
51
238
153
102
102
51
68
119
68
68
153
85
85
51
51
51
51
51
51
153
153
136
102
51
68
51
51
51
51
51
51
0
0
0
0
0
0
0
0
0
0
0
0
51
51
51
187
119
85
51
51
51
187
119
85
51
51
51
0
0
0
0
0
0
0
0
0
51
51
51
153
85
85
153
153
136
51
51
51
153
85
85
0
0
0
0
0
0
0
0
0
85
85
85
187
119
85
238
153
102
51
119
68
119
68
68
68
85
85
238
153
102
51
34
51
51
51
51
0
0
0
51
119
68
51
119
68
68
85
85
68
85
85
51
51
51
0
0
0
51
51
51
153
153
136
102
51
68
85
85
85
85
85
85
85
85
85
51
51
51
51
51
51
119
119
119
85
85
85
119
68
68
85
85
85
102
51
68
51
34
51
51
51
51
51
119
68
0
0
0
0
0
0
0
0
0
0
0
0
0
0
0
0
0
0
0
0
0
0
0
0
0
0
0
0
0
0
0
0
0
0
0
0
0
0
0
0
0
0
0
0
0
0
0
0
0
0
0
0
0
0
0
0
0
0
0
0
0
0
0
0
0
0
0
0
0
0
0
0
0
0
0
0
0
0
0
0
0
0
0
0
0
0
0
0
0
0
0
0
0
0
0
0
0
0
0
0
0
0
0
0
0
0
0
0
0
0
0
0
0
0
0
0
0
0
0
0
0
0
0
0
0
0
0
0
0
0
0
0
0
0
0
0
0
0
0
0
0
0
0
0
0
0
0
0
0
0
0
0
0
0
0
0
0
0
0
0
0
0
0
0
0
0
0
0
0
0
0
0
0
0
0
0
0
0
0
0
0
0
0
0
0
0
0
0
0
0
0
0
0
0
0
0
0
0
0
0
0
0
0
0
0
0
0
0
0
0
0
0
0
0
0
0
0
0
0
0
0
0
0
0
0
0
0
0
0
0
0
0
0
0
0
0
0
0
0
0
0
0
0
0
0
0
0
0
0
0
0
0
0
0
0
51
51
51
51
51
51
238
204
153
255
255
255
238
204
153
238
204
68
238
153
102
51
51
51
0
0
0
0
0
0
0
0
0
0
0
0
0
0
0
0
0
0
0
0
0
51
51
51
51
51
51
51
68
119
34
204
221
51
119
170
51
68
119
51
68
119
51
51
51
0
0
0
0
0
0
0
0
0
0
0
0
0
0
0
0
0
0
0
0
0
51
51
51
238
204
68
238
204
68
238
204
68
238
153
102
238
204
68
238
153
102
187
119
85
51
51
51
0
0
0
0
0
0
0
0
0
0
0
0
0
0
0
0
0
0
0
0
0
0
0
0
0
0
0
51
51
51
51
51
51
51
51
51
238
153
102
187
119
85
119
170
51
51
119
68
51
51
51
0
0
0
0
0
0
0
0
0
0
0
0
0
0
0
51
51
51
204
204
187
255
255
255
255
255
255
255
255
255
51
51
51
51
51
51
255
255
255
255
255
255
51
51
51
51
51
51
0
0
0
0
0
0
0
0
0
0
0
0
0
0
0
0
0
0
0
0
0
153
153
136
0
0
0
0
0
0
0
0
0
0
0
0
102
51
68
102
51
68
51
51
51
0
0
0
0
0
0
0
0
0
0
0
0
0
0
0
0
0
0
51
51
51
187
119
85
238
153
102
51
34
51
51
34
51
238
153
102
153
85
85
187
119
85
51
51
51
0
0
0
0
0
0
0
0
0
0
0
0
0
0
0
0
0
0
0
0
0
0
0
0
0
0
0
51
51
51
187
119
85
153
85
85
119
68
68
153
85
85
102
51
68
51
51
51
0
0
0
0
0
0
0
0
0
0
0
0
0
0
0
0
0
0
0
0
0
0
0
0
51
51
51
255
68
85
51
51
51
170
17
17
51
51
51
255
68
85
51
51
51
170
17
17
51
51
51
0
0
0
0
0
0
0
0
0
0
0
0
0
0
0
0
0
0
0
0
0
0
0
0
0
0
0
51
51
51
51
51
51
51
51
51
51
51
51
51
51
51
51
51
51
0
0
0
0
0
0
0
0
0
0
0
0
0
0
0
0
0
0
0
0
0
0
0
0
51
51
51
51
34
51
119
68
68
187
119
85
102
51
68
119
68
68
187
119
85
102
51
68
51
51
51
0
0
0
0
0
0
0
0
0
0
0
0
0
0
0
51
51
51
153
85
85
187
119
85
119
68
68
102
51
68
153
85
85
119
68
68
102
51
68
153
153
136
102
51
68
51
51
51
0
0
0
0
0
0
0
0
0
0
0
0
51
51
51
187
119
85
187
119
85
153
85
85
187
119
85
51
51
51
0
0
0
51
51
51
187
119
85
51
51
51
119
119
119
51
51
51
51
51
51
51
51
51
51
51
51
0
0
0
85
85
85
238
153
102
102
51
68
153
85
85
153
85
85
153
85
85
102
51
68
238
153
102
51
51
51
0
0
0
0
0
0
68
85
85
51
51
51
51
51
51
0
0
0
0
0
0
51
51
51
119
119
119
85
85
85
119
68
68
119
68
68
51
51
51
102
51
68
51
51
51
85
85
85
119
68
68
119
119
119
119
119
119
119
119
119
102
51
68
51
51
51
68
85
85
0
0
0
0
0
0
0
0
0
0
0
0
0
0
0
0
0
0
0
0
0
0
0
0
0
0
0
0
0
0
0
0
0
0
0
0
0
0
0
0
0
0
0
0
0
0
0
0
0
0
0
0
0
0
0
0
0
0
0
0
0
0
0
0
0
0
0
0
0
0
0
0
0
0
0
0
0
0
0
0
0
0
0
0
0
0
0
0
0
0
0
0
0
0
0
0
0
0
0
0
0
0
0
0
0
0
0
0
0
0
0
0
0
0
0
0
0
0
0
0
0
0
0
0
0
0
0
0
0
0
0
0
0
0
0
0
0
0
0
0
0
0
0
0
0
0
0
0
0
0
0
0
0
0
0
0
0
0
0
0
0
0
0
0
0
0
0
0
0
0
0
0
0
0
0
0
0
0
0
0
0
0
0
0
0
0
0
0
0
0
0
0
0
0
0
0
0
0
0
0
0
0
0
0
0
0
0
0
0
0
0
0
0
0
0
0
0
0
0
0
0
0
0
0
0
0
0
0
0
0
0
0
0
0
0
0
0
0
0
0
0
0
0
0
0
0
0
0
0
51
51
51
51
51
51
238
204
153
255
255
255
255
255
255
238
204
68
238
204
68
238
153
102
238
153
102
221
238
238
51
51
51
0
0
0
0
0
0
0
0
0
0
0
0
0
0
0
51
51
51
34
204
221
51
119
170
51
68
119
51
119
170
51
119
170
51
68
119
34
204
221
51
51
51
0
0
0
0
0
0
0
0
0
0
0
0
0
0
0
0
0
0
0
0
0
0
0
0
51
51
51
238
204
68
238
153
102
187
119
85
238
153
102
187
119
85
51
51
51
0
0
0
0
0
0
0
0
0
0
0
0
0
0
0
0
0
0
0
0
0
0
0
0
0
0
0
51
51
51
238
153
102
187
119
85
187
221
68
119
170
51
51
119
68
68
85
85
119
170
51
51
119
68
51
51
51
0
0
0
0
0
0
0
0
0
0
0
0
0
0
0
51
51
51
153
153
136
255
255
255
204
204
187
255
255
255
255
255
255
204
204
187
255
255
255
255
255
255
221
238
238
51
51
51
0
0
0
0
0
0
0
0
0
0
0
0
0
0
0
0
0
0
51
51
51
51
51
51
0
0
0
0
0
0
51
51
51
153
85
85
119
68
68
51
51
51
0
0
0
0
0
0
0
0
0
0
0
0
0
0
0
0
0
0
51
51
51
153
85
85
238
204
153
238
153
102
238
204
68
51
34
51
238
153
102
102
51
68
187
119
85
51
51
51
0
0
0
0
0
0
0
0
0
0
0
0
0
0
0
0
0
0
0
0
0
0
0
0
51
51
51
153
85
85
187
119
85
153
85
85
187
119
85
119
68
68
51
51
51
0
0
0
0
0
0
0
0
0
0
0
0
0
0
0
0
0
0
0
0
0
0
0
0
0
0
0
51
51
51
255
68
85
51
51
51
51
51
51
51
51
51
255
68
85
51
51
51
0
0
0
0
0
0
0
0
0
0
0
0
0
0
0
0
0
0
0
0
0
0
0
0
0
0
0
51
51
51
238
204
153
119
68
68
119
68
68
119
68
68
119
68
68
102
51
68
51
51
51
0
0
0
0
0
0
0
0
0
0
0
0
0
0
0
0
0
0
51
51
51
119
119
119
153
153
136
153
153
136
153
153
136
153
153
136
153
153
136
153
153
136
153
153
136
119
119
119
51
51
51
0
0
0
0
0
0
0
0
0
0
0
0
51
51
51
153
85
85
153
85
85
119
68
68
119
68
68
102
51
68
51
34
51
153
85
85
51
51
51
119
119
119
119
68
68
51
51
51
0
0
0
0
0
0
0
0
0
51
51
51
187
119
85
51
51
51
187
119
85
153
85
85
153
85
85
51
51
51
51
51
51
153
85
85
51
51
51
51
51
51
51
51
51
102
51
68
187
119
85
153
85
85
51
51
51
0
0
0
51
51
51
119
68
68
51
51
51
119
68
68
51
51
51
102
51
68
68
85
85
51
51
51
85
85
85
0
0
0
0
0
0
102
51
68
0
0
0
0
0
0
51
119
68
51
51
51
119
119
119
102
51
68
85
85
85
85
85
85
85
85
85
51
51
51
51
51
51
153
153
136
119
119
119
51
51
51
119
119
119
51
51
51
119
119
119
85
85
85
51
51
51
0
0
0
0
0
0
0
0
0
0
0
0
0
0
0
0
0
0
0
0
0
0
0
0
0
0
0
0
0
0
0
0
0
0
0
0
0
0
0
0
0
0
0
0
0
0
0
0
0
0
0
0
0
0
0
0
0
0
0
0
0
0
0
0
0
0
0
0
0
0
0
0
0
0
0
0
0
0
0
0
0
0
0
0
0
0
0
0
0
0
0
0
0
0
0
0
0
0
0
0
0
0
0
0
0
0
0
0
0
0
0
0
0
0
0
0
0
0
0
0
0
0
0
0
0
0
0
0
0
0
0
0
0
0
0
0
0
0
0
0
0
0
0
0
0
0
0
0
0
0
0
0
0
0
0
0
0
0
0
0
0
0
0
0
0
0
0
0
0
0
0
0
0
0
0
0
0
0
0
0
0
0
0
0
0
0
0
0
0
0
0
0
0
0
0
0
0
0
0
0
0
0
0
0
0
0
0
0
0
0
0
0
0
0
0
0
0
0
0
0
0
0
0
0
0
0
0
0
0
0
0
0
0
0
0
0
0
0
0
0
0
0
0
0
0
0
51
51
51
255
255
255
238
204
153
238
204
68
238
204
68
238
204
68
238
204
68
238
153
102
221
238
238
221
238
238
187
119
85
51
51
51
0
0
0
0
0
0
0
0
0
0
0
0
0
0
0
51
51
51
51
119
170
51
119
170
51
68
119
51
68
119
51
68
119
51
68
119
51
119
170
51
51
51
0
0
0
0
0
0
0
0
0
0
0
0
0
0
0
0
0
0
0
0
0
0
0
0
0
0
0
51
51
51
238
204
68
238
153
102
187
119
85
238
153
102
51
51
51
0
0
0
0
0
0
0
0
0
0
0
0
0
0
0
0
0
0
0
0
0
0
0
0
51
51
51
187
221
68
187
221
68
119
170
51
68
85
85
51
119
68
187
221
68
187
119
85
51
119
68
68
85
85
51
51
51
0
0
0
0
0
0
0
0
0
0
0
0
51
51
51
153
153
136
0
0
0
153
153
136
221
238
238
204
204
187
255
255
255
255
255
255
204
204
187
255
255
255
204
204
187
51
51
51
0
0
0
0
0
0
0
0
0
0
0
0
0
0
0
51
51
51
119
119
119
119
119
119
51
51
51
0
0
0
51
51
51
153
85
85
51
51
51
0
0
0
0
0
0
0
0
0
0
0
0
0
0
0
0
0
0
0
0
0
51
51
51
187
119
85
119
68
68
238
204
153
119
68
68
238
204
68
51
34
51
238
153
102
153
85
85
51
51
51
0
0
0
0
0
0
0
0
0
0
0
0
0
0
0
0
0
0
0
0
0
0
0
0
51
51
51
119
68
68
153
85
85
187
119
85
119
68
68
51
51
51
0
0
0
0
0
0
0
0
0
0
0
0
0
0
0
0
0
0
0
0
0
0
0
0
0
0
0
0
0
0
51
51
51
170
17
17
0
0
0
255
68
85
0
0
0
170
17
17
51
51
51
0
0
0
0
0
0
0
0
0
0
0
0
0
0
0
0
0
0
0
0
0
0
0
0
51
51
51
238
204
153
187
119
85
238
204
153
102
51
68
102
51
68
102
51
68
102
51
68
51
34
51
51
51
51
0
0
0
0
0
0
0
0
0
0
0
0
0
0
0
51
51
51
51
34
51
51
34
51
51
34
51
51
34
51
51
34
51
51
34
51
51
34
51
51
34
51
51
34
51
51
51
51
0
0
0
0
0
0
0
0
0
0
0
0
51
68
119
51
51
51
119
68
68
153
85
85
187
119
85
51
34
51
102
51
68
102
51
68
153
85
85
119
68
68
51
51
51
0
0
0
0
0
0
0
0
0
0
0
0
51
51
51
153
85
85
119
68
68
51
51
51
187
119
85
51
34
51
51
34
51
187
119
85
51
51
51
51
51
51
102
51
68
187
119
85
153
85
85
119
68
68
51
51
51
0
0
0
0
0
0
51
51
51
153
85
85
153
85
85
119
68
68
153
85
85
51
34
51
68
85
85
85
85
85
187
119
85
51
51
51
0
0
0
119
68
68
68
85
85
51
119
68
0
0
0
51
51
51
153
153
136
153
153
136
85
85
85
153
153
136
119
119
119
85
85
85
51
51
51
85
85
85
119
119
119
119
119
119
119
119
119
51
51
51
119
119
119
85
85
85
51
51
51
0
0
0
0
0
0
0
0
0
0
0
0
0
0
0
0
0
0
0
0
0
0
0
0
0
0
0
0
0
0
0
0
0
0
0
0
0
0
0
0
0
0
0
0
0
0
0
0
0
0
0
0
0
0
0
0
0
0
0
0
0
0
0
0
0
0
0
0
0
0
0
0
0
0
0
0
0
0
0
0
0
0
0
0
0
0
0
0
0
0
0
0
0
0
0
0
0
0
0
0
0
0
0
0
0
0
0
0
0
0
0
0
0
0
0
0
0
0
0
0
0
0
0
0
0
0
0
0
0
0
0
0
0
0
0
0
0
0
0
0
0
0
0
0
0
0
0
0
0
0
0
0
0
0
0
0
0
0
0
0
0
0
0
0
0
0
0
0
0
0
0
0
0
0
0
0
0
0
0
0
0
0
0
0
0
0
0
0
0
0
0
0
0
0
0
0
0
0
0
0
0
0
0
0
0
0
0
0
0
0
0
0
0
0
0
0
0
0
0
0
0
0
0
0
0
0
0
0
0
0
0
0
0
0
0
0
0
0
0
0
0
0
0
0
0
0
51
51
51
238
204
153
255
255
255
238
204
153
238
204
153
238
204
153
255
255
255
255
255
255
238
153
102
238
153
102
187
119
85
51
51
51
0
0
0
0
0
0
0
0
0
0
0
0
0
0
0
51
51
51
51
68
119
51
68
119
51
68
119
51
68
119
34
204
221
51
119
170
51
68
119
51
51
51
0
0
0
0
0
0
0
0
0
0
0
0
0
0
0
0
0
0
0
0
0
0
0
0
0
0
0
51
51
51
119
34
34
187
119
85
238
153
102
119
34
34
51
51
51
0
0
0
0
0
0
0
0
0
0
0
0
0
0
0
0
0
0
0
0
0
51
51
51
187
221
68
221
238
238
119
170
51
51
119
68
153
85
85
187
221
68
119
170
51
68
85
85
51
51
51
51
51
51
0
0
0
0
0
0
0
0
0
0
0
0
0
0
0
51
51
51
153
153
136
153
153
136
85
85
85
255
255
255
255
255
255
255
255
255
255
255
255
221
238
238
221
238
238
204
204
187
51
51
51
0
0
0
0
0
0
0
0
0
0
0
0
51
51
51
119
119
119
0
0
0
0
0
0
153
153
136
51
51
51
119
68
68
102
51
68
51
51
51
0
0
0
0
0
0
0
0
0
0
0
0
0
0
0
0
0
0
0
0
0
0
0
0
51
51
51
187
119
85
119
68
68
238
204
153
238
153
102
51
34
51
102
51
68
238
153
102
153
85
85
51
51
51
0
0
0
0
0
0
0
0
0
0
0
0
0
0
0
0
0
0
0
0
0
51
51
51
153
85
85
119
68
68
153
85
85
119
68
68
51
51
51
0
0
0
0
0
0
0
0
0
0
0
0
0
0
0
0
0
0
0
0
0
0
0
0
0
0
0
51
51
51
255
68
85
255
68
85
255
68
85
255
68
85
255
68
85
170
17
17
170
17
17
51
51
51
0
0
0
0
0
0
0
0
0
0
0
0
0
0
0
0
0
0
51
51
51
238
204
153
187
119
85
238
204
153
187
119
85
238
204
153
119
68
68
119
68
68
119
68
68
119
68
68
102
51
68
51
51
51
0
0
0
0
0
0
0
0
0
0
0
0
51
51
51
51
34
51
85
85
85
85
85
85
85
85
85
85
85
85
85
85
85
85
85
85
85
85
85
51
34
51
51
51
51
0
0
0
0
0
0
0
0
0
0
0
0
51
68
119
51
51
51
119
68
68
153
85
85
153
85
85
187
119
85
238
153
102
119
68
68
102
51
68
153
85
85
51
51
51
0
0
0
0
0
0
0
0
0
0
0
0
0
0
0
51
51
51
153
85
85
119
68
68
153
85
85
51
34
51
102
51
68
153
85
85
102
51
68
187
119
85
153
85
85
119
68
68
119
68
68
102
51
68
51
51
51
0
0
0
0
0
0
0
0
0
0
0
0
51
119
68
51
119
68
51
119
68
68
85
85
51
51
51
238
153
102
51
119
68
119
68
68
51
51
51
0
0
0
0
0
0
0
0
0
0
0
0
51
51
51
153
153
136
119
119
119
119
119
119
119
119
119
119
119
119
85
85
85
51
51
51
68
85
85
68
85
85
68
85
85
51
119
68
51
119
68
51
119
68
51
119
68
51
119
68
0
0
0
0
0
0
0
0
0
0
0
0
0
0
0
0
0
0
0
0
0
0
0
0
0
0
0
0
0
0
0
0
0
0
0
0
0
0
0
0
0
0
0
0
0
0
0
0
0
0
0
0
0
0
0
0
0
0
0
0
0
0
0
0
0
0
0
0
0
0
0
0
0
0
0
0
0
0
0
0
0
0
0
0
0
0
0
0
0
0
0
0
0
0
0
0
0
0
0
0
0
0
0
0
0
0
0
0
0
0
0
0
0
0
0
0
0
0
0
0
0
0
0
0
0
0
0
0
0
0
0
0
0
0
0
0
0
0
0
0
0
0
0
0
0
0
0
0
0
0
0
0
0
0
0
0
0
0
0
0
0
0
0
0
0
0
0
0
0
0
0
0
0
0
0
0
0
0
0
0
0
0
0
0
0
0
0
0
0
0
0
0
0
0
0
0
0
0
0
0
0
0
0
0
0
0
0
0
0
0
0
0
0
0
0
0
0
0
0
0
0
0
0
0
0
0
0
0
0
0
0
0
0
0
0
0
0
0
0
0
0
0
0
0
0
0
51
51
51
238
204
68
238
204
68
255
255
255
255
255
255
255
255
255
238
153
102
238
153
102
187
119
85
51
51
51
51
51
51
0
0
0
0
0
0
0
0
0
0
0
0
0
0
0
0
0
0
0
0
0
51
51
51
34
204
221
51
119
170
51
68
119
51
119
170
51
119
170
51
68
119
51
51
51
0
0
0
0
0
0
0
0
0
0
0
0
0
0
0
0
0
0
0
0
0
0
0
0
0
0
0
51
51
51
238
204
68
119
34
34
119
34
34
51
51
51
0
0
0
0
0
0
0
0
0
0
0
0
0
0
0
0
0
0
0
0
0
0
0
0
51
51
51
238
204
153
119
170
51
187
221
68
187
221
68
119
170
51
153
85
85
51
51
51
51
51
51
0
0
0
0
0
0
0
0
0
0
0
0
0
0
0
0
0
0
0
0
0
0
0
0
51
51
51
51
51
51
221
238
238
255
255
255
204
204
187
153
153
136
153
153
136
119
119
119
204
204
187
51
51
51
0
0
0
0
0
0
0
0
0
0
0
0
0
0
0
51
51
51
119
119
119
153
153
136
153
153
136
119
68
68
102
51
68
102
51
68
51
51
51
0
0
0
0
0
0
0
0
0
0
0
0
0
0
0
0
0
0
0
0
0
0
0
0
0
0
0
51
51
51
153
85
85
238
204
153
119
68
68
238
204
153
238
153
102
51
34
51
102
51
68
187
119
85
51
51
51
0
0
0
0
0
0
0
0
0
0
0
0
0
0
0
0
0
0
0
0
0
51
51
51
119
68
68
153
85
85
119
68
68
102
51
68
102
51
68
51
51
51
0
0
0
0
0
0
0
0
0
0
0
0
0
0
0
0
0
0
0
0
0
0
0
0
0
0
0
51
51
51
255
68
85
255
68
85
255
68
85
255
68
85
170
17
17
51
51
51
0
0
0
0
0
0
0
0
0
0
0
0
0
0
0
0
0
0
51
51
51
238
204
153
187
119
85
238
204
153
187
119
85
238
204
153
187
119
85
238
204
153
102
51
68
102
51
68
102
51
68
102
51
68
51
34
51
51
51
51
0
0
0
0
0
0
0
0
0
51
51
51
85
85
85
187
119
85
119
68
68
119
119
119
119
119
119
119
119
119
187
119
85
119
68
68
51
34
51
51
51
51
0
0
0
0
0
0
0
0
0
51
68
119
51
119
170
153
153
136
153
153
136
119
68
68
119
68
68
153
85
85
51
34
51
238
153
102
119
68
68
102
51
68
153
85
85
51
51
51
51
68
119
0
0
0
0
0
0
0
0
0
51
51
51
119
68
68
119
68
68
102
51
68
51
34
51
51
34
51
153
85
85
153
85
85
119
68
68
119
68
68
119
68
68
51
34
51
51
51
51
51
68
119
0
0
0
0
0
0
51
119
68
51
119
68
68
85
85
187
119
85
153
85
85
85
85
85
238
153
102
51
119
68
102
51
68
51
119
68
51
34
51
51
51
51
51
119
68
0
0
0
51
119
68
51
51
51
119
119
119
119
119
119
119
119
119
51
51
51
51
51
51
119
119
119
85
85
85
51
51
51
68
85
85
51
119
68
51
119
68
51
119
68
0
0
0
0
0
0
0
0
0
0
0
0
0
0
0
0
0
0
0
0
0
0
0
0
0
0
0
0
0
0
0
0
0
0
0
0
0
0
0
0
0
0
0
0
0
0
0
0
0
0
0
0
0
0
0
0
0
0
0
0
0
0
0
0
0
0
0
0
0
0
0
0
0
0
0
0
0
0
0
0
0
0
0
0
0
0
0
0
0
0
0
0
0
0
0
0
0
0
0
0
0
0
0
0
0
0
0
0
0
0
0
0
0
0
0
0
0
0
0
0
0
0
0
0
0
0
0
0
0
0
0
0
0
0
0
0
0
0
0
0
0
0
0
0
0
0
0
0
0
0
0
0
0
0
0
0
0
0
0
0
0
0
0
0
0
0
0
0
0
0
0
0
0
0
0
0
0
0
0
0
0
0
0
0
0
0
0
0
0
0
0
0
0
0
0
0
0
0
0
0
0
0
0
0
0
0
0
0
0
0
0
0
0
0
0
0
0
0
0
0
0
0
0
0
0
0
0
0
0
0
0
0
0
0
0
0
0
0
0
0
0
0
0
0
0
0
0
0
0
0
0
0
0
0
0
0
0
0
51
51
51
238
153
102
238
204
68
255
255
255
238
153
102
238
153
102
51
51
51
51
51
51
0
0
0
0
0
0
0
0
0
0
0
0
0
0
0
0
0
0
0
0
0
0
0
0
0
0
0
51
51
51
51
119
170
51
119
170
51
68
119
51
68
119
51
68
119
51
51
51
0
0
0
0
0
0
0
0
0
0
0
0
0
0
0
0
0
0
0
0
0
0
0
0
0
0
0
0
0
0
51
51
51
238
153
102
238
204
68
51
51
51
0
0
0
0
0
0
0
0
0
0
0
0
0
0
0
0
0
0
0
0
0
0
0
0
0
0
0
0
0
0
51
51
51
51
51
51
238
204
153
119
170
51
51
51
51
51
51
51
0
0
0
0
0
0
0
0
0
0
0
0
0
0
0
0
0
0
0
0
0
0
0
0
0
0
0
0
0
0
0
0
0
51
51
51
255
255
255
204
204
187
153
153
136
51
51
51
51
51
51
153
153
136
153
153
136
51
51
51
0
0
0
0
0
0
0
0
0
0
0
0
0
0
0
51
51
51
119
68
68
153
85
85
119
68
68
102
51
68
102
51
68
51
51
51
0
0
0
0
0
0
0
0
0
0
0
0
0
0
0
0
0
0
0
0
0
0
0
0
0
0
0
0
0
0
0
0
0
51
51
51
187
119
85
238
204
153
119
68
68
238
204
68
51
34
51
238
153
102
153
85
85
51
51
51
0
0
0
0
0
0
0
0
0
0
0
0
0
0
0
0
0
0
51
51
51
102
51
68
51
51
51
51
51
51
102
51
68
51
51
51
119
68
68
102
51
68
51
51
51
0
0
0
0
0
0
0
0
0
0
0
0
0
0
0
0
0
0
0
0
0
51
51
51
255
68
85
51
51
51
170
17
17
170
17
17
170
17
17
51
51
51
170
17
17
51
51
51
0
0
0
0
0
0
0
0
0
0
0
0
0
0
0
0
0
0
51
51
51
51
51
51
51
51
51
51
51
51
51
51
51
51
51
51
51
51
51
51
51
51
51
51
51
51
51
51
51
51
51
51
51
51
51
51
51
0
0
0
0
0
0
0
0
0
0
0
0
51
51
51
119
68
68
102
51
68
51
51
51
51
51
51
51
51
51
119
68
68
102
51
68
51
51
51
0
0
0
0
0
0
0
0
0
0
0
0
51
119
170
85
238
238
153
153
136
204
204
187
153
153
136
119
68
68
119
68
68
153
85
85
51
34
51
187
119
85
119
68
68
119
68
68
102
51
68
51
51
51
51
68
119
0
0
0
0
0
0
51
51
51
51
51
51
153
85
85
119
68
68
102
51
68
51
34
51
51
34
51
119
68
68
51
34
51
119
68
68
51
34
51
102
51
68
119
119
119
51
68
119
51
68
119
51
119
68
119
170
51
51
119
68
51
119
68
68
85
85
153
85
85
85
85
85
119
68
68
102
51
68
102
51
68
68
85
85
68
85
85
51
51
51
68
85
85
51
119
68
0
0
0
51
51
51
119
119
119
85
85
85
119
119
119
51
51
51
51
51
51
119
119
119
85
85
85
51
51
51
51
119
68
51
119
68
187
221
68
119
170
51
187
221
68
51
119
68
0
0
0
0
0
0
0
0
0
0
0
0
0
0
0
0
0
0
0
0
0
0
0
0
0
0
0
0
0
0
0
0
0
0
0
0
0
0
0
0
0
0
0
0
0
0
0
0
0
0
0
0
0
0
0
0
0
0
0
0
0
0
0
0
0
0
0
0
0
0
0
0
0
0
0
0
0
0
0
0
0
0
0
0
0
0
0
0
0
0
0
0
0
0
0
0
0
0
0
0
0
0
0
0
0
0
0
0
0
0
0
0
0
0
0
0
0
0
0
0
0
0
0
0
0
0
0
0
0
0
0
0
0
0
0
0
0
0
0
0
0
0
0
0
0
0
0
0
0
0
0
0
0
0
0
0
0
0
0
0
0
0
0
0
0
0
0
0
0
0
0
0
0
0
0
0
0
0
0
0
0
0
0
0
0
0
0
0
0
0
0
0
0
0
0
0
0
0
0
0
0
0
0
0
0
0
0
0
0
0
0
0
0
0
0
0
0
0
0
0
0
0
0
0
0
0
0
0
0
0
0
0
0
0
0
0
0
0
0
0
0
0
0
0
0
0
0
0
0
0
0
0
0
0
0
51
51
51
238
153
102
255
255
255
51
51
51
51
51
51
0
0
0
0
0
0
0
0
0
0
0
0
0
0
0
0
0
0
0
0
0
0
0
0
0
0
0
0
0
0
0
0
0
0
0
0
51
51
51
51
68
119
34
204
221
51
68
119
51
51
51
0
0
0
0
0
0
0
0
0
0
0
0
0
0
0
0
0
0
0
0
0
0
0
0
0
0
0
0
0
0
0
0
0
51
51
51
238
204
68
238
153
102
153
85
85
51
51
51
0
0
0
0
0
0
0
0
0
0
0
0
0
0
0
0
0
0
0
0
0
0
0
0
0
0
0
0
0
0
0
0
0
51
51
51
51
51
51
0
0
0
0
0
0
0
0
0
0
0
0
0
0
0
0
0
0
0
0
0
0
0
0
0
0
0
0
0
0
0
0
0
0
0
0
0
0
0
0
0
0
119
119
119
51
51
51
119
119
119
0
0
0
0
0
0
85
85
85
119
119
119
0
0
0
0
0
0
0
0
0
0
0
0
0
0
0
0
0
0
51
51
51
119
68
68
102
51
68
102
51
68
51
51
51
51
51
51
0
0
0
0
0
0
0
0
0
0
0
0
0
0
0
0
0
0
0
0
0
0
0
0
0
0
0
0
0
0
0
0
0
0
0
0
51
51
51
153
85
85
119
68
68
238
204
153
238
153
102
51
34
51
119
68
68
51
51
51
0
0
0
0
0
0
0
0
0
0
0
0
0
0
0
0
0
0
0
0
0
51
51
51
51
51
51
0
0
0
0
0
0
51
51
51
0
0
0
51
51
51
51
51
51
51
51
51
0
0
0
0
0
0
0
0
0
0
0
0
0
0
0
0
0
0
0
0
0
0
0
0
51
51
51
0
0
0
51
51
51
51
51
51
51
51
51
0
0
0
51
51
51
0
0
0
0
0
0
0
0
0
0
0
0
0
0
0
0
0
0
0
0
0
0
0
0
0
0
0
0
0
0
0
0
0
0
0
0
0
0
0
0
0
0
0
0
0
0
0
0
0
0
0
0
0
0
0
0
0
0
0
0
0
0
0
0
0
0
0
0
0
0
0
0
0
0
0
51
51
51
51
51
51
0
0
0
0
0
0
0
0
0
51
51
51
51
51
51
0
0
0
0
0
0
0
0
0
0
0
0
0
0
0
34
204
221
153
153
136
204
204
187
204
204
187
204
204
187
119
119
119
102
51
68
119
68
68
153
85
85
119
68
68
102
51
68
102
51
68
85
85
85
119
119
119
51
119
170
0
0
0
0
0
0
51
119
170
204
204
187
85
85
85
153
85
85
102
51
68
51
34
51
102
51
68
51
34
51
102
51
68
102
51
68
153
153
136
204
204
187
119
119
119
85
85
85
51
68
119
119
170
51
68
85
85
51
119
68
68
85
85
68
85
85
187
119
85
51
51
51
102
51
68
153
85
85
153
85
85
153
85
85
68
85
85
68
85
85
51
119
68
0
0
0
51
119
68
0
0
0
51
119
68
68
85
85
68
85
85
68
85
85
51
119
68
51
119
68
51
119
68
51
119
68
0
0
0
0
0
0
0
0
0
187
221
68
51
119
68
0
0
0
0
0
0
0
0
0
0
0
0
0
0
0
0
0
0
0
0
0
0
0
0
0
0
0
0
0
0
0
0
0
0
0
0
0
0
0
0
0
0
0
0
0
0
0
0
0
0
0
0
0
0
0
0
0
0
0
0
0
0
0
0
0
0
0
0
0
0
0
0
0
0
0
0
0
0
0
0
0
0
0
0
0
0
0
0
0
0
0
0
0
0
0
0
0
0
0
0
0
0
0
0
0
0
0
0
0
0
0
0
0
0
0
0
0
0
0
0
0
0
0
0
0
0
0
0
0
0
0
0
0
0
0
0
0
0
0
0
0
0
0
0
0
0
0
0
0
0
0
0
0
0
0
0
0
0
0
0
0
0
0
0
0
0
0
0
0
0
0
0
0
0
0
0
0
0
0
0
0
0
0
0
0
0
0
0
0
0
0
0
0
0
0
0
0
0
0
0
0
0
0
0
0
0
0
0
0
0
0
0
0
0
0
0
0
0
0
0
0
0
0
0
0
0
0
0
0
0
0
0
0
0
0
0
0
0
0
0
0
0
0
0
0
0
0
0
0
0
0
0
0
0
0
0
0
0
0
0
0
51
51
51
51
51
51
0
0
0
0
0
0
0
0
0
0
0
0
0
0
0
0
0
0
0
0
0
0
0
0
0
0
0
0
0
0
0
0
0
0
0
0
0
0
0
0
0
0
51
51
51
51
119
170
51
119
170
51
51
51
0
0
0
0
0
0
0
0
0
0
0
0
0
0
0
0
0
0
0
0
0
0
0
0
0
0
0
0
0
0
0
0
0
0
0
0
0
0
0
51
51
51
238
153
102
187
119
85
51
51
51
0
0
0
0
0
0
0
0
0
0
0
0
0
0
0
0
0
0
0
0
0
0
0
0
0
0
0
0
0
0
0
0
0
0
0
0
0
0
0
0
0
0
0
0
0
0
0
0
0
0
0
0
0
0
0
0
0
0
0
0
0
0
0
0
0
0
0
0
0
0
0
0
0
0
0
0
0
0
0
0
0
0
0
0
0
0
0
0
0
0
0
0
0
0
0
0
0
0
0
0
0
0
0
0
0
0
0
0
0
0
0
0
0
0
0
0
0
0
0
0
0
0
0
51
51
51
51
51
51
51
51
51
0
0
0
0
0
0
0
0
0
0
0
0
0
0
0
0
0
0
0
0
0
0
0
0
0
0
0
0
0
0
0
0
0
0
0
0
0
0
0
0
0
0
0
0
0
51
51
51
153
85
85
153
85
85
51
51
51
51
51
51
51
51
51
0
0
0
0
0
0
0
0
0
0
0
0
0
0
0
0
0
0
0
0
0
0
0
0
0
0
0
0
0
0
0
0
0
0
0
0
0
0
0
0
0
0
0
0
0
0
0
0
0
0
0
0
0
0
0
0
0
0
0
0
0
0
0
0
0
0
0
0
0
0
0
0
0
0
0
0
0
0
0
0
0
0
0
0
0
0
0
0
0
0
0
0
0
0
0
0
0
0
0
0
0
0
0
0
0
0
0
0
0
0
0
0
0
0
0
0
0
0
0
0
0
0
0
0
0
0
0
0
0
0
0
0
0
0
0
0
0
0
0
0
0
0
0
0
0
0
0
0
0
0
0
0
0
0
0
0
0
0
0
0
0
0
0
0
0
0
0
0
0
0
0
0
0
0
0
0
0
0
0
0
0
0
0
0
0
0
0
0
0
0
0
0
0
0
0
0
0
0
0
0
0
0
0
0
0
0
0
51
119
170
85
238
238
34
204
221
153
153
136
153
153
136
153
153
136
85
85
85
102
51
68
85
85
85
85
85
85
119
119
119
153
153
136
119
119
119
119
119
119
85
238
238
0
0
0
85
238
238
204
204
187
153
153
136
119
119
119
85
85
85
51
51
51
51
51
51
51
51
51
51
51
51
51
51
51
153
153
136
204
204
187
119
119
119
85
85
85
85
85
85
85
238
238
51
119
68
51
119
68
68
85
85
68
85
85
51
51
51
187
119
85
51
51
51
119
68
68
119
68
68
51
51
51
119
68
68
102
51
68
51
51
51
68
85
85
51
119
68
0
0
0
51
119
68
0
0
0
51
119
68
68
85
85
0
0
0
0
0
0
0
0
0
0
0
0
0
0
0
0
0
0
51
119
68
0
0
0
0
0
0
0
0
0
0
0
0
51
119
68
0
0
0
0
0
0
0
0
0
0
0
0
0
0
0
0
0
0
0
0
0
0
0
0
0
0
0
0
0
0
0
0
0
0
0
0
0
0
0
0
0
0
0
0
0
0
0
0
0
0
0
0
0
0
0
0
0
0
0
0
0
0
0
0
0
0
0
0
0
0
0
0
0
0
0
0
0
0
0
0
0
0
0
0
0
0
0
0
0
0
0
0
0
0
0
0
0
0
0
0
0
0
0
0
0
0
0
0
0
0
0
0
0
0
0
0
0
0
0
0
0
0
0
0
0
0
0
0
0
0
0
0
0
0
0
0
0
0
0
0
0
0
0
0
0
0
0
0
0
0
0
0
0
0
0
0
0
0
0
0
0
0
0
0
0
0
0
0
0
0
0
0
0
0
0
0
0
0
0
0
0
0
0
0
0
0
0
0
0
0
0
0
0
0
0
0
0
0
0
0
0
0
0
0
0
0
0
0
0
0
0
0
0
0
0
0
0
0
0
0
0
0
0
0
0
0
0
0
0
0
0
0
0
0
0
0
0
0
0
0
0
0
0
0
0
0
0
0
0
0
0
0
0
0
0
0
0
0
0
0
0
0
0
0
0
0
0
0
0
0
0
0
0
0
0
0
0
0
0
0
0
0
0
0
0
0
0
0
0
0
0
0
0
0
0
0
0
0
0
0
0
0
0
0
0
0
51
51
51
51
51
51
0
0
0
0
0
0
0
0
0
0
0
0
0
0
0
0
0
0
0
0
0
0
0
0
0
0
0
0
0
0
0
0
0
0
0
0
0
0
0
0
0
0
0
0
0
51
51
51
51
51
51
0
0
0
0
0
0
0
0
0
0
0
0
0
0
0
0
0
0
0
0
0
0
0
0
0
0
0
0
0
0
0
0
0
0
0
0
0
0
0
0
0
0
0
0
0
0
0
0
0
0
0
0
0
0
0
0
0
0
0
0
0
0
0
0
0
0
0
0
0
0
0
0
0
0
0
0
0
0
0
0
0
0
0
0
0
0
0
0
0
0
0
0
0
0
0
0
0
0
0
0
0
0
0
0
0
0
0
0
0
0
0
0
0
0
0
0
0
0
0
0
0
0
0
0
0
0
0
0
0
0
0
0
0
0
0
0
0
0
0
0
0
0
0
0
0
0
0
0
0
0
0
0
0
0
0
0
0
0
0
0
0
0
0
0
0
0
0
0
0
0
0
0
0
0
0
0
0
0
0
0
0
0
0
51
51
51
51
51
51
0
0
0
0
0
0
0
0
0
0
0
0
0
0
0
0
0
0
0
0
0
0
0
0
0
0
0
0
0
0
0
0
0
0
0
0
0
0
0
0
0
0
0
0
0
0
0
0
0
0
0
0
0
0
0
0
0
0
0
0
0
0
0
0
0
0
0
0
0
0
0
0
0
0
0
0
0
0
0
0
0
0
0
0
0
0
0
0
0
0
0
0
0
0
0
0
0
0
0
0
0
0
0
0
0
0
0
0
0
0
0
0
0
0
0
0
0
0
0
0
0
0
0
0
0
0
0
0
0
0
0
0
0
0
0
0
0
0
0
0
0
0
0
0
0
0
0
0
0
0
0
0
0
0
0
0
0
0
0
0
0
0
0
0
0
0
0
0
0
0
0
0
0
0
0
0
0
0
0
0
0
0
0
0
0
0
0
0
0
0
0
0
0
0
0
0
0
0
0
0
0
0
0
0
0
0
0
0
0
0
0
0
0
0
0
0
51
68
119
51
119
170
85
238
238
85
238
238
34
204
221
119
119
119
119
119
119
34
204
221
153
153
136
204
204
187
204
204
187
153
153
136
34
204
221
85
238
238
51
119
170
51
68
119
0
0
0
34
204
221
119
119
119
85
85
85
85
85
85
85
238
238
51
119
170
51
68
119
51
68
119
85
238
238
153
153
136
119
119
119
85
85
85
34
204
221
255
255
255
0
0
0
0
0
0
68
85
85
51
51
51
51
51
51
187
119
85
187
119
85
51
51
51
119
68
68
153
85
85
51
51
51
153
85
85
51
34
51
51
51
51
0
0
0
187
221
68
0
0
0
0
0
0
51
119
68
68
85
85
0
0
0
51
119
68
0
0
0
51
119
68
0
0
0
51
119
68
0
0
0
68
85
85
51
119
68
0
0
0
0
0
0
51
119
68
0
0
0
0
0
0
0
0
0
0
0
0
0
0
0
0
0
0
0
0
0
0
0
0
0
0
0
0
0
0
0
0
0
0
0
0
0
0
0
0
0
0
0
0
0
0
0
0
0
0
0
0
0
0
0
0
0
0
0
0
0
0
0
0
0
0
0
0
0
0
0
0
0
0
0
0
0
0
0
0
0
0
0
0
0
0
0
0
0
0
0
0
0
0
0
0
0
0
0
0
0
0
0
0
0
0
0
0
0
0
0
0
0
0
0
0
0
0
0
0
0
0
0
0
0
0
0
0
0
0
0
0
0
0
0
0
0
0
0
0
0
0
0
0
0
0
0
0
0
0
0
0
0
0
0
0
0
0
0
0
0
0
0
0
0
0
0
0
0
0
0
0
0
0
0
0
0
0
0
0
0
0
0
0
0
0
0
0
0
0
0
0
0
0
0
0
0
0
0
0
0
0
0
0
0
0
0
0
0
0
0
0
0
0
0
0
0
0
0
0
0
0
0
0
0
0
0
0
0
0
0
0
0
0
0
0
0
0
0
0
0
0
0
0
0
0
0
0
0
0
0
0
0
0
0
0
0
0
0
0
0
0
0
0
0
0
0
0
0
0
0
0
0
0
0
0
0
0
0
0
0
0
0
0
0
0
0
0
0
0
0
0
0
0
0
0
0
0
0
0
0
0
0
0
0
0
0
0
0
0
0
0
0
0
0
0
0
0
0
0
0
0
0
0
0
0
0
0
0
0
0
0
0
0
0
0
0
0
0
0
0
0
0
0
0
0
0
0
0
0
0
0
0
0
0
0
0
0
0
0
0
0
0
0
0
0
0
0
0
0
0
0
0
0
0
0
0
0
0
0
0
0
0
0
0
0
0
0
0
0
0
0
0
0
0
0
0
0
0
0
0
0
0
0
0
0
0
0
0
0
0
0
0
0
0
0
0
0
0
0
0
0
0
0
0
0
0
0
0
0
0
0
0
0
0
0
0
0
0
0
0
0
0
0
0
0
0
0
0
0
0
0
0
0
0
0
0
0
0
0
0
0
0
0
0
0
0
0
0
0
0
0
0
0
0
0
0
0
0
0
0
0
0
0
0
0
0
0
0
0
0
0
0
0
0
0
0
0
0
0
0
0
0
0
0
0
0
0
0
0
0
0
0
0
0
0
0
0
0
0
0
0
0
0
0
0
0
0
0
0
0
0
0
0
0
0
0
0
0
0
0
0
0
0
0
0
0
0
0
0
0
0
0
0
0
0
0
0
0
0
0
0
0
0
0
0
0
0
0
0
0
0
0
0
0
0
0
0
0
0
0
0
0
0
0
0
0
0
0
0
0
0
0
0
0
0
0
0
0
0
0
0
0
0
0
0
0
0
0
0
0
0
0
0
0
0
0
0
0
0
0
0
0
0
0
0
0
0
0
0
0
0
0
0
0
0
0
0
0
0
0
0
0
0
0
0
0
0
0
0
0
0
0
0
0
0
0
0
0
0
0
0
0
0
0
0
0
0
0
0
0
0
0
0
0
0
0
0
0
0
0
0
0
0
0
0
0
0
0
0
0
0
0
0
0
0
0
0
0
0
0
0
0
0
0
0
0
0
0
0
0
0
0
0
0
0
0
0
0
0
0
0
0
0
0
0
0
0
0
0
0
0
0
0
0
0
0
0
0
0
0
0
0
0
0
0
0
0
0
0
0
0
0
0
0
0
0
0
0
0
0
0
0
0
0
0
0
0
0
0
0
0
0
0
0
0
0
51
119
170
51
119
170
51
119
170
85
238
238
85
238
238
51
119
170
85
238
238
85
238
238
34
204
221
34
204
221
51
119
170
51
68
119
51
68
119
0
0
0
51
119
170
0
0
0
85
238
238
85
238
238
34
204
221
51
119
170
0
0
0
0
0
0
34
204
221
0
0
0
255
255
255
255
255
255
85
238
238
51
68
119
0
0
0
85
238
238
0
0
0
0
0
0
102
51
68
0
0
0
0
0
0
153
85
85
187
119
85
187
119
85
187
119
85
187
119
85
51
119
68
0
0
0
0
0
0
187
221
68
51
119
68
0
0
0
0
0
0
0
0
0
0
0
0
0
0
0
0
0
0
51
119
68
0
0
0
0
0
0
0
0
0
51
119
68
0
0
0
0
0
0
0
0
0
0
0
0
0
0
0
0
0
0
0
0
0
0
0
0
0
0
0
0
0
0
0
0
0
0
0
0
0
0
0
0
0
0
0
0
0
0
0
0
0
0
0
0
0
0
0
0
0
0
0
0
0
0
0
0
0
0
0
0
0
0
0
0
0
0
0
0
0
0
0
0
0
0
0
0
0
0
0
0
0
0
0
0
0
0
0
0
0
0
0
0
0
0
0
0
0
0
0
0
0
0
0
0
0
0
0
0
0
0
0
0
0
0
0
0
0
0
0
0
0
0
0
0
0
0
0
0
0
0
0
0
0
0
0
0
0
0
0
0
0
0
0
0
0
0
0
0
0
0
0
0
0
0
0
0
0
0
0
0
0
0
0
0
0
0
0
0
0
0
0
0
0
0
0
0
0
0
0
0
0
0
0
0
0
0
0
0
0
0
0
0
0
0
0
0
0
0
0
0
0
0
0
0
0
0
0
0
0
0
0
0
0
0
0
0
0
0
0
0
0
0
0
0
0
0
0
0
0
0
0
0
0
0
0
0
0
0
0
0
0
0
0
0
0
0
0
0
0
0
0
0
0
0
0
0
0
0
0
0
0
0
0
0
0
0
0
0
0
0
0
0
0
0
0
0
0
0
0
0
0
0
0
0
0
0
0
0
0
0
0
0
0
0
0
0
0
0
0
0
0
0
0
0
0
0
0
0
0
0
0
0
0
0
0
0
0
0
0
0
0
0
0
0
0
0
0
0
0
0
0
0
0
0
0
0
0
0
0
0
0
0
0
0
0
0
0
0
0
0
0
0
0
0
0
0
0
0
0
0
0
0
0
0
0
0
0
0
0
0
0
0
0
0
0
0
0
0
0
0
0
0
0
0
0
0
0
0
0
0
0
0
0
0
0
0
0
0
0
0
0
0
0
0
0
0
0
0
0
0
0
0
0
0
0
0
0
0
0
0
0
0
0
0
0
0
0
0
0
0
0
0
0
0
0
0
0
0
0
0
0
0
0
0
0
0
0
0
0
0
0
0
0
0
0
0
0
0
0
0
0
0
0
0
0
0
0
0
0
0
0
0
0
0
0
0
0
0
0
0
0
0
0
0
0
0
0
0
0
0
0
0
0
0
0
0
0
0
0
0
0
0
0
0
0
0
0
0
0
0
0
0
0
0
0
0
0
0
0
0
0
0
0
0
0
0
0
0
0
0
0
0
0
0
0
0
0
0
0
0
0
0
0
0
0
0
0
0
0
0
0
0
0
0
0
0
0
0
0
0
0
0
0
0
0
0
0
0
0
0
0
0
0
0
0
0
0
0
0
0
0
0
0
0
0
0
0
0
0
0
0
0
0
0
0
0
0
0
0
0
0
0
0
0
0
0
0
0
0
0
0
0
0
0
0
0
0
0
0
0
0
0
0
0
0
0
0
0
0
0
0
0
0
0
0
0
0
0
0
0
0
0
0
0
0
0
0
0
0
0
0
0
0
0
0
0
0
0
0
0
0
0
0
0
0
0
0
0
0
0
0
0
0
0
0
0
0
0
0
0
0
0
0
0
0
0
0
0
0
0
0
0
0
0
0
0
0
0
0
0
0
0
0
0
0
0
0
0
0
0
0
0
0
0
0
0
0
0
0
0
0
0
0
0
0
0
0
0
0
0
0
0
0
0
0
0
0
0
0
0
0
0
0
0
0
0
0
0
0
0
0
0
0
0
0
0
0
0
0
0
0
0
0
0
0
0
0
0
0
0
0
0
0
0
0
0
0
0
0
0
0
51
119
170
51
68
119
51
68
119
0
0
0
0
0
0
51
119
170
51
119
170
51
68
119
51
119
170
51
119
170
0
0
0
0
0
0
0
0
0
51
119
170
51
119
170
0
0
0
51
119
170
51
68
119
0
0
0
51
119
170
0
0
0
0
0
0
0
0
0
0
0
0
51
119
170
85
238
238
0
0
0
0
0
0
85
238
238
51
119
170
0
0
0
0
0
0
0
0
0
119
68
68
51
119
68
51
119
68
0
0
0
153
85
85
153
85
85
51
119
68
51
119
68
0
0
0
0
0
0
0
0
0
0
0
0
0
0
0
0
0
0
0
0
0
0
0
0
0
0
0
0
0
0
0
0
0
0
0
0
0
0
0
0
0
0
0
0
0
0
0
0
0
0
0
0
0
0
0
0
0
0
0
0
0
0
0
0
0
0
0
0
0
0
0
0
0
0
0
0
0
0
0
0
0
0
0
0
0
0
0
0
0
0
0
0
0
0
0
0
0
0
0
0
0
0
0
0
0
0
0
0
0
0
0
0
0
0
0
0
0
0
0
0
0
0
0
0
0
0
0
0
0
0
0
0
0
0
0
0
0
0
0
0
0
0
0
0
0
0
0
0
0
0
0
0
0
0
0
0
0
0
0
0
0
0
0
0
0
0
0
0
0
0
0
0
0
0
0
0
0
0
0
0
0
0
0
0
0
0
0
0
0
0
0
0
0
0
0
0
0
0
0
0
0
0
0
0
0
0
0
0
0
0
0
0
0
0
0
0
0
0
0
0
0
0
0
0
0
0
0
0
0
0
0
0
0
0
0
0
0
0
0
0
0
0
0
0
0
0
0
0
0
0
0
0
0
0
0
0
0
0
0
0
0
0
0
0
0
0
0
0
0
0
0
0
0
0
0
0
0
0
0
0
0
0
0
0
0
0
0
0
0
0
0
0
0
0
0
0
0
0
0
0
0
0
0
0
0
0
0
0
0
0
0
0
0
0
0
0
0
0
0
0
0
0
0
0
0
0
0
0
0
0
0
0
0
0
0
0
0
0
0
0
0
0
0
0
0
0
0
0
0
0
0
0
0
0
0
0
0
0
0
0
0
0
0
0
0
0
0
0
0
0
0
0
0
0
0
0
0
0
0
0
0
0
0
0
0
0
0
0
0
0
0
0
0
0
0
0
0
0
0
0
0
0
0
0
0
0
0
0
0
0
0
0
0
0
0
0
0
0
0
0
0
0
0
0
0
0
0
0
0
0
0
0
0
0
0
0
0
0
0
0
0
0
0
0
0
0
0
0
0
0
0
0
0
0
0
0
0
0
0
0
0
0
0
0
0
0
0
0
0
0
0
0
0
0
0
0
0
0
0
0
0
0
0
0
0
0
0
0
0
0
0
0
0
0
0
0
0
0
0
0
0
0
0
0
0
0
0
0
0
0
0
0
0
0
0
0
0
0
0
0
0
0
0
0
0
0
0
0
0
0
0
0
0
0
0
0
0
0
0
0
0
0
0
0
0
0
0
0
0
0
0
0
0
0
0
0
0
0
0
0
0
0
0
0
0
0
0
0
0
0
0
0
0
0
0
0
0
0
0
0
0
0
0
0
0
0
0
0
0
0
0
0
0
0
0
0
0
0
0
0
0
0
0
0
0
0
0
0
0
0
0
0
0
0
0
0
0
0
0
0
0
0
0
0
0
0
0
0
0
0
0
0
0
0
0
0
0
0
0
0
0
0
0
0
0
0
0
0
0
0
0
0
0
0
0
0
0
0
0
0
0
0
0
0
0
0
0
0
0
0
0
0
0
0
0
0
0
0
0
0
0
0
0
0
0
0
0
0
0
0
0
0
0
0
0
0
0
0
0
0
0
0
0
0
0
0
0
0
0
0
0
0
0
0
0
0
0
0
0
0
0
0
0
0
0
0
0
0
0
0
0
0
0
0
0
0
0
0
0
0
0
0
0
0
0
0
0
0
0
0
0
0
0
0
0
0
0
0
0
0
0
0
0
0
0
0
0
0
0
0
0
0
0
0
0
0
0
0
0
0
0
0
0
0
0
0
0
0
0
0
0
0
0
0
0
0
0
0
0
0
0
0
0
0
0
0
0
0
0
0
0
0
0
0
0
0
0
0
0
0
0
0
0
0
0
0
0
0
0
0
0
0
0
0
0
0
0
0
0
0
0
0
0
0
0
0
0
0
0
0
0
0
0
0
0
0
0
0
0
0
0
0
0
0
0
0
0
0
0
0
0
0
0
0
0
0
0
0
0
0
0
0
0
0
0
0
0
0
0
0
0
0
0
0
0
0
0
0
0
0
0
0
0
0
0
0
0
0
0
0
0
0
0
0
0
0
0
0
0
0
0
0
0
0
0
0
0
0
0
0
0
0
0
0
0
0
0
0
0
0
0
0
0
0
0
0
0
0
0
0
0
0
0
0
0
0
0
0
0
0
0
0
0
0
0
0
0
0
0
0
0
0
0
0
0
0
0
0
0
0
0
0
0
0
0
0
0
0
0
0
0
0
0
0
0
0
0
0
0
0
0
0
0
0
0
0
0
0
0
0
0
0
0
0
0
0
0
0
0
0
0
0
0
0
0
0
0
0
0
0
0
0
0
0
0
0
0
0
0
0
0
0
0
0
0
0
0
0
0
0
0
0
0
0
0
0
0
0
0
0
0
0
0
0
0
0
0
0
0
0
0
0
0
0
0
0
0
0
0
0
0
0
0
0
0
0
0
0
0
0
0
0
0
0
0
0
0
0
0
0
0
0
0
0
0
0
0
0
0
0
0
0
0
0
0
0
0
0
0
0
0
0
0
0
0
0
0
0
0
0
0
0
0
0
0
0
0
0
0
0
0
0
0
0
0
0
0
0
0
0
0
0
0
0
0
0
0
0
0
0
0
0
0
0
0
0
0
0
0
0
0
0
0
0
0
0
0
0
0
0
0
0
0
0
0
0
0
0
0
0
0
0
0
0
0
0
0
0
0
0
0
0
0
0
0
0
0
0
0
0
0
0
0
0
0
0
0
0
0
0
0
0
0
0
0
0
0
0
0
0
0
0
0
0
0
0
0
0
0
0
0
0
0
0
0
0
0
0
0
0
0
0
0
0
0
0
0
0
0
0
0
0
0
0
0
0
0
0
0
0
0
0
0
0
0
0
0
0
0
0
0
0
0
0
0
0
0
0
0
0
0
0
0
0
0
0
0
0
0
0
0
0
0
0
0
0
0
0
0
0
0
0
0
0
0
0
0
0
0
0
0
0
0
0
0
0
0
0
0
0
0
0
0
0
0
0
0
0
0
0
0
0
0
0
0
0
0
0
0
0
0
0
0
0
0
0
0
0
0
0
0
0
0
0
0
0
0
0
0
0
0
0
0
0
0
0
0
0
0
0
0
0
0
0
0
0
0
0
0
0
0
0
0
0
0
0
0
0
0
0
0
0
0
0
0
0
0
0
0
0
0
0
0
0
0
0
0
0
0
0
0
0
0
0
0
0
0
0
0
0
0
0
0
0
0
0
0
0
0
0
0
0
0
0
0
0
0
0
0
0
0
0
0
0
0
0
0
0
0
0
0
0
0
0
0
0
0
0
0
0
0
0
0
0
0
0
0
0
0
0
0
0
0
0
0
0
0
0
0
0
0
0
0
0
0
0
0
0
0
0
0
0
0
0
0
0
0
0
0
0
0
0
0
0
0
0
0
0
0
0
0
0
0
0
0
0
0
0
0
0
0
0
0
0
0
0
0
0
0
0
0
0
0
0
0
0
0
0
0
0
0
0
0
0
0
0
0
0
0
0
0
0
0
0
0
0
0
0
0
0
0
0
0
0
0
0
0
0
0
0
0
0
0
0
0
0
0
0
0
0
0
0
0
0
0
0
0
0
0
0
0
0
0
0
0
0
0
0
0
0
0
0
0
0
0
0
0
0
0
0
0
0
0
0
0
0
0
0
0
0
0
0
0
0
0
0
0
0
0
0
0
0
0
0
0
0
0
0
0
0
0
0
0
0
0
0
0
0
0
0
0
0
0
0
0
0
0
0
0
0
0
0
0
0
0
0
0
0
0
0
0
0
0
0
0
0
0
0
0
0
0
0
0
0
0
0
0
0
0
0
0
0
0
0
0
0
0
0
0
0
0
0
0
0
0
0
0
0
0
0
0
0
0
0
0
0
0
0
0
0
0
0
0
0
0
0
0
0
0
0
0
0
0
0
0
0
0
0
0
0
0
0
0
0
0
0
0
0
0
0
0
0
0
0
0
0
0
0
0
0
0
0
0
0
0
0
0
0
0
0
0
0
0
0
0
0
0
0
0
0
0
0
0
0
0
0
0
0
0
0
0
0
0
0
0
0
0
0
0
0
0
0
0
0
0
0
0
0
0
0
0
0
0
0
0
0
0
0
0
0
0
0
0
0
0
0
0
0
0
0
0
0
0
0
0
0
0
0
0
0
0
0
0
0
0
0
0
0
0
0
0
0
0
0
0
0
0
0
0
0
0
0
0
0
0
0
0
0
0
0
0
0
0
0
0
0
0
0
0
0
0
0
0
0
0
0
0
0
0
0
0
0
0
0
0
0
0
0
0
0
0
0
0
0
0
0
0
0
0
0
0
0
0
0
0
0
0
0
0
0
0
0
0
0
0
0
0
0
0
0
0
0
0
0
0
0
0
0
0
0
0
0
0
0
0
0
0
0
0
0
0
0
0
0
0
0
0
0
0
0
0
0
0
0
0
0
0
0
0
0
0
0
0
0
0
0
0
0
0
0
0
0
0
0
0
0
0
0
0
0
0
0
0
0
0
0
0
0
0
0
0
0
0
0
0
0
0
0
0
0
0
0
0
0
0
0
0
0
0
0
0
0
0
0
0
0
0
0
0
0
0
0
0
0
0
0
0
0
0
0
0
0
0
0
0
0
0
0
0
0
0
0
0
0
0
0
0
0
0
0
0
0
0
0
0
0
0
0
0
0
0
0
0
0
0
0
0
0
0
0
0
0
0
0
0
0
0
0
0
0
0
0
0
0
0
0
0
0
0
0
0
0
0
0
0
0
0
0
0
0
0
0
0
0
0
0
0
0
0
0
0
0
0
0
0
0
0
0
0
0
0
0
0
0
0
0
0
0
0
0
0
0
0
0
0
0
0
0
0
0
0
0
0
0
0
0
0
0
0
0
0
0
0
0
0
0
0
0
0
0
0
0
0
0
0
0
0
0
0
0
0
0
0
0
0
0
0
0
0
0
0
0
0
0
0
0
0
0
0
0
0
0
0
0
0
0
0
0
0
0
0
0
0
0
0
0
0
0
0
0
0
0
0
0
0
0
0
0
0
0
0
0
0
0
0
0
0
0
0
0
0
0
0
0
0
0
0
0
0
0
0
0
0
0
0
0
0
0
0
0
0
0
0
0
0
0
0
0
0
0
0
0
0
0
0
0
0
0
0
0
0
0
0
0
0
0
0
0
0
0
0
0
0
0
0
0
0
0
0
0
0
0
0
0
0
0
0
0
0
0
0
0
0
0
0
0
0
0
0
0
0
0
0
0
0
0
0
0
0
0
0
0
0
0
0
0
0
0
0
0
0
0
0
0
0
0
0
0
0
0
0
0
0
0
0
0
0
0
0
0
0
0
0
0
0
0
0
0
0
0
0
0
0
0
0
0
0
0
0
0
0
0
0
0
0
0
0
0
0
0
0
0
0
0
0
0
0
0
0
0
0
0
0
0
0
0
0
0
0
0
0
0
0
0
0
0
0
0
0
0
0
0
0
0
0
0
0
0
0
0
0
0
0
0
0
0
0
0
0
0
0
0
0
0
0
0
0
0
0
0
0
0
0
0
0
0
0
0
0
0
0
0
0
0
0
0
0
0
0
0
0
0
0
0
0
0
0
0
0
0
0
0
0
0
0
0
0
0
0
0
0
0
0
0
0
0
0
0
0
0
0
0
0
0
0
0
0
0
0
0
0
0
0
0
0
0
0
0
0
0
0
0
0
0
0
0
0
0
0
0
0
0
0
0
0
0
0
0
0
0
0
0
0
0
0
0
0
0
0
0
0
0
0
0
0
0
0
0
0
0
0
0
0
0
0
0
0
0
0
0
0
0
0
0
0
0
0
0
0
0
0
0
0
0
0
0
0
0
0
0
0
0
0
0
0
0
0
0
0
0
0
0
0
0
0
0
0
0
0
0
0
0
0
0
0
0
0
0
0
0
0
0
0
0
0
0
0
0
0
0
0
0
0
0
0
0
0
0
0
0
0
0
0
0
0
0
0
0
0
0
0
0
0
0
0
0
0
0
0
0
0
0
0
0
0
0
0
0
0
0
0
0
0
0
0
0
0
0
0
0
0
0
0
0
0
0
0
0
0
0
0
0
0
0
0
0
0
0
0
0
0
0
0
0
0
0
0
0
0
0
0
0
0
0
0
0
0
0
0
0
0
0
0
0
0
0
0
0
0
0
0
0
0
0
0
0
0
0
0
0
0
0
0
0
0
0
0
0
0
0
0
0
0
0
0
0
0
0
0
0
0
0
0
0
0
0
0
0
0
0
0
0
0
0
0
0
0
0
0
0
0
0
0
0
0
0
0
0
0
0
0
0
0
0
0
0
0
0
0
0
0
0
0
0
0
0
0
0
0
0
0
0
0
0
0
0
0
0
0
0
0
0
0
0
0
0
0
0
0
0
0
0
0
0
0
0
0
0
0
0
0
0
0
0
0
0
0
0
0
0
0
0
0
0
0
0
0
0
0
0
0
0
0
0
0
0
0
0
0
0
0
0
0
0
0
0
0
0
0
0
0
0
0
0
0
0
0
0
0
0
0
0
0
0
0
0
0
0
0
0
0
0
0
0
0
0
0
0
0
0
0
0
0
0
0
0
0
0
0
0
0
0
0
0
0
0
0
0
0
0
0
0
0
0
0
0
0
0
0
0
0
0
0
0
0
0
0
0
0
0
0
0
0
0
0
0
0
0
0
0
0
0
0
0
0
0
0
0
0
0
0
0
0
0
0
0
0
0
0
0
0
0
0
0
0
0
0
0
0
0
0
0
0
0
0
0
0
0
0
0
0
0
0
0
0
0
0
0
0
0
0
0
0
0
0
0
0
0
0
0
0
0
0
0
0
0
0
0
0
0
0
0
0
0
0
0
0
0
0
0
0
0
0
0
0
0
0
0
0
0
0
0
0
0
0
0
0
0
0
0
0
0
0
0
0
0
0
0
0
0
0
0
0
0
0
0
0
0
0
0
0
0
0
0
0
0
0
0
0
0
0
0
0
0
0
0
0
0
0
0
0
0
0
0
0
0
0
0
0
0
0
0
0
0
0
0
0
0
0
0
0
0
0
0
0
0
0
0
0
0
0
0
0
0
0
0
0
0
0
0
0
0
0
0
0
0
0
0
0
0
0
0
0
0
0
0
0
0
0
0
0
0
0
0
0
0
0
0
0
0
0
0
0
0
0
0
0
0
0
0
0
0
0
0
0
0
0
0
0
0
0
0
0
0
0
0
0
0
0
0
0
0
0
0
0
0
0
0
0
0
0
0
0
0
0
0
0
0
0
0
0
0
0
0
0
0
0
0
0
0
0
0
0
0
0
0
0
0
0
0
0
0
0
0
0
0
0
0
0
0
0
0
0
0
0
0
0
0
0
0
0
0
0
0
0
0
0
0
0
0
0
0
0
0
0
0
0
0
0
0
0
0
0
0
0
0
0
0
0
0
0
0
0
0
0
0
0
0
0
0
0
0
0
0
0
0
0
0
0
0
0
0
0
0
0
0
0
0
0
0
0
0
0
0
0
0
0
0
0
0
0
0
0
0
0
0
0
0
0
0
0
0
0
0
0
0
0
0
0
0
0
0
0
0
0
0
0
0
0
0
0
0
0
0
0
0
0
0
0
0
0
0
0
0
0
0
0
0
0
0
0
0
0
0
0
0
0
0
0
0
0
0
0
0
0
0
0
0
0
0
0
0
0
0
0
0
0
0
0
0
0
0
0
0
0
0
0
0
0
0
0
0
0
0
0
0
0
0
0
0
0
0
0
0
0
0
0
0
0
0
0
0
0
0
0
0
0
0
0
0
0
0
0
0
0
0
0
0
0
0
0
0
0
0
0
0
0
0
0
0
0
0
0
0
0
0
0
0
0
0
0
0
0
0
0
0
0
0
0
0
0
0
0
0
0
0
0
0
0
0
0
0
0
0
0
0
0
0
0
0
0
0
0
0
0
0
0
0
0
0
0
0
0
0
0
0
0
0
0
0
0
0
0
0
0
0
0
0
0
0
0
0
0
0
0
0
0
0
0
0
0
0
0
0
0
0
0
0
0
0
0
0
0
0
0
0
0
0
0
0
0
0
0
0
0
0
0
0
0
0
0
0
0
0
0
0
0
0
0
0
0
0
0
0
0
0
0
0
0
0
0
0
0
0
0
0
0
0
0
0
0
0
0
0
0
0
0
0
0
0
0
0
0
0
0
0
0
0
0
0
0
0
0
0
0
0
0
0
0
0
0
0
0
0
0
0
0
0
0
0
0
0
0
0
0
0
0
0
0
0
0
0
0
0
0
0
0
0
0
0
0
0
0
0
0
0
0
0
0
0
0
0
0
0
0
0
0
0
0
0
0
0
0
0
0
0
0
0
0
0
0
0
0
0
0
0
0
0
0
0
0
0
0
0
0
0
0
0
0
0
0
0
0
0
0
0
0
0
0
0
0
0
0
0
0
0
0
0
0
0
0
0
0
0
0
0
0
0
0
0
0
0
0
0
0
0
0
0
0
0
0
0
0
0
0
0
0
0
0
0
0
0
0
0
0
0
0
0
0
0
0
0
0
0
0
0
0
0
0
0
0
0
0
0
0
0
0
0
0
0
0
0
0
0
0
0
0
0
0
0
0
0
0
0
0
0
0
0
0
0
0
0
0
0
0
0
0
0
0
0
0
0
0
0
0
0
0
0
0
0
0
0
0
0
0
0
0
0
0
0
0
0
0
0
0
0
0
0
0
0
0
0
0
0
0
0
0
0
0
0
0
0
0
0
0
0
0
0
0
0
0
0
0
0
0
0
0
0
0
0
0
0
0
0
0
0
0
0
0
0
0
0
0
0
0
0
0
0
0
0
0
0
0
0
0
0
0
0
0
0
0
0
0
0
0
0
0
0
0
0
0
0
0
0
0
0
0
0
0
0
0
0
0
0
0
0
0
0
0
0
0
0
0
0
0
0
0
0
0
0
0
0
0
0
0
0
0
0
0
0
0
0
0
0
0
0
0
0
0
0
0
0
0
0
0
0
0
0
0
0
0
0
0
0
0
0
0
0
0
0
0
0
0
0
0
0
0
0
0
0
0
0
0
0
0
0
0
0
0
0
0
0
0
0
0
0
0
0
0
0
0
0
0
0
0
0
0
0
0
0
0
0
0
0
0
0
0
0
0
0
0
0
0
0
0
0
0
0
0
0
0
0
0
0
0
0
0
0
0
0
0
0
0
0
0
0
0
0
0
0
0
0
0
0
0
0
0
0
0
0
0
0
0
0
0
0
0
0
0
0
0
0
0
0
0
0
0
0
0
0
0
0
0
0
0
0
0
0
0
0
0
0
0
0
0
0
0
0
0
0
0
0
0
0
0
0
0
0
0
0
0
0
0
0
0
0
0
0
0
0
0
0
0
0
0
0
0
0
0
0
0
0
0
0
0
0
0
0
0
0
0
0
0
0
0
0
0
0
0
0
0
0
0
0
0
0
0
0
0
0
0
0
0
0
0
0
0
0
0
0
0
0
0
0
0
0
0
0
0
0
0
0
0
0
0
0
0
0
0
0
0
0
0
0
0
0
0
0
0
0
0
0
0
0
0
0
0
0
0
0
0
0
0
0
0
0
0
0
0
0
0
0
0
0
0
0
0
0
0
0
0
0
0
0
0
0
0
0
0
0
0
0
0
0
0
0
0
0
0
0
0
0
0
0
0
0
0
0
0
0
0
0
0
0
0
0
0
0
0
0
0
0
0
0
0
0
0
0
0
0
0
0
0
0
0
0
0
0
0
0
0
0
0
0
0
0
0
0
0
0
0
0
0
0
0
0
0
0
0
0
0
0
0
0
0
0
0
0
0
0
0
0
0
0
0
0
0
0
0
0
0
0
0
0
0
0
0
0
0
0
0
0
0
0
0
0
0
0
0
0
0
0
0
0
0
0
0
0
0
0
0
0
0
0
0
0
0
0
0
0
0
0
0
0
0
0
0
0
0
0
0
0
0
0
0
0
0
0
0
0
0
0
0
0
0
0
0
0
0
0
0
0
0
0
0
0
0
0
0
0
0
0
0
0
0
0
0
0
0
0
0
0
0
0
0
0
0
0
0
0
0
0
0
0
0
0
0
0
0
0
0
0
0
0
0
0
0
0
0
0
0
0
0
0
0
0
0
0
0
0
0
0
0
0
0
0
0
0
0
0
0
0
0
0
0
0
0
0
0
0
0
0
0
0
0
0
0
0
0
0
0
0
0
0
0
0
0
0
0
0
0
0
0
0
0
0
0
0
0
0
0
0
0
0
0
0
0
0
0
0
0
0
0
0
0
0
0
0
0
0
0
0
0
0
0
0
0
0
0
0
0
0
0
0
0
0
0
0
0
0
0
0
0
0
0
0
0
0
0
0
0
0
0
0
0
0
0
0
0
0
0
0
0
0
0
0
0
0
0
0
0
0
0
0
0
0
0
0
0
0
0
0
0
0
0
0
0
0
0
0
0
0
0
0
0
0
0
0
0
0
0
0
0
0
0
0
0
0
0
0
0
0
0
0
0
0
0
0
0
0
0
0
0
0
0
0
0
0
0
0
0
0
0
0
0
0
0
0
0
0
0
0
0
0
0
0
0
0
0
0
0
0
0
0
0
0
0
0
0
0
0
0
0
0
0
0
0
0
0
0
0
0
0
0
0
0
0
0
0
0
0
0
0
0
0
0
0
0
0
0
0
0
0
0
0
0
0
0
0
0
0
0
0
0
0
0
0
0
0
0
0
0
0
0
0
0
0
0
0
0
0
0
0
0
0
0
0
0
0
0
0
0
0
0
0
0
0
0
0
0
0
0
0
0
0
0
0
0
0
0
0
0
0
0
0
0
0
0
0
0
0
0
0
0
0
0
0
0
0
0
0
0
0
0
0
0
0
0
0
0
0
0
0
0
0
0
0
0
0
0
0
0
0
0
0
0
0
0
0
0
0
0
0
0
0
0
0
0
0
0
0
0
0
0
0
0
0
0
0
0
0
0
0
0
0
0
0
0
0
0
0
0
0
0
0
0
0
0
0
0
0
0
0
0
0
0
0
0
0
0
0
0
0
0
0
0
0
0
0
0
0
0
0
0
0
0
0
0
0
0
0
0
0
0
0
0
0
0
0
0
0
0
0
0
0
0
0
0
0
0
0
0
0
0
0
0
0
0
0
0
0
0
0
0
0
0
0
0
0
0
0
0
0
0
0
0
0
0
0
0
0
0
0
0
0
0
0
0
0
0
0
0
0
0
0
0
0
0
0
0
0
0
0
0
0
0
0
0
0
0
0
0
0
0
0
0
0
0
0
0
0
0
0
0
0
0
0
0
0
0
0
0
0
0
0
0
0
0
0
0
0
0
0
0
0
0
0
0
0
0
0
0
0
0
0
0
0
0
0
0
0
0
0
0
0
0
0
0
0
0
0
0
0
0
0
0
0
0
0
0
0
0
0
0
0
0
0
0
0
0
0
0
0
0
0
0
0
0
0
0
0
0
0
0
0
0
0
0
0
0
0
0
0
0
0
0
0
0
0
0
0
0
0
0
0
0
0
0
0
0
0
0
0
0
0
0
0
0
0
0
0
0
0
0
0
0
0
0
0
0
0
0
0
0
0
0
0
0
0
0
0
0
0
0
0
0
0
0
0
0
0
0
0
0
0
0
0
0
0
0
0
0
0
0
0
0
0
0
0
0
0
0
0
0
0
0
0
0
0
0
0
0
0
0
0
0
0
0
0
0
0
0
0
0
0
0
0
0
0
0
0
0
0
0
0
0
0
0
0
0
0
0
0
0
0
0
0
0
0
0
0
0
0
0
0
0
0
0
0
0
0
0
0
0
0
0
0
0
0
0
0
0
0
0
0
0
0
0
0
0
0
0
0
0
0
0
0
0
0
0
0
0
0
0
0
0
0
0
0
0
0
0
0
0
0
0
0
0
0
0
0
0
0
0
0
0
0
0
0
0
0
0
0
0
0
0
0
0
0
0
0
0
0
0
0
0
0
0
0
0
0
0
0
0
0
0
0
0
0
0
0
0
0
0
0
0
0
0
0
0
0
0
0
0
0
0
0
0
0
0
0
0
0
0
0
0
0
0
0
0
0
0
0
0
0
0
0
0
0
0
0
0
0
0
0
0
0
0
0
0
0
0
0
0
0
0
0
0
0
0
0
0
0
0
0
0
0
0
0
0
0
0
0
0
0
0
0
0
0
0
0
0
0
0
0
0
0
0
0
0
0
0
0
0
0
0
0
0
0
0
0
0
0
0
0
0
0
0
0
0
0
0
0
0
0
0
0
0
0
0
0
0
0
0
0
0
0
0
0
0
0
0
0
0
0
0
0
0
0
0
0
0
0
0
0
0
0
0
0
0
0
0
0
0
0
0
0
0
0
0
0
0
0
0
0
0
0
0
0
0
0
0
0
0
0
0
0
0
0
0
0
0
0
0
0
0
0
0
0
0
0
0
0
0
0
0
0
0
0
0
0
0
0
0
0
0
0
0
0
0
0
0
0
0
0
0
0
0
0
0
0
0
0
0
0
0
0
0
0
0
0
0
0
0
0
0
0
0
0
0
0
0
0
0
0
0
0
0
0
0
0
0
0
0
0
0
0
0
0
0
0
0
0
0
0
0
0
0
0
0
0
0
0
0
0
0
0
0
0
0
0
0
0
0
0
0
0
0
0
0
0
0
0
0
0
0
0
0
0
0
0
0
0
0
0
0
0
0
0
0
0
0
0
0
0
0
0
0
0
0
0
0
0
0
0
0
0
0
0
0
0
0
0
0
0
0
0
0
0
0
0
0
0
0
0
0
0
0
0
0
0
0
0
0
0
0
0
0
0
0
0
0
0
0
0
0
0
0
0
0
0
0
0
0
0
0
0
0
0
0
0
0
0
0
0
0
0
0
0
0
0
0
0
0
0
0
0
0
0
0
0
0
0
0
0
0
0
0
0
0
0
0
0
0
0
0
0
0
0
0
0
0
0
0
0
0
0
0
0
0
0
0
0
0
0
0
0
0
0
0
0
0
0
0
0
0
0
0
0
0
0
0
0
0
0
0
0
0
0
0
0
0
0
0
0
0
0
0
0
0
0
0
0
0
0
0
0
0
0
0
0
0
0
0
0
0
0
0
0
0
0
0
0
0
0
0
0
0
0
0
0
0
0
0
0
0
0
0
0
0
0
0
0
0
0
0
0
0
0
0
0
0
0
0
0
0
0
0
0
0
0
0
0
0
0
0
0
0
0
0
0
0
0
0
0
0
0
0
0
0
0
0
0
0
0
0
0
0
0
0
0
0
0
0
0
0
0
0
0
0
0
0
0
0
0
0
0
0
0
0
0
0
0
0
0
0
0
0
0
0
0
0
0
0
0
0
0
0
0
0
0
0
0
0
0
0
0
0
0
0
0
0
0
0
0
0
0
0
0
0
0
0
0
0
0
0
0
0
0
0
0
0
0
0
0
0
0
0
0
0
0
0
0
0
0
0
0
0
0
0
0
0
0
0
0
0
0
0
0
0
0
0
0
0
0
0
0
0
0
0
0
0
0
0
0
0
0
0
0
0
0
0
0
0
0
0
0
0
0
0
0
0
0
0
0
0
0
0
0
0
0
0
0
0
0
0
0
0
0
0
0
0
0
0
0
0
0
0
0
0
0
0
0
0
0
0
0
0
0
0
0
0
0
0
0
0
0
0
0
0
0
0
0
0
0
0
0
0
0
0
0
0
0
0
0
0
0
0
0
0
0
0
0
0
0
0
0
0
0
0
0
0
0
0
0
0
0
0
0
0
0
0
0
0
0
0
0
0
0
0
0
0
0
0
0
0
0
0
0
0
0
0
0
0
0
0
0
0
0
0
0
0
0
0
0
0
0
0
0
0
0
0
0
0
0
0
0
0
0
0
0
0
0
0
0
0
0
0
0
0
0
0
0
0
0
0
0
0
0
0
0
0
0
0
0
0
0
0
0
0
0
0
0
0
0
0
0
0
0
0
0
0
0
0
0
0
0
0
0
0
0
0
0
0
0
0
0
0
0
0
0
0
0
0
0
0
0
0
0
0
0
0
0
0
0
0
0
0
0
0
0
0
0
0
0
0
0
0
0
0
0
0
0
0
0
0
0
0
0
0
0
0
0
0
0
0
0
0
0
0
0
0
0
0
0
0
0
0
0
0
0
0
0
0
0
0
0
0
0
0
0
0
0
0
0
0
0
0
0
0
0
0
0
0
0
0
0
0
0
0
0
0
0
0
0
0
0
0
0
0
0
0
0
0
0
0
0
0
0
0
0
0
0
0
0
0
0
0
0
0
0
0
0
0
0
0
0
0
0
0
0
0
0
0
0
0
0
0
0
0
0
0
0
0
0
0
0
0
0
0
0
0
0
0
0
0
0
0
0
0
0
0
0
0
0
0
0
0
0
0
0
0
0
0
0
0
0
0
0
0
0
0
0
0
0
0
0
0
0
0
0
0
0
0
0
0
0
0
0
0
0
0
0
0
0
0
0
0
0
0
0
0
0
0
0
0
0
0
0
0
0
0
0
0
0
0
0
0
0
0
0
0
0
0
0
0
0
0
0
0
0
0
0
0
0
0
0
0
0
0
0
0
0
0
0
0
0
0
0
0
0
0
0
0
0
0
0
0
0
0
0
0
0
0
0
0
0
0
0
0
0
0
0
0
0
0
0
0
0
0
0
0
0
0
0
0
0
0
0
0
0
0
0
0
0
0
0
0
0
0
0
0
0
0
0
0
0
0
0
0
0
0
0
0
0
0
0
0
0
0
0
0
0
0
0
0
0
0
0
0
0
0
0
0
0
0
0
0
0
0
0
0
0
0
0
0
0
0
0
0
0
0
0
0
0
0
0
0
0
0
0
0
0
0
0
0
0
0
0
0
0
0
0
0
0
0
0
0
0
0
0
0
0
0
0
0
0
0
0
0
0
0
0
0
0
0
0
0
0
0
0
0
0
0
0
0
0
0
0
0
0
0
0
0
0
0
0
0
0
0
0
0
0
0
0
0
0
0
0
0
0
0
0
0
0
0
0
0
0
0
0
0
0
0
0
0
0
0
0
0
0
0
0
0
0
0
0
0
0
0
0
0
0
0
0
0
0
0
0
0
0
0
0
0
0
0
0
0
0
0
0
0
0
0
0
0
0
0
0
0
0
0
0
0
0
0
0
0
0
0
0
0
0
0
0
0
0
0
0
0
0
0
0
0
0
0
0
0
0
0
0
0
0
0
0
0
0
0
0
0
0
0
0
0
0
0
0
0
0
0
0
0
0
0
0
0
0
0
0
0
0
0
0
0
0
0
0
0
0
0
0
0
0
0
0
0
0
0
0
0
0
0
0
0
0
0
0
0
0
0
0
0
0
0
0
0
0
0
0
0
0
0
0
0
0
0
0
0
0
0
0
0
0
0
0
0
0
0
0
0
0
0
0
0
0
0
0
0
0
0
0
0
0
0
0
0
0
0
0
0
0
0
0
0
0
0
0
0
0
0
0
0
0
0
0
0
0
0
0
0
0
0
0
0
0
0
0
0
0
0
0
0
0
0
0
0
0
0
0
0
0
0
0
0
0
0
0
0
0
0
0
0
0
0
0
0
0
0
0
0
0
0
0
0
0
0
0
0
0
0
0
0
0
0
0
0
0
0
0
0
0
0
0
0
0
0
0
0
0
0
0
0
0
0
0
0
0
0
0
0
0
0
0
0
0
0
0
0
0
0
0
0
0
0
0
0
0
0
0
0
0
0
0
0
0
0
0
0
0
0
0
0
0
0
0
0
0
0
0
0
0
0
0
0
0
0
0
0
0
0
0
0
0
0
0
0
0
0
0
0
0
0
0
0
0
0
0
0
0
0
0
0
0
0
0
0
0
0
0
0
0
0
0
0
0
0
0
0
0
0
0
0
0
0
0
0
0
0
0
0
0
0
0
0
0
0
0
0
0
0
0
0
0
0
0
0
0
0
0
0
0
0
0
0
0
0
0
0
0
0
0
0
0
0
0
0
0
0
0
0
0
0
0
0
0
0
0
0
0
0
0
0
0
0
0
0
0
0
0
0
0
0
0
0
0
0
0
0
0
0
0
0
0
0
0
0
0
0
0
0
0
0
0
0
0
0
0
0
0
0
0
0
0
0
0
0
0
0
0
0
0
0
0
0
0
0
0
0
0
0
0
0
0
0
0
0
0
0
0
0
0
0
0
0
0
0
0
0
0
0
0
0
0
0
0
0
0
0
0
0
0
0
0
0
0
0
0
0
0
0
0
0
0
0
0
0
0
0
0
0
0
0
0
0
0
0
0
0
0
0
0
0
0
0
0
0
0
0
0
0
0
0
0
0
0
0
0
0
0
0
0
0
0
0
0
0
0
0
0
0
0
0
0
0
0
0
0
0
0
0
0
0
0
0
0
0
0
0
0
0
0
0
0
0
0
0
0
0
0
0
0
0
0
0
0
0
0
0
0
0
0
0
0
0
0
0
0
0
0
0
0
0
0
0
0
0
0
0
0
0
0
0
0
0
0
0
0
0
0
0
0
0
0
0
0
0
0
0
0
0
0
0
0
0
0
0
0
0
0
0
0
0
0
0
0
0
0
0
0
0
0
0
0
0
0
0
0
0
0
0
0
0
0
0
0
0
0
0
0
0
0
0
0
0
0
0
0
0
0
0
0
0
0
0
0
0
0
0
0
0
0
0
0
0
0
0
0
0
0
0
0
0
0
0
0
0
0
0
0
0
0
0
0
0
0
0
0
0
0
0
0
0
0
0
0
0
0
0
0
0
0
0
0
0
0
0
0
0
0
0
0
0
0
0
0
0
0
0
0
0
0
0
0
0
0
0
0
0
0
0
0
0
0
0
0
0
0
0
0
0
0
0
0
0
0
0
0
0
0
0
0
0
0
0
0
0
0
0
0
0
0
0
0
0
0
0
0
0
0
0
0
0
0
0
0
0
0
0
0
0
0
0
0
0
0
0
0
0
0
0
0
0
0
0
0
0
0
0
0
0
0
0
0
0
0
0
0
0
0
0
0
0
0
0
0
0
0
0
0
0
0
0
0
0
0
0
0
0
0
0
0
0
0
0
0
0
0
0
0
0
0
0
0
0
0
0
0
0
0
0
0
0
0
0
0
0
0
0
0
0
0
0
0
0
0
0
0
0
0
0
0
0
0
0
0
0
0
0
0
0
0
0
0
0
0
0
0
0
0
0
0
0
0
0
0
0
0
0
0
0
0
0
0
0
0
0
0
0
0
0
0
0
0
0
0
0
0
0
0
0
0
0
0
0
0
0
0
0
0
0
0
0
0
0
0
0
0
0
0
0
0
0
0
0
0
0
0
0
0
0
0
0
0
0
0
0
0
0
0
0
0
0
0
0
0
0
0
0
0
0
0
0
0
0
0
0
0
0
0
0
0
0
0
0
0
0
0
0
0
0
0
0
0
0
0
0
0
0
0
0
0
0
0
0
0
0
0
0
0
0
0
0
0
0
0
0
0
0
0
0
0
0
0
0
0
0
0
0
0
0
0
0
0
0
0
0
0
0
0
0
0
0
0
0
0
0
0
0
0
0
0
0
0
0
0
0
0
0
0
0
0
0
0
0
0
0
0
0
0
0
0
0
0
0
0
0
0
0
0
0
0
0
0
0
0
0
0
0
0
0
0
0
0
0
0
0
0
0
0
0
0
0
0
0
0
0
0
0
0
0
0
0
0
0
0
0
0
0
0
0
0
0
0
0
0
0
0
0
0
0
0
0
0
0
0
0
0
0
0
0
0
0
0
0
0
0
0
0
0
0
0
0
0
0
0
0
0
0
0
0
0
0
0
0
0
0
0
0
0
0
0
0
0
0
0
0
0
0
0
0
0
0
0
0
0
0
0
0
0
0
0
0
0
0
0
0
0
0
0
0
0
0
0
0
0
0
0
0
0
0
0
0
0
0
0
0
0
0
0
0
0
0
0
0
0
0
0
0
0
0
0
0
0
0
0
0
0
0
0
0
0
0
0
0
0
0
0
0
0
0
0
0
0
0
0
0
0
0
0
0
0
0
0
0
0
0
0
0
0
0
0
0
0
0
0
0
0
0
0
0
0
0
0
0
0
0
0
0
0
0
0
0
0
0
0
0
0
0
0
0
0
0
0
0
0
0
0
0
0
0
0
0
0
0
0
0
0
0
0
0
0
0
0
0
0
0
0
0
0
0
0
0
0
0
0
0
0
0
0
0
0
0
0
0
0
0
0
0
0
0
0
0
0
0
0
0
0
0
0
0
0
0
0
0
0
0
0
0
0
0
0
0
0
0
0
0
0
0
0
0
0
0
0
0
0
0
0
0
0
0
0
0
0
0
0
0
0
0
0
0
0
0
0
0
0
0
0
0
0
0
0
0
0
0
0
0
0
0
0
0
0
0
0
0
0
0
0
0
0
0
0
0
0
0
0
0
0
0
0
0
0
0
0
0
0
0
0
0
0
0
0
0
0
0
0
0
0
0
0
0
0
0
0
0
0
0
0
0
0
0
0
0
0
0
0
0
0
0
0
0
0
0
0
0
0
0
0
0
0
0
0
0
0
0
0
0
0
0
0
0
0
0
0
0
0
0
0
0
0
0
0
0
0
0
0
0
0
0
0
0
0
0
0
0
0
0
0
0
0
0
0
0
0
0
0
0
0
0
0
0
0
0
0
0
0
0
0
0
0
0
0
0
0
0
0
0
0
0
0
0
0
0
0
0
0
0
0
0
0
0
0
0
0
0
0
0
0
0
0
0
0
0
0
0
0
0
0
0
0
0
0
0
0
0
0
0
0
0
0
0
0
0
0
0
0
0
0
0
0
0
0
0
0
0
0
0
0
0
0
0
0
0
0
0
0
0
0
0
0
0
0
0
0
0
0
0
0
0
0
0
0
0
0
0
0
0
0
0
0
0
0
0
0
0
0
0
0
0
0
0
0
0
0
0
0
0
0
0
0
0
0
0
0
0
0
0
0
0
0
0
0
0
0
0
0
0
0
0
0
0
0
0
0
0
0
0
0
0
0
0
0
0
0
0
0
0
0
0
0
0
0
0
0
0
0
0
0
0
0
0
0
0
0
0
0
0
0
0
0
0
0
0
0
0
0
0
0
0
0
0
0
0
0
0
0
0
0
0
0
0
0
0
0
0
0
0
0
0
0
0
0
0
0
0
0
0
0
0
0
0
0
0
0
0
0
0
0
0
0
0
0
0
0
0
0
0
0
0
0
0
0
0
0
0
0
0
0
0
0
0
0
0
0
0
0
0
0
0
0
0
0
0
0
0
0
0
0
0
0
0
0
0
0
0
0
0
0
0
0
0
0
0
0
0
0
0
0
0
0
0
0
0
0
0
0
0
0
0
0
0
0
0
0
0
0
0
0
0
0
0
0
0
0
0
0
0
0
0
0
0
0
0
0
0
0
0
0
0
0
0
0
0
0
0
0
0
0
0
0
0
0
0
0
0
0
0
0
0
0
0
0
0
0
0
0
0
0
0
0
0
0
0
0
0
0
0
0
0
0
0
0
0
0
0
0
0
0
0
0
0
0
0
0
0
0
0
0
0
0
0
0
0
0
0
0
0
0
0
0
0
0
0
0
0
0
0
0
0
0
0
0
0
0
0
0
0
0
0
0
0
0
0
0
0
0
0
0
0
0
0
0
0
0
0
0
0
0
0
0
0
0
0
0
0
0
0
0
0
0
0
0
0
0
0
0
0
0
0
0
0
0
0
0
0
0
0
0
0
0
0
0
0
0
0
0
0
0
0
0
0
0
0
0
0
0
0
0
0
0
0
0
0
0
0
0
0
0
0
0
0
0
0
0
0
0
0
0
0
0
0
0
0
0
0
0
0
0
0
0
0
0
0
0
0
0
0
0
0
0
0
0
0
0
0
0
0
0
0
0
0
0
0
0
0
0
0
0
0
0
0
0
0
0
0
0
0
0
0
0
0
0
0
0
0
0
0
0
0
0
0
0
0
0
0
0
0
0
0
0
0
0
0
0
0
0
0
0
0
0
0
0
0
0
0
0
0
0
0
0
0
0
0
0
0
0
0
0
0
0
0
0
0
0
0
0
0
0
0
0
0
0
0
0
0
0
0
0
0
0
0
0
0
0
0
0
0
0
0
0
0
0
0
0
0
0
0
0
0
0
0
0
0
0
0
0
0
0
0
0
0
0
0
0
0
0
0
0
0
0
0
0
0
0
0
0
0
0
0
0
0
0
0
0
0
0
0
0
0
0
0
0
0
0
0
0
0
0
0
0
0
0
0
0
0
0
0
0
0
0
0
0
0
0
0
0
0
0
0
0
0
0
0
0
0
0
0
0
0
0
0
0
0
0
0
0
0
0
0
0
0
0
0
0
0
0
0
0
0
0
0
0
0
0
0
0
0
0
0
0
0
0
0
0
0
0
0
0
0
0
0
0
0
0
0
0
0
0
0
0
0
0
0
0
0
0
0
0
0
0
0
0
0
0
0
0
0
0
0
0
0
0
0
0
0
0
0
0
0
0
0
0
0
0
0
0
0
0
0
0
0
0
0
0
0
0
0
0
0
0
0
0
0
0
0
0
0
0
0
0
0
0
0
0
0
0
0
0
0
0
0
0
0
0
0
0
0
0
0
0
0
0
0
0
0
0
0
0
0
0
0
0
0
0
0
0
0
0
0
0
0
0
0
0
0
0
0
0
0
0
0
0
0
0
0
0
0
0
0
0
0
0
0
0
0
0
0
0
0
0
0
0
0
0
0
0
0
0
0
0
0
0
0
0
0
0
0
0
0
0
0
0
0
0
0
0
0
0
0
0
0
0
0
0
0
0
0
0
0
0
0
0
0
0
0
0
0
0
0
0
0
0
0
0
0
0
0
0
0
0
0
0
0
0
0
0
0
0
0
0
0
0
0
0
0
0
0
0
0
0
0
0
0
0
0
0
0
0
0
0
0
0
0
0
0
0
0
0
0
0
0
0
0
0
0
0
0
0
0
0
0
0
0
0
0
0
0
0
0
0
0
0
0
0
0
0
0
0
0
0
0
0
0
0
0
0
0
0
0
0
0
0
0
0
0
0
0
0
0
0
0
0
0
0
0
0
0
0
0
0
0
0
0
0
0
0
0
0
0
0
0
0
0
0
0
0
0
0
0
0
0
0
0
0
0
0
0
0
0
0
0
0
0
0
0
0
0
0
0
0
0
0
0
0
0
0
0
0
0
0
0
0
0
0
0
0
0
0
0
0
0
0
0
0
0
0
0
0
0
0
0
0
0
0
0
0
0
0
0
0
0
0
0
0
0
0
0
0
0
0
0
0
0
0
0
0
0
0
0
0
0
0
0
0
0
0
0
0
0
0
0
0
0
0
0
0
0
0
0
0
0
0
0
0
0
0
0
0
0
0
0
0
0
0
0
0
0
0
0
0
0
0
0
0
0
0
0
0
0
0
0
0
0
0
0
0
0
0
0
0
0
0
0
0
0
0
0
0
0
0
0
0
0
0
0
0
0
0
0
0
0
0
0
0
0
0
0
0
0
0
0
0
0
0
0
0
0
0
0
0
0
0
0
0
0
0
0
0
0
0
0
0
0
0
0
0
0
0
0
0
0
0
0
0
0
0
0
0
0
0
0
0
0
0
0
0
0
0
0
0
0
0
0
0
0
0
0
0
0
0
0
0
0
0
0
0
0
0
0
0
0
0
0
0
0
0
0
0
0
0
0
0
0
0
0
0
0
0
0
0
0
0
0
0
0
0
0
0
0
0
0
0
0
0
0
0
0
0
0
0
0
0
0
0
0
0
0
0
0
0
0
0
0
0
0
0
0
0
0
0
0
0
0
0
0
0
0
0
0
0
0
0
0
0
0
0
0
0
0
0
0
0
0
0
0
0
0
0
0
0
0
0
0
0
0
0
0
0
0
0
0
0
0
0
0
0
0
0
0
0
0
0
0
0
0
0
0
0
0
0
0
0
0
0
0
0
0
0
0
0
0
0
0
0
0
0
0
0
0
0
0
0
0
0
0
0
0
0
0
0
0
0
0
0
0
0
0
0
0
0
0
0
0
0
0
0
0
0
0
0
0
0
0
0
0
0
0
0
0
0
0
0
0
0
0
0
0
0
0
0
0
0
0
0
0
0
0
0
0
0
0
0
0
0
0
0
0
0
0
0
0
0
0
0
0
0
0
0
0
0
0
0
0
0
0
0
0
0
0
0
0
0
0
0
0
0
0
0
0
0
0
0
0
0
0
0
0
0
0
0
0
0
0
0
0
0
0
0
0
0
0
0
0
0
0
0
0
0
0
0
0
0
0
0
0
0
0
0
0
0
0
0
0
0
0
0
0
0
0
0
0
0
0
0
0
0
0
0
0
0
0
0
0
0
0
0
0
0
0
0
0
0
0
0
0
0
0
0
0
0
0
0
0
0
0
0
0
0
0
0
0
0
0
0
0
0
0
0
0
0
0
0
0
0
0
0
0
0
0
0
0
0
0
0
0
0
0
0
0
0
0
0
0
0
0
0
0
0
0
0
0
0
0
0
0
0
0
0
0
0
0
0
0
0
0
0
0
0
0
0
0
0
0
0
0
0
0
0
0
0
0
0
0
0
0
0
0
0
0
0
0
0
0
0
0
0
0
0
0
0
0
0
0
0
0
0
0
0
0
0
0
0
0
0
0
0
0
0
0
0
0
0
0
0
0
0
0
0
0
0
0
0
0
0
0
0
0
0
0
0
0
0
0
0
0
0
0
0
0
0
0
0
0
0
0
0
0
0
0
0
0
0
0
0
0
0
0
0
0
0
0
0
0
0
0
0
0
0
0
0
0
0
0
0
0
0
0
0
0
0
0
0
0
0
0
0
0
0
0
0
0
0
0
0
0
0
0
0
0
0
0
0
0
0
0
0
0
0
0
0
0
0
0
0
0
0
0
0
0
0
0
0
0
0
0
0
0
0
0
0
0
0
0
0
0
0
0
0
0
0
0
0
0
0
0
0
0
0
0
0
0
0
0
0
0
0
0
0
0
0
0
0
0
0
0
0
0
0
0
0
0
0
0
0
0
0
0
0
0
0
0
0
0
0
0
0
0
0
0
0
0
0
0
0
0
0
0
0
0
0
0
0
0
0
0
0
0
0
0
0
0
0
0
0
0
0
0
0
0
0
0
0
0
0
0
0
0
0
0
0
0
0
0
0
0
0
0
0
0
0
0
0
0
0
0
0
0
0
0
0
0
0
0
0
0
0
0
0
0
0
0
0
0
0
0
0
0
0
0
0
0
0
0
0
0
0
0
0
0
0
0
0
0
0
0
0
0
0
0
0
0
0
0
0
0
0
0
0
0
0
0
0
0
0
0
0
0
0
0
0
0
0
0
0
0
0
0
0
0
0
0
0
0
0
0
0
0
0
0
0
0
0
0
0
0
0
0
0
0
0
0
0
0
0
0
0
0
0
0
0
0
0
0
0
0
0
0
0
0
0
0
0
0
0
0
0
0
0
0
0
0
0
0
0
0
0
0
0
0
0
0
0
0
0
0
0
0
0
0
0
0
0
0
0
0
0
0
0
0
0
0
0
0
0
0
0
0
0
0
0
0
0
0
0
0
0
0
0
0
0
0
0
0
0
0
0
0
0
0
0
0
0
0
0
0
0
0
0
0
0
0
0
0
0
0
0
0
0
0
0
0
0
0
0
0
0
0
0
0
0
0
0
0
0
0
0
0
0
0
0
0
0
0
0
0
0
0
0
0
0
0
0
0
0
0
0
0
0
0
0
0
0
0
0
0
0
0
0
0
0
0
0
0
0
0
0
0
0
0
0
0
0
0
0
0
0
0
0
0
0
0
0
0
0
0
0
0
0
0
0
0
0
0
0
0
0
0
0
0
0
0
0
0
0
0
0
0
0
0
0
0
0
0
0
0
0
0
0
0
0
0
0
0
0
0
0
0
0
0
0
0
0
0
0
0
0
0
0
0
0
0
0
0
0
0
0
0
0
0
0
0
0
0
0
0
0
0
0
0
0
0
0
0
0
0
0
0
0
0
0
0
0
0
0
0
0
0
0
0
0
0
0
0
0
0
0
0
0
0
0
0
0
0
0
0
0
0
0
0
0
0
0
0
0
0
0
0
0
0
0
0
0
0
0
0
0
0
0
0
0
0
0
0
0
0
0
0
0
0
0
0
0
0
0
0
0
0
0
0
0
0
0
0
0
0
0
0
0
0
0
0
0
0
0
0
0
0
0
0
0
0
0
0
0
0
0
0
0
0
0
0
0
0
0
0
0
0
0
0
0
0
0
0
0
0
0
0
0
0
0
0
0
0
0
0
0
0
0
0
0
0
0
0
0
0
0
0
0
0
0
0
0
0
0
0
0
0
0
0
0
0
0
0
0
0
0
0
0
0
0
0
0
0
0
0
0
0
0
0
0
0
0
0
0
0
0
0
0
0
0
0
0
0
0
0
0
0
0
0
0
0
0
0
0
0
0
0
0
0
0
0
0
0
0
0
0
0
0
0
0
0
0
0
0
0
0
0
0
0
0
0
0
0
0
0
0
0
0
0
0
0
0
0
0
0
0
0
0
0
0
0
0
0
0
0
0
0
0
0
0
0
0
0
0
0
0
0
0
0
0
0
0
0
0
0
0
0
0
0
0
0
0
0
0
0
0
0
0
0
0
0
0
0
0
0
0
0
0
0
0
0
0
0
0
0
0
0
0
0
0
0
0
0
0
0
0
0
0
0
0
0
0
0
0
0
0
0
0
0
0
0
0
0
0
0
0
0
0
0
0
0
0
0
0
0
0
0
0
0
0
0
0
0
0
0
0
0
0
0
0
0
0
0
0
0
0
0
0
0
0
0
0
0
0
0
0
0
0
0
0
0
0
0
0
0
0
0
0
0
0
0
0
0
0
0
0
0
0
0
0
0
0
0
0
0
0
0
0
0
0
0
0
0
0
0
0
0
0
0
0
0
0
0
0
0
0
0
0
0
0
0
0
0
0
0
0
0
0
0
0
0
0
0
0
0
0
0
0
0
0
0
0
0
0
0
0
0
0
0
0
0
0
0
0
0
0
0
0
0
0
0
0
0
0
0
0
0
0
0
0
0
0
0
0
0
0
0
0
0
0
0
0
0
0
0
0
0
0
0
0
0
0
0
0
0
0
0
0
0
0
0
0
0
0
0
0
0
0
0
0
0
0
0
0
0
0
0
0
0
0
0
0
0
0
0
0
0
0
0
0
0
0
0
0
0
0
0
0
0
0
0
0
0
0
0
0
0
0
0
0
0
0
0
0
0
0
0
0
0
0
0
0
0
0
0
0
0
0
0
0
0
0
0
0
0
0
0
0
0
0
0
0
0
0
0
0
0
0
0
0
0
0
0
0
0
0
0
0
0
0
0
0
0
0
0
0
0
0
0
0
0
0
0
0
0
0
0
0
0
0
0
0
0
0
0
0
0
0
0
0
0
0
0
0
0
0
0
0
0
0
0
0
0
0
0
0
0
0
0
0
0
0
0
0
0
0
0
0
0
0
0
0
0
0
0
0
0
0
0
0
0
0
0
0
0
0
0
0
0
0
0
0
0
0
0
0
0
0
0
0
0
0
0
0
0
0
0
0
0
0
0
0
0
0
0
0
0
0
0
0
0
0
0
0
0
0
0
0
0
0
0
0
0
0
0
0
0
0
0
0
0
0
0
0
0
0
0
0
0
0
0
0
0
0
0
0
0
0
0
0
0
0
0
0
0
0
0
0
0
0
0
0
0
0
0
0
0
0
0
0
0
0
0
0
0
0
0
0
0
0
0
0
0
0
0
0
0
0
0
0
0
0
0
0
0
0
0
0
0
0
0
0
0
0
0
0
0
0
0
0
0
0
0
0
0
0
0
0
0
0
0
0
0
0
0
0
0
0
0
0
0
0
0
0
0
0
0
0
0
0
0
0
0
0
0
0
0
0
0
0
0
0
0
0
0
0
0
0
0
0
0
0
0
0
0
0
0
0
0
0
0
0
0
0
0
0
0
0
0
0
0
0
0
0
0
0
0
0
0
0
0
0
0
0
0
0
0
0
0
0
0
0
0
0
0
0
0
0
0
0
0
0
0
0
0
0
0
0
0
0
0
0
0
0
0
0
0
0
0
0
0
0
0
0
0
0
0
0
0
0
0
0
0
0
0
0
0
0
0
0
0
0
0
0
0
0
0
0
0
0
0
0
0
0
0
0
0
0
0
0
0
0
0
0
0
0
0
0
0
0
0
0
0
0
0
0
0
0
0
0
0
0
0
0
0
0
0
0
0
0
0
0
0
0
0
0
0
0
0
0
0
0
0
0
0
0
0
0
0
0
0
0
0
0
0
0
0
0
0
0
0
0
0
0
0
0
0
0
0
0
0
0
0
0
0
0
0
0
0
0
0
0
0
0
0
0
0
0
0
0
0
0
0
0
0
0
0
0
0
0
0
0
0
0
0
0
0
0
0
0
0
0
0
0
0
0
0
0
0
0
0
0
0
0
0
0
0
0
0
0
0
0
0
0
0
0
0
0
0
0
0
0
0
0
0
0
0
0
0
0
0
0
0
0
0
0
0
0
0
0
0
0
0
0
0
0
0
0
0
0
0
0
0
0
0
0
0
0
0
0
0
0
0
0
0
0
0
0
0
0
0
0
0
0
0
0
0
0
0
0
0
0
0
0
0
0
0
0
0
0
0
0
0
0
0
0
0
0
0
0
0
0
0
0
0
0
0
0
0
0
0
0
0
0
0
0
0
0
0
0
0
0
0
0
0
0
0
0
0
0
0
0
0
0
0
0
0
0
0
0
0
0
0
0
0
0
0
0
0
0
0
0
0
0
0
0
0
0
0
0
0
0
0
0
0
0
0
0
0
0
0
0
0
0
0
0
0
0
0
0
0
0
0
0
0
0
0
0
0
0
0
0
0
0
0
0
0
0
0
0
0
0
0
0
0
0
0
0
0
0
0
0
0
0
0
0
0
0
0
0
0
0
0
0
0
0
0
0
0
0
0
0
0
0
0
0
0
0
0
0
0
0
0
0
0
0
0
0
0
0
0
0
0
0
0
0
0
0
0
0
0
0
0
0
0
0
0
0
0
0
0
0
0
0
0
0
0
0
0
0
0
0
0
0
0
0
0
0
0
0
0
0
0
0
0
0
0
0
0
0
0
0
0
0
0
0
0
0
0
0
0
0
0
0
0
0
0
0
0
0
0
0
0
0
0
0
0
0
0
0
0
0
0
0
0
0
0
0
0
0
0
0
0
0
0
0
0
0
0
0
0
0
0
0
0
0
0
0
0
0
0
0
0
0
0
0
0
0
0
0
0
0
0
0
0
0
0
0
0
0
0
0
0
0
0
0
0
0
0
0
0
0
0
0
0
0
0
0
0
0
0
0
0
0
0
0
0
0
0
0
0
0
0
0
0
0
0
0
0
0
0
0
0
0
0
0
0
0
0
0
0
0
0
0
0
0
0
0
0
0
0
0
0
0
0
0
0
0
0
0
0
0
0
0
0
0
0
0
0
0
0
0
0
0
0
0
0
0
0
0
0
0
0
0
0
0
0
0
0
0
0
0
0
0
0
0
0
0
0
0
0
0
0
0
0
0
0
0
0
0
0
0
0
0
0
0
0
0
0
0
0
0
0
0
0
0
0
0
0
0
0
0
0
0
0
0
0
0
0
0
0
0
0
0
0
0
0
0
0
0
0
0
0
0
0
0
0
0
0
0
0
0
0
0
0
0
0
0
0
0
0
0
0
0
0
0
0
0
0
0
0
0
0
0
0
0
0
0
0
0
0
0
0
0
0
0
0
0
0
0
0
0
0
0
0
0
0
0
0
0
0
0
0
0
0
0
0
0
0
0
0
0
0
0
0
0
0
0
0
0
0
0
0
0
0
0
0
0
0
0
0
0
0
0
0
0
0
0
0
0
0
0
0
0
0
0
0
0
0
0
0
0
0
0
0
0
0
0
0
0
0
0
0
0
0
0
0
0
0
0
0
0
0
0
0
0
0
0
0
0
0
0
0
0
0
0
0
0
0
0
0
0
0
0
0
0
0
0
0
0
0
0
0
0
0
0
0
0
0
0
0
0
0
0
0
0
0
0
0
0
0
0
0
0
0
0
0
0
0
0
0
0
0
0
0
0
0
0
0
0
0
0
0
0
0
0
0
0
0
0
0
0
0
0
0
0
0
0
0
0
0
0
0
0
0
0
0
0
0
0
0
0
0
0
0
0
0
0
0
0
0
0
0
0
0
0
0
0
0
0
0
0
0
0
0
0
0
0
0
0
0
0
0
0
0
0
0
0
0
0
0
0
0
0
0
0
0
0
0
0
0
0
0
0
0
0
0
0
0
0
0
0
0
0
0
0
0
0
0
0
0
0
0
0
0
0
0
0
0
0
0
0
0
0
0
0
0
0
0
0
0
0
0
0
0
0
0
0
0
0
0
0
0
0
0
0
0
0
0
0
0
0
0
0
0
0
0
0
0
0
0
0
0
0
0
0
0
0
0
0
0
0
0
0
0
0
0
0
0
0
0
0
0
0
0
0
0
0
0
0
0
0
0
0
0
0
0
0
0
0
0
0
0
0
0
0
0
0
0
0
0
0
0
0
0
0
0
0
0
0
0
0
0
0
0
0
0
0
0
0
0
0
0
0
0
0
0
0
0
0
0
0
0
0
0
0
0
0
0
0
0
0
0
0
0
0
0
0
0
0
0
0
0
0
0
0
0
0
0
0
0
0
0
0
0
0
0
0
0
0
0
0
0
0
0
0
0
0
0
0
0
0
0
0
0
0
0
0
0
0
0
0
0
0
0
0
0
0
0
0
0
0
0
0
0
0
0
0
0
0
0
0
0
0
0
0
0
0
0
0
0
0
0
0
0
0
0
0
0
0
0
0
0
0
0
0
0
0
0
0
0
0
0
0
0
0
0
0
0
0
0
0
0
0
0
0
0
0
0
0
0
0
0
0
0
0
0
0
0
0
0
0
0
0
0
0
0
0
0
0
0
0
0
0
0
0
0
0
0
0
0
0
0
0
0
0
0
0
0
0
0
0
0
0
0
0
0
0
0
0
0
0
0
0
0
0
0
0
0
0
0
0
0
0
0
0
0
0
0
0
0
0
0
0
0
0
0
0
0
0
0
0
0
0
0
0
0
0
0
0
0
0
0
0
0
0
0
0
0
0
0
0
0
0
0
0
0
0
0
0
0
0
0
0
0
0
0
0
0
0
0
0
0
0
0
0
0
0
0
0
0
0
0
0
0
0
0
0
0
0
0
0
0
0
0
0
0
0
0
0
0
0
0
0
0
0
0
0
0
0
0
0
0
0
0
0
0
0
0
0
0
0
0
0
0
0
0
0
0
0
0
0
0
0
0
0
0
0
0
0
0
0
0
0
0
0
0
0
0
0
0
0
0
0
0
0
0
0
0
0
0
0
0
0
0
0
0
0
0
0
0
0
0
0
0
0
0
0
0
0
0
0
0
0
0
0
0
0
0
0
0
0
0
0
0
0
0
0
0
0
0
0
0
0
0
0
0
0
0
0
0
0
0
0
0
0
0
0
0
0
0
0
0
0
0
0
0
0
0
0
0
0
0
0
0
0
0
0
0
0
0
0
0
0
0
0
0
0
0
0
0
0
0
0
0
0
0
0
0
0
0
0
0
0
0
0
0
0
0
0
0
0
0
0
0
0
0
0
0
0
0
0
0
0
0
0
0
0
0
0
0
0
0
0
0
0
0
0
0
0
0
0
0
0
0
0
0
0
0
0
0
0
0
0
0
0
0
0
0
0
0
0
0
0
0
0
0
0
0
0
0
0
0
0
0
0
0
0
0
0
0
0
0
0
0
0
0
0
0
0
0
0
0
0
0
0
0
0
0
0
0
0
0
0
0
0
0
0
0
0
0
0
0
0
0
0
0
0
0
0
0
0
0
0
0
0
0
0
0
0
0
0
0
0
0
0
0
0
0
0
0
0
0
0
0
0
0
0
0
0
0
0
0
0
0
0
0
0
0
0
0
0
0
0
0
0
0
0
0
0
0
0
0
0
0
0
0
0
0
0
0
0
0
0
0
0
0
0
0
0
0
0
0
0
0
0
0
0
0
0
0
0
0
0
0
0
0
0
0
0
0
0
0
0
0
0
0
0
0
0
0
0
0
0
0
0
0
0
0
0
0
0
0
0
0
0
0
0
0
0
0
0
0
0
0
0
0
0
0
0
0
0
0
0
0
0
0
0
0
0
0
0
0
0
0
0
0
0
0
0
0
0
0
0
0
0
0
0
0
0
0
0
0
0
0
0
0
0
0
0
0
0
0
0
0
0
0
0
0
0
0
0
0
0
0
0
0
0
0
0
0
0
0
0
0
0
0
0
0
0
0
0
0
0
0
0
0
0
0
0
0
0
0
0
0
0
0
0
0
0
0
0
0
0
0
0
0
0
0
0
0
0
0
0
0
0
0
0
0
0
0
0
0
0
0
0
0
0
0
0
0
0
0
0
0
0
0
0
0
0
0
0
0
0
0
0
0
0
0
0
0
0
0
0
0
0
0
0
0
0
0
0
0
0
0
0
0
0
0
0
0
0
0
0
0
0
0
0
0
0
0
0
0
0
0
0
0
0
0
0
0
0
0
0
0
0
0
0
0
0
0
0
0
0
0
0
0
0
0
0
0
0
0
0
0
0
0
0
0
0
0
0
0
0
0
0
0
0
0
0
0
0
0
0
0
0
0
0
0
0
0
0
0
0
0
0
0
0
0
0
0
0
0
0
0
0
0
0
0
0
0
0
0
0
0
0
0
0
0
0
0
0
0
0
0
0
0
0
0
0
0
0
0
0
0
0
0
0
0
0
0
0
0
0
0
0
0
0
0
0
0
0
0
0
0
0
0
0
0
0
0
0
0
0
0
0
0
0
0
0
0
0
0
0
0
0
0
0
0
0
0
0
0
0
0
0
0
0
0
0
0
0
0
0
0
0
0
0
0
0
0
0
0
0
0
0
0
0
0
0
0
0
0
0
0
0
0
0
0
0
0
0
0
0
0
0
0
0
0
0
0
0
0
0
0
0
0
0
0
0
0
0
0
0
0
0
0
0
0
0
0
0
0
0
0
0
0
0
0
0
0
0
0
0
0
0
0
0
0
0
0
0
0
0
0
0
0
0
0
0
0
0
0
0
0
0
0
0
0
0
0
0
0
0
0
0
0
0
0
0
0
0
0
0
0
0
0
0
0
0
0
0
0
0
0
0
0
0
0
0
0
0
0
0
0
0
0
0
0
0
0
0
0
0
0
0
0
0
0
0
0
0
0
0
0
0
0
0
0
0
0
0
0
0
0
0
0
0
0
0
0
0
0
0
0
0
0
0
0
0
0
0
0
0
0
0
0
0
0
0
0
0
0
0
0
0
0
0
0
0
0
0
0
0
0
0
0
0
0
0
0
0
0
0
0
0
0
0
0
0
0
0
0
0
0
0
0
0
0
0
0
0
0
0
0
0
0
0
0
0
0
0
0
0
0
0
0
0
0
0
0
0
0
0
0
0
0
0
0
0
0
0
0
0
0
0
0
0
0
0
0
0
0
0
0
0
0
0
0
0
0
0
0
0
0
0
0
0
0
0
0
0
0
0
0
0
0
0
0
0
0
0
0
0
0
0
0
0
0
0
0
0
0
0
0
0
0
0
0
0
0
0
0
0
0
0
0
0
0
0
0
0
0
0
0
0
0
0
0
0
0
0
0
0
0
0
0
0
0
0
0
0
0
0
0
0
0
0
0
0
0
0
0
0
0
0
0
0
0
0
0
0
0
0
0
0
0
0
0
0
0
0
0
0
0
0
0
0
0
0
0
0
0
0
0
0
0
0
0
0
0
0
0
0
0
0
0
0
0
0
0
0
0
0
0
0
0
0
0
0
0
0
0
0
0
0
0
0
0
0
0
0
0
0
0
0
0
0
0
0
0
0
0
0
0
0
0
0
0
0
0
0
0
0
0
0
0
0
0
0
0
0
0
0
0
0
0
0
0
0
0
0
0
0
0
0
0
0
0
0
0
0
0
0
0
0
0
0
0
0
0
0
0
0
0
0
0
0
0
0
0
0
0
0
0
0
0
0
0
0
0
0
0
0
0
0
0
0
0
0
0
0
0
0
0
0
0
0
0
0
0
0
0
0
0
0
0
0
0
0
0
0
0
0
0
0
0
0
0
0
0
0
0
0
0
0
0
0
0
0
0
0
0
0
0
0
0
0
0
0
0
0
0
0
0
0
0
0
0
0
0
0
0
0
0
0
0
0
0
0
0
0
0
0
0
0
0
0
0
0
0
0
0
0
0
0
0
0
0
0
0
0
0
0
0
0
0
0
0
0
0
0
0
0
0
0
0
0
0
0
0
0
0
0
0
0
0
0
0
0
0
0
0
0
0
0
0
0
0
0
0
0
0
0
0
0
0
0
0
0
0
0
0
0
0
0
0
0
0
0
0
0
0
0
0
0
0
0
0
0
0
0
0
0
0
0
0
0
0
0
0
0
0
0
0
0
0
0
0
0
0
0
0
0
0
0
0
0
0
0
0
0
0
0
0
0
0
0
0
0
0
0
0
0
0
0
0
0
0
0
0
0
0
0
0
0
0
0
0
0
0
0
0
0
0
0
0
0
0
0
0
0
0
0
0
0
0
0
0
0
0
0
0
0
0
0
0
0
0
0
0
0
0
0
0
0
0
0
0
0
0
0
0
0
0
0
0
0
0
0
0
0
0
0
0
0
0
0
0
0
0
0
0
0
0
0
0
0
0
0
0
0
0
0
0
0
0
0
0
0
0
0
0
0
0
0
0
0
0
0
0
0
0
0
0
0
0
0
0
0
0
0
0
0
0
0
0
0
0
0
0
0
0
0
0
0
0
0
0
0
0
0
0
0
0
0
0
0
0
0
0
0
0
0
0
0
0
0
0
0
0
0
0
0
0
0
0
0
0
0
0
0
0
0
0
0
0
0
0
0
0
0
0
0
0
0
0
0
0
0
0
0
0
0
0
0
0
0
0
0
0
0
0
0
0
0
0
0
0
0
0
0
0
0
0
0
0
0
0
0
0
0
0
0
0
0
0
0
0
0
0
0
0
0
0
0
0
0
0
0
0
0
0
0
0
0
0
0
0
0
0
0
0
0
0
0
0
0
0
0
0
0
0
0
0
0
0
0
0
0
0
0
0
0
0
0
0
0
0
0
0
0
0
0
0
0
0
0
0
0
0
0
0
0
0
0
0
0
0
0
0
0
0
0
0
0
0
0
0
0
0
0
0
0
0
0
0
0
0
0
0
0
0
0
0
0
0
0
0
0
0
0
0
0
0
0
0
0
0
0
0
0
0
0
0
0
0
0
0
0
0
0
0
0
0
0
0
0
0
0
0
0
0
0
0
0
0
0
0
0
0
0
0
0
0
0
0
0
0
0
0
0
0
0
0
0
0
0
0
0
0
0
0
0
0
0
0
0
0
0
0
0
0
0
0
0
0
0
0
0
0
0
0
0
0
0
0
0
0
0
0
0
0
0
0
0
0
0
0
0
0
0
0
0
0
0
0
0
0
0
0
0
0
0
0
0
0
0
0
0
0
0
0
0
0
0
0
0
0
0
0
0
0
0
0
0
0
0
0
0
0
0
0
0
0
0
0
0
0
0
0
0
0
0
0
0
0
0
0
0
0
0
0
0
0
0
0
0
0
0
0
0
0
0
0
0
0
0
0
0
0
0
0
0
0
0
0
0
0
0
0
0
0
0
0
0
0
0
0
0
0
0
0
0
0
0
0
0
0
0
0
0
0
0
0
0
0
0
0
0
0
0
0
0
0
0
0
0
0
0
0
0
0
0
0
0
0
0
0
0
0
0
0
0
0
0
0
0
0
0
0
0
0
0
0
0
0
0
0
0
0
0
0
0
0
0
0
0
0
0
0
0
0
0
0
0
0
0
0
0
0
0
0
0
0
0
0
0
0
0
0
0
0
0
0
0
0
0
0
0
0
0
0
0
0
0
0
0
0
0
0
0
0
0
0
0
0
0
0
0
0
0
0
0
0
0
0
0
0
0
0
0
0
0
0
0
0
0
0
0
0
0
0
0
0
0
0
0
0
0
0
0
0
0
0
0
0
0
0
0
0
0
0
0
0
0
0
0
0
0
0
0
0
0
0
0
0
0
0
0
0
0
0
0
0
0
0
0
0
0
0
0
0
0
0
0
0
0
0
0
0
0
0
0
0
0
0
0
0
0
0
0
0
0
0
0
0
0
0
0
0
0
0
0
0
0
0
0
0
0
0
0
0
0
0
0
0
0
0
0
0
0
0
0
0
0
0
0
0
0
0
0
0
0
0
0
0
0
0
0
0
0
0
0
0
0
0
0
0
0
0
0
0
0
0
0
0
0
0
0
0
0
0
0
0
0
0
0
0
0
0
0
0
0
0
0
0
0
0
0
0
0
0
0
0
0
0
0
0
0
0
0
0
0
0
0
0
0
0
0
0
0
0
0
0
0
0
0
0
0
0
0
0
0
0
0
0
0
0
0
0
0
0
0
0
0
0
0
0
0
0
0
0
0
0
0
0
0
0
0
0
0
0
0
0
0
0
0
0
0
0
0
0
0
0
0
0
0
0
0
0
0
0
0
0
0
0
0
0
0
0
0
0
0
0
0
0
0
0
0
0
0
0
0
0
0
0
0
0
0
0
0
0
0
0
0
0
0
0
0
0
0
0
0
0
0
0
0
0
0
0
0
0
0
0
0
0
0
0
0
0
0
0
0
0
0
0
0
0
0
0
0
0
0
0
0
0
0
0
0
0
0
0
0
0
0
0
0
0
0
0
0
0
0
0
0
0
0
0
0
0
0
0
0
0
0
0
0
0
0
0
0
0
0
0
0
0
0
0
0
0
0
0
0
0
0
0
0
0
0
0
0
0
0
0
0
0
0
0
0
0
0
0
0
0
0
0
0
0
0
0
0
0
0
0
0
0
0
0
0
0
0
0
0
0
0
0
0
0
0
0
0
0
0
0
0
0
0
0
0
0
0
0
0
0
0
0
0
0
0
0
0
0
0
0
0
0
0
0
0
0
0
0
0
0
0
0
0
0
0
0
0
0
0
0
0
0
0
0
0
0
0
0
0
0
0
0
0
0
0
0
0
0
0
0
0
0
0
0
0
0
0
0
0
0
0
0
0
0
0
0
0
0
0
0
0
0
0
0
0
0
0
0
0
0
0
0
0
0
0
0
0
0
0
0
0
0
0
0
0
0
0
0
0
0
0
0
0
0
0
0
0
0
0
0
0
0
0
0
0
0
0
0
0
0
0
0
0
0
0
0
0
0
0
0
0
0
0
0
0
0
0
0
0
0
0
0
0
0
0
0
0
0
0
0
0
0
0
0
0
0
0
0
0
0
0
0
0
0
0
0
0
0
0
0
0
0
0
0
0
0
0
0
0
0
0
0
0
0
0
0
0
0
0
0
0
0
0
0
0
0
0
0
0
0
0
0
0
0
0
0
0
0
0
0
0
0
0
0
0
0
0
0
0
0
0
0
0
0
0
0
0
0
0
0
0
0
0
0
0
0
0
0
0
0
0
0
0
0
0
0
0
0
0
0
0
0
0
0
0
0
0
0
0
0
0
0
0
0
0
0
0
0
0
0
0
0
0
0
0
0
0
0
0
0
0
0
0
0
0
0
0
0
0
0
0
0
0
0
0
0
0
0
0
0
0
0
0
0
0
0
0
0
0
0
0
0
0
0
0
0
0
0
0
0
0
0
0
0
0
0
0
0
0
0
0
0
0
0
0
0
0
0
0
0
0
0
0
0
0
0
0
0
0
0
0
0
0
0
0
0
0
0
0
0
0
0
0
0
0
0
0
0
0
0
0
0
0
0
0
0
0
0
0
0
0
0
0
0
0
0
0
0
0
0
0
0
0
0
0
0
0
0
0
0
0
0
0
0
0
0
0
0
0
0
0
0
0
0
0
0
0
0
0
0
0
0
0
0
0
0
0
0
0
0
0
0
0
0
0
0
0
0
0
0
0
0
0
0
0
0
0
0
0
0
0
0
0
0
0
0
0
0
0
0
0
0
0
0
0
0
0
0
0
0
0
0
0
0
0
0
0
0
0
0
0
0
0
0
0
0
0
0
0
0
0
0
0
0
0
0
0
0
0
0
0
0
0
0
0
0
0
0
0
0
0
0
0
0
0
0
0
0
0
0
0
0
0
0
0
0
0
0
0
0
0
0
0
0
0
0
0
0
0
0
0
0
0
0
0
0
0
0
0
0
0
0
0
0
0
0
0
0
0
0
0
0
0
0
0
0
0
0
0
0
0
0
0
0
0
0
0
0
0
0
0
0
0
0
0
0
0
0
0
0
0
0
0
0
0
0
0
0
0
0
0
0
0
0
0
0
0
0
0
0
0
0
0
0
0
0
0
0
0
0
0
0
0
0
0
0
0
0
0
0
0
0
0
0
0
0
0
0
0
0
0
0
0
0
0
0
0
0
0
0
0
0
0
0
0
0
0
0
0
0
0
0
0
0
0
0
0
0
0
0
0
0
0
0
0
0
0
0
0
0
0
0
0
0
0
0
0
0
0
0
0
0
0
0
0
0
0
0
0
0
0
0
0
0
0
0
0
0
0
0
0
0
0
0
0
0
0
0
0
0
0
0
0
0
0
0
0
0
0
0
0
0
0
0
0
0
0
0
0
0
0
0
0
0
0
0
0
0
0
0
0
0
0
0
0
0
0
0
0
0
0
0
0
0
0
0
0
0
0
0
0
0
0
0
0
0
0
0
0
0
0
0
0
0
0
0
0
0
0
0
0
0
0
0
0
0
0
0
0
0
0
0
0
0
0
0
0
0
0
0
0
0
0
0
0
0
0
0
0
0
0
0
0
0
0
0
0
0
0
0
0
0
0
0
0
0
0
0
0
0
0
0
0
0
0
0
0
0
0
0
0
0
0
0
0
0
0
0
0
0
0
0
0
0
0
0
0
0
0
0
0
0
0
0
0
0
0
0
0
0
0
0
0
0
0
0
0
0
0
0
0
0
0
0
0
0
0
0
0
0
0
0
0
0
0
0
0
0
0
0
0
0
0
0
0
0
0
0
0
0
0
0
0
0
0
0
0
0
0
0
0
0
0
0
0
0
0
0
0
0
0
0
0
0
0
0
0
0
0
0
0
0
0
0
0
0
0
0
0
0
0
0
0
0
0
0
0
0
0
0
0
0
0
0
0
0
0
0
0
0
0
0
0
0
0
0
0
0
0
0
0
0
0
0
0
0
0
0
0
0
0
0
0
0
0
0
0
0
0
0
0
0
0
0
0
0
0
0
0
0
0
0
0
0
0
0
0
0
0
0
0
0
0
0
0
0
0
0
0
0
0
0
0
0
0
0
0
0
0
0
0
0
0
0
0
0
0
0
0
0
0
0
0
0
0
0
0
0
0
0
0
0
0
0
0
0
0
0
0
0
0
0
0
0
0
0
0
0
0
0
0
0
0
0
0
0
0
0
0
0
0
0
0
0
0
0
0
0
0
0
0
0
0
0
0
0
0
0
0
0
0
0
0
0
0
0
0
0
0
0
0
0
0
0
0
0
0
0
0
0
0
0
0
0
0
0
0
0
0
0
0
0
0
0
0
0
0
0
0
0
0
0
0
0
0
0
0
0
0
0
0
0
0
0
0
0
0
0
0
0
0
0
0
0
0
0
0
0
0
0
0
0
0
0
0
0
0
0
0
0
0
0
0
0
0
0
0
0
0
0
0
0
0
0
0
0
0
0
0
0
0
0
0
0
0
0
0
0
0
0
0
0
0
0
0
0
0
0
0
0
0
0
0
0
0
0
0
0
0
0
0
0
0
0
0
0
0
0
0
0
0
0
0
0
0
0
0
0
0
0
0
0
0
0
0
0
0
0
0
0
0
0
0
0
0
0
0
0
0
0
0
0
0
0
0
0
0
0
0
0
0
0
0
0
0
0
0
0
0
0
0
0
0
0
0
0
0
0
0
0
0
0
0
0
0
0
0
0
0
0
0
0
0
0
0
0
0
0
0
0
0
0
0
0
0
0
0
0
0
0
0
0
0
0
0
0
0
0
0
0
0
0
0
0
0
0
0
0
0
0
0
0
0
0
0
0
0
0
0
0
0
0
0
0
0
0
0
0
0
0
0
0
0
0
0
0
0
0
0
0
0
0
0
0
0
0
0
0
0
0
0
0
0
0
0
0
0
0
0
0
0
0
0
0
0
0
0
0
0
0
0
0
0
0
0
0
0
0
0
0
0
0
0
0
0
0
0
0
0
0
0
0
0
0
0
0
0
0
0
0
0
0
0
0
0
0
0
0
0
0
0
0
0
0
0
0
0
0
0
0
0
0
0
0
0
0
0
0
0
0
0
0
0
0
0
0
0
0
0
0
0
0
0
0
0
0
0
0
0
0
0
0
0
0
0
0
0
0
0
0
0
0
0
0
0
0
0
0
0
0
0
0
0
0
0
0
0
0
0
0
0
0
0
0
0
0
0
0
0
0
0
0
0
0
0
0
0
0
0
0
0
0
0
0
0
0
0
0
0
0
0
0
0
0
0
0
0
0
0
0
0
0
0
0
0
0
0
0
0
0
0
0
0
0
0
0
0
0
0
0
0
0
0
0
0
0
0
0
0
0
0
0
0
0
0
0
0
0
0
0
0
0
0
0
0
0
0
0
0
0
0
0
0
0
0
0
0
0
0
0
0
0
0
0
0
0
0
0
0
0
0
0
0
0
0
0
0
0
0
0
0
0
0
0
0
0
0
0
0
0
0
0
0
0
0
0
0
0
0
0
0
0
0
0
0
0
0
0
0
0
0
0
0
0
0
0
0
0
0
0
0
0
0
0
0
0
0
0
0
0
0
0
0
0
0
0
0
0
0
0
0
0
0
0
0
0
0
0
0
0
0
0
0
0
0
0
0
0
0
0
0
0
0
0
0
0
0
0
0
0
0
0
0
0
0
0
0
0
0
0
0
0
0
0
0
0
0
0
0
0
0
0
0
0
0
0
0
0
0
0
0
0
0
0
0
0
0
0
0
0
0
0
0
0
0
0
0
0
0
0
0
0
0
0
0
0
0
0
0
0
0
0
0
0
0
0
0
0
0
0
0
0
0
0
0
0
0
0
0
0
0
0
0
0
0
0
0
0
0
0
0
0
0
0
0
0
0
0
0
0
0
0
0
0
0
0
0
0
0
0
0
0
0
0
0
0
0
0
0
0
0
0
0
0
0
0
0
0
0
0
0
0
0
0
0
0
0
0
0
0
0
0
0
0
0
0
0
0
0
0
0
0
0
0
0
0
0
0
0
0
0
0
0
0
0
0
0
0
0
0
0
0
0
0
0
0
0
0
0
0
0
0
0
0
0
0
0
0
0
0
0
0
0
0
0
0
0
0
0
0
0
0
0
0
0
0
0
0
0
0
0
0
0
0
0
0
0
0
0
0
0
0
0
0
0
0
0
0
0
0
0
0
0
0
0
0
0
0
0
0
0
0
0
0
0
0
0
0
0
0
0
0
0
0
0
0
0
0
0
0
0
0
0
0
0
0
0
0
0
0
0
0
0
0
0
0
0
0
0
0
0
0
0
0
0
0
0
0
0
0
0
0
0
0
0
0
0
0
0
0
0
0
0
0
0
0
0
0
0
0
0
0
0
0
0
0
0
0
0
0
0
0
0
0
0
0
0
0
0
0
0
0
0
0
0
0
0
0
0
0
0
0
0
0
0
0
0
0
0
0
0
0
0
0
0
0
0
0
0
0
0
0
0
0
0
0
0
0
0
0
0
0
0
0
0
0
0
0
0
0
0
0
0
0
0
0
0
0
0
0
0
0
0
0
0
0
0
0
0
0
0
0
0
0
0
0
0
0
0
0
0
0
0
0
0
0
0
0
0
0
0
0
0
0
0
0
0
0
0
0
0
0
0
0
0
0
0
0
0
0
0
0
0
0
0
0
0
0
0
0
0
0
0
0
0
0
0
0
0
0
0
0
0
0
0
0
0
0
0
0
0
0
0
0
0
0
0
0
0
0
0
0
0
0
0
0
0
0
0
0
0
0
0
0
0
0
0
0
0
0
0
0
0
0
0
0
0
0
0
0
0
0
0
0
0
0
0
0
0
0
0
0
0
0
0
0
0
0
0
0
0
0
0
0
0
0
0
0
0
0
0
0
0
0
0
0
0
0
0
0
0
0
0
0
0
0
0
0
0
0
0
0
0
0
0
0
0
0
0
0
0
0
0
0
0
0
0
0
0
0
0
0
0
0
0
0
0
0
0
0
0
0
0
0
0
0
0
0
0
0
0
0
0
0
0
0
0
0
0
0
0
0
0
0
0
0
0
0
0
0
0
0
0
0
0
0
0
0
0
0
0
0
0
0
0
0
0
0
0
0
0
0
0
0
0
0
0
0
0
0
0
0
0
0
0
0
0
0
0
0
0
0
0
0
0
0
0
0
0
0
0
0
0
0
0
0
0
0
0
0
0
0
0
0
0
0
0
0
0
0
0
0
0
0
0
0
0
0
0
0
0
0
0
0
0
0
0
0
0
0
0
0
0
0
0
0
0
0
0
0
0
0
0
0
0
0
0
0
0
0
0
0
0
0
0
0
0
0
0
0
0
0
0
0
0
0
0
0
0
0
0
0
0
0
0
0
0
0
0
0
0
0
0
0
0
0
0
0
0
0
0
0
0
0
0
0
0
0
0
0
0
0
0
0
0
0
0
0
0
0
0
0
0
0
0
0
0
0
0
0
0
0
0
0
0
0
0
0
0
0
0
0
0
0
0
0
0
0
0
0
0
0
0
0
0
0
0
0
0
0
0
0
0
0
0
0
0
0
0
0
0
0
0
0
0
0
0
0
0
0
0
0
0
0
0
0
0
0
0
0
0
0
0
0
0
0
0
0
0
0
0
0
0
0
0
0
0
0
0
0
0
0
0
0
0
0
0
0
0
0
0
0
0
0
0
0
0
0
0
0
0
0
0
0
0
0
0
0
0
0
0
0
0
0
0
0
0
0
0
0
0
0
0
0
0
0
0
0
0
0
0
0
0
0
0
0
0
0
0
0
0
0
0
0
0
0
0
0
0
0
0
0
0
0
0
0
0
0
0
0
0
0
0
0
0
0
0
0
0
0
0
0
0
0
0
0
0
0
0
0
0
0
0
0
0
0
0
0
0
0
0
0
0
0
0
0
0
0
0
0
0
0
0
0
0
0
0
0
0
0
0
0
0
0
0
0
0
0
0
0
0
0
0
0
0
0
0
0
0
0
0
0
0
0
0
0
0
0
0
0
0
0
0
0
0
0
0
0
0
0
0
0
0
0
0
0
0
0
0
0
0
0
0
0
0
0
0
0
0
0
0
0
0
0
0
0
0
0
0
0
0
0
0
0
0
0
0
0
0
0
0
0
0
0
0
0
0
0
0
0
0
0
0
0
0
0
0
0
0
0
0
0
0
0
0
0
0
0
0
0
0
0
0
0
0
0
0
0
0
0
0
0
0
0
0
0
0
0
0
0
0
0
0
0
0
0
0
0
0
0
0
0
0
0
0
0
0
0
0
0
0
0
0
0
0
0
0
0
0
0
0
0
0
0
0
0
0
0
0
0
0
0
0
0
0
0
0
0
0
0
0
0
0
0
0
0
0
0
0
0
0
0
0
0
0
0
0
0
0
0
0
0
0
0
0
0
0
0
0
0
0
0
0
0
0
0
0
0
0
0
0
0
0
0
0
0
0
0
0
0
0
0
0
0
0
0
0
0
0
0
0
0
0
0
0
0
0
0
0
0
0
0
0
0
0
0
0
0
0
0
0
0
0
0
0
0
0
0
0
0
0
0
0
0
0
0
0
0
0
0
0
0
0
0
0
0
0
0
0
0
0
0
0
0
0
0
0
0
0
0
0
0
0
0
0
0
0
0
0
0
0
0
0
0
0
0
0
0
0
0
0
0
0
0
0
0
0
0
0
0
0
0
0
0
0
0
0
0
0
0
0
0
0
0
0
0
0
0
0
0
0
0
0
0
0
0
0
0
0
0
0
0
0
0
0
0
0
0
0
0
0
0
0
0
0
0
0
0
0
0
0
0
0
0
0
0
0
0
0
0
0
0
0
0
0
0
0
0
0
0
0
0
0
0
0
0
0
0
0
0
0
0
0
0
0
0
0
0
0
0
0
0
0
0
0
0
0
0
0
0
0
0
0
0
0
0
0
0
0
0
0
0
0
0
0
0
0
0
0
0
0
0
0
0
0
0
0
0
0
0
0
0
0
0
0
0
0
0
0
0
0
0
0
0
0
0
0
0
0
0
0
0
0
0
0
0
0
0
0
0
0
0
0
0
0
0
0
0
0
0
0
0
0
0
0
0
0
0
0
0
0
0
0
0
0
0
0
0
0
0
0
0
0
0
0
0
0
0
0
0
0
0
0
0
0
0
0
0
0
0
0
0
0
0
0
0
0
0
0
0
0
0
0
0
0
0
0
0
0
0
0
0
0
0
0
0
0
0
0
0
0
0
0
0
0
0
0
0
0
0
0
0
0
0
0
0
0
0
0
0
0
0
0
0
0
0
0
0
0
0
0
0
0
0
0
0
0
0
0
0
0
0
0
0
0
0
0
0
0
0
0
0
0
0
0
0
0
0
0
0
0
0
0
0
0
0
0
0
0
0
0
0
0
0
0
0
0
0
0
0
0
0
0
0
0
0
0
0
0
0
0
0
0
0
0
0
0
0
0
0
0
0
0
0
0
0
0
0
0
0
0
0
0
0
0
0
0
0
0
0
0
0
0
0
0
0
0
0
0
0
0
0
0
0
0
0
0
0
0
0
0
0
0
0
0
0
0
0
0
0
0
0
0
0
0
0
0
0
0
0
0
0
0
0
0
0
0
0
0
0
0
0
0
0
0
0
0
0
0
0
0
0
0
0
0
0
0
0
0
0
0
0
0
0
0
0
0
0
0
0
0
0
0
0
0
0
0
0
0
0
0
0
0
0
0
0
0
0
0
0
0
0
0
0
0
0
0
0
0
0
0
0
0
0
0
0
0
0
0
0
0
0
0
0
0
0
0
0
0
0
0
0
0
0
0
0
0
0
0
0
0
0
0
0
0
0
0
0
0
0
0
0
0
0
0
0
0
0
0
0
0
0
0
0
0
0
0
0
0
0
0
0
0
0
0
0
0
0
0
0
0
0
0
0
0
0
0
0
0
0
0
0
0
0
0
0
0
0
0
0
0
0
0
0
0
0
0
0
0
0
0
0
0
0
0
0
0
0
0
0
0
0
0
0
0
0
0
0
0
0
0
0
0
0
0
0
0
0
0
0
0
0
0
0
0
0
0
0
0
0
0
0
0
0
0
0
0
0
0
0
0
0
0
0
0
0
0
0
0
0
0
0
0
0
0
0
0
0
0
0
0
0
0
0
0
0
0
0
0
0
0
0
0
0
0
0
0
0
0
0
0
0
0
0
0
0
0
0
0
0
0
0
0
0
0
0
0
0
0
0
0
0
0
0
0
0
0
0
0
0
0
0
0
0
0
0
0
0
0
0
0
0
0
0
0
0
0
0
0
0
0
0
0
0
0
0
0
0
0
0
0
0
0
0
0
0
0
0
0
0
0
0
0
0
0
0
0
0
0
0
0
0
0
0
0
0
0
0
0
0
0
0
0
0
0
0
0
0
0
0
0
0
0
0
0
0
0
0
0
0
0
0
0
0
0
0
0
0
0
0
0
0
0
0
0
0
0
0
0
0
0
0
0
0
0
0
0
0
0
0
0
0
0
0
0
0
0
0
0
0
0
0
0
0
0
0
0
0
0
0
0
0
0
0
0
0
0
0
0
0
0
0
0
0
0
0
0
0
0
0
0
0
0
0
0
0
0
0
0
0
0
0
0
0
0
0
0
0
0
0
0
0
0
0
0
0
0
0
0
0
0
0
0
0
0
0
0
0
0
0
0
0
0
0
0
0
0
0
0
0
0
0
0
0
0
0
0
0
0
0
0
0
0
0
0
0
0
0
0
0
0
0
0
0
0
0
0
0
0
0
0
0
0
0
0
0
0
0
0
0
0
0
0
0
0
0
0
0
0
0
0
0
0
0
0
0
0
0
0
0
0
0
0
0
0
0
0
0
0
0
0
0
0
0
0
0
0
0
0
0
0
0
0
0
0
0
0
0
0
0
0
0
0
0
0
0
0
0
0
0
0
0
0
0
0
0
0
0
0
0
0
0
0
0
0
0
0
0
0
0
0
0
0
0
0
0
0
0
0
0
0
0
0
0
0
0
0
0
0
0
0
0
0
0
0
0
0
0
0
0
0
0
0
0
0
0
0
0
0
0
0
0
0
0
0
0
0
0
0
0
0
0
0
0
0
0
0
0
0
0
0
0
0
0
0
0
0
0
0
0
0
0
0
0
0
0
0
0
0
0
0
0
0
0
0
0
0
0
0
0
0
0
0
0
0
0
0
0
0
0
0
0
0
0
0
0
0
0
0
0
0
0
0
0
0
0
0
0
0
0
0
0
0
0
0
0
0
0
0
0
0
0
0
0
0
0
0
0
0
0
0
0
0
0
0
0
0
0
0
0
0
0
0
0
0
0
0
0
0
0
0
0
0
0
0
0
0
0
0
0
0
0
0
0
0
0
0
0
0
0
0
0
0
0
0
0
0
0
0
0
0
0
0
0
0
0
0
0
0
0
0
0
0
0
0
0
0
0
0
0
0
0
0
0
0
0
0
0
0
0
0
0
0
0
0
0
0
0
0
0
0
0
0
0
0
0
0
0
0
0
0
0
0
0
0
0
0
0
0
0
0
0
0
0
0
0
0
0
0
0
0
0
0
0
0
0
0
0
0
0
0
0
0
0
0
0
0
0
0
0
0
0
0
0
0
0
0
0
0
0
0
0
0
0
0
0
0
0
0
0
0
0
0
0
0
0
0
0
0
0
0
0
0
0
0
0
0
0
0
0
0
0
0
0
0
0
0
0
0
0
0
0
0
0
0
0
0
0
0
0
0
0
0
0
0
0
0
0
0
0
0
0
0
0
0
0
0
0
0
0
0
0
0
0
0
0
0
0
0
0
0
0
0
0
0
0
0
0
0
0
0
0
0
0
0
0
0
0
0
0
0
0
0
0
0
0
0
0
0
0
0
0
0
0
0
0
0
0
0
0
0
0
0
0
0
0
0
0
0
0
0
0
0
0
0
0
0
0
0
0
0
0
0
0
0
0
0
0
0
0
0
0
0
0
0
0
0
0
0
0
0
0
0
0
0
0
0
0
0
0
0
0
0
0
0
0
0
0
0
0
0
0
0
0
0
0
0
0
0
0
0
0
0
0
0
0
0
0
0
0
0
0
0
0
0
0
0
0
0
0
0
0
0
0
0
0
0
0
0
0
0
0
0
0
0
0
0
0
0
0
0
0
0
0
0
0
0
0
0
0
0
0
0
0
0
0
0
0
0
0
0
0
0
0
0
0
0
0
0
0
0
0
0
0
0
0
0
0
0
0
0
0
0
0
0
0
0
0
0
0
0
0
0
0
0
0
0
0
0
0
0
0
0
0
0
0
0
0
0
0
0
0
0
0
0
0
0
0
0
0
0
0
0
0
0
0
0
0
0
0
0
0
0
0
0
0
0
0
0
0
0
0
0
0
0
0
0
0
0
0
0
0
0
0
0
0
0
0
0
0
0
0
0
0
0
0
0
0
0
0
0
0
0
0
0
0
0
0
0
0
0
0
0
0
0
0
0
0
0
0
0
0
0
0
0
0
0
0
0
0
0
0
0
0
0
0
0
0
0
0
0
0
0
0
0
0
0
0
0
0
0
0
0
0
0
0
0
0
0
0
0
0
0
0
0
0
0
0
0
0
0
0
0
0
0
0
0
0
0
0
0
0
0
0
0
0
0
0
0
0
0
0
0
0
0
0
0
0
0
0
0
0
0
0
0
0
0
0
0
0
0
0
0
0
0
0
0
0
0
0
0
0
0
0
0
0
0
0
0
0
0
0
0
0
0
0
0
0
0
0
0
0
0
0
0
0
0
0
0
0
0
0
0
0
0
0
0
0
0
0
0
0
0
0
0
0
0
0
0
0
0
0
0
0
0
0
0
0
0
0
0
0
0
0
0
0
0
0
0
0
0
0
0
0
0
0
0
0
0
0
0
0
0
0
0
0
0
0
0
0
0
0
0
0
0
0
0
0
0
0
0
0
0
0
0
0
0
0
0
0
0
0
0
0
0
0
0
0
0
0
0
0
0
0
0
0
0
0
0
0
0
0
0
0
0
0
0
0
0
0
0
0
0
0
0
0
0
0
0
0
0
0
0
0
0
0
0
0
0
0
0
0
0
0
0
0
0
0
0
0
0
0
0
0
0
0
0
0
0
0
0
0
0
0
0
0
0
0
0
0
0
0
0
0
0
0
0
0
0
0
0
0
0
0
0
0
0
0
0
0
0
0
0
0
0
0
0
0
0
0
0
0
0
0
0
0
0
0
0
0
0
0
0
0
0
0
0
0
0
0
0
0
0
0
0
0
0
0
0
0
0
0
0
0
0
0
0
0
0
0
0
0
0
0
0
0
0
0
0
0
0
0
0
0
0
0
0
0
0
0
0
0
0
0
0
0
0
0
0
0
0
0
0
0
0
0
0
0
0
0
0
0
0
0
0
0
0
0
0
0
0
0
0
0
0
0
0
0
0
0
0
0
0
0
0
0
0
0
0
0
0
0
0
0
0
0
0
0
0
0
0
0
0
0
0
0
0
0
0
0
0
0
0
0
0
0
0
0
0
0
0
0
0
0
0
0
0
0
0
0
0
0
0
0
0
0
0
0
0
0
0
0
0
0
0
0
0
0
0
0
0
0
0
0
0
0
0
0
0
0
0
0
0
0
0
0
0
0
0
0
0
0
0
0
0
0
0
0
0
0
0
0
0
0
0
0
0
0
0
0
0
0
0
0
0
0
0
0
0
0
0
0
0
0
0
0
0
0
0
0
0
0
0
0
0
0
0
0
0
0
0
0
0
0
0
0
0
0
0
0
0
0
0
0
0
0
0
0
0
0
0
0
0
0
0
0
0
0
0
0
0
0
0
0
0
0
0
0
0
0
0
0
0
0
0
0
0
0
0
0
0
0
0
0
0
0
0
0
0
0
0
0
0
0
0
0
0
0
0
0
0
0
0
0
0
0
0
0
0
0
0
0
0
0
0
0
0
0
0
0
0
0
0
0
0
0
0
0
0
0
0
0
0
0
0
0
0
0
0
0
0
0
0
0
0
0
0
0
0
0
0
0
0
0
0
0
0
0
0
0
0
0
0
0
0
0
0
0
0
0
0
0
0
0
0
0
0
0
0
0
0
0
0
0
0
0
0
0
0
0
0
0
0
0
0
0
0
0
0
0
0
0
0
0
0
0
0
0
0
0
0
0
0
0
0
0
0
0
0
0
0
0
0
0
0
0
0
0
0
0
0
0
0
0
0
0
0
0
0
0
0
0
0
0
0
0
0
0
0
0
0
0
0
0
0
0
0
0
0
0
0
0
0
0
0
0
0
0
0
0
0
0
0
0
0
0
0
0
0
0
0
0
0
0
0
0
0
0
0
0
0
0
0
0
0
0
0
0
0
0
0
0
0
0
0
0
0
0
0
0
0
0
0
0
0
0
0
0
0
0
0
0
0
0
0
0
0
0
0
0
0
0
0
0
0
0
0
0
0
0
0
0
0
0
0
0
0
0
0
0
0
0
0
0
0
0
0
0
0
0
0
0
0
0
0
0
0
0
0
0
0
0
0
0
0
0
0
0
0
0
0
0
0
0
0
0
0
0
0
0
0
0
0
0
0
0
0
0
0
0
0
0
0
0
0
0
0
0
0
0
0
0
0
0
0
0
0
0
0
0
0
0
0
0
0
0
0
0
0
0
0
0
0
0
0
0
0
0
0
0
0
0
0
0
0
0
0
0
0
0
0
0
0
0
0
0
0
0
0
0
0
0
0
0
0
0
0
0
0
0
0
0
0
0
0
0
0
0
0
0
0
0
0
0
0
0
0
0
0
0
0
0
0
0
0
0
0
0
0
0
0
0
0
0
0
0
0
0
0
0
0
0
0
0
0
0
0
0
0
0
0
0
0
0
0
0
0
0
0
0
0
0
0
0
0
0
0
0
0
0
0
0
0
0
0
0
0
0
0
0
0
0
0
0
0
0
0
0
0
0
0
0
0
0
0
0
0
0
0
0
0
0
0
0
0
0
0
0
0
0
0
0
0
0
0
0
0
0
0
0
0
0
0
0
0
0
0
0
0
0
0
0
0
0
0
0
0
0
0
0
0
0
0
0
0
0
0
0
0
0
0
0
0
0
0
0
0
0
0
0
0
0
0
0
0
0
0
0
0
0
0
0
0
0
0
0
0
0
0
0
0
0
0
0
0
0
0
0
0
0
0
0
0
0
0
0
0
0
0
0
0
0
0
0
0
0
0
0
0
0
0
0
0
0
0
0
0
0
0
0
0
0
0
0
0
0
0
0
0
0
0
0
0
0
0
0
0
0
0
0
0
0
0
0
0
0
0
0
0
0
0
0
0
0
0
0
0
0
0
0
0
0
0
0
0
0
0
0
0
0
0
0
0
0
0
0
0
0
0
0
0
0
0
0
0
0
0
0
0
0
0
0
0
0
0
0
0
0
0
0
0
0
0
0
0
0
0
0
0
0
0
0
0
0
0
0
0
0
0
0
0
0
0
0
0
0
0
0
0
0
0
0
0
0
0
0
0
0
0
0
0
0
0
0
0
0
0
0
0
0
0
0
0
0
0
0
0
0
0
0
0
0
0
0
0
0
0
0
0
0
0
0
0
0
0
0
0
0
0
0
0
0
0
0
0
0
0
0
0
0
0
0
0
0
0
0
0
0
0
0
0
0
0
0
0
0
0
0
0
0
0
0
0
0
0
0
0
0
0
0
0
0
0
0
0
0
0
0
0
0
0
0
0
0
0
0
0
0
0
0
0
0
0
0
0
0
0
0
0
0
0
0
0
0
0
0
0
0
0
0
0
0
0
0
0
0
0
0
0
0
0
0
0
0
0
0
0
0
0
0
0
0
0
0
0
0
0
0
0
0
0
0
0
0
0
0
0
0
0
0
0
0
0
0
0
0
0
0
0
0
0
0
0
0
0
0
0
0
0
0
0
0
0
0
0
0
0
0
0
0
0
0
0
0
0
0
0
0
0
0
0
0
0
0
0
0
0
0
0
0
0
0
0
0
0
0
0
0
0
0
0
0
0
0
0
0
0
0
0
0
0
0
0
0
0
0
0
0
0
0
0
0
0
0
0
0
0
0
0
0
0
0
0
0
0
0
0
0
0
0
0
0
0
0
0
0
0
0
0
0
0
0
0
0
0
0
0
0
0
0
0
0
0
0
0
0
0
0
0
0
0
0
0
0
0
0
0
0
0
0
0
0
0
0
0
0
0
0
0
0
0
0
0
0
0
0
0
0
0
0
0
0
0
0
0
0
0
0
0
0
0
0
0
0
0
0
0
0
0
0
0
0
0
0
0
0
0
0
0
0
0
0
0
0
0
0
0
0
0
0
0
0
0
0
0
0
0
0
0
0
0
0
0
0
0
0
0
0
0
0
0
0
0
0
0
0
0
0
0
0
0
0
0
0
0
0
0
0
0
0
0
0
0
0
0
0
0
0
0
0
0
0
0
0
0
0
0
0
0
0
0
0
0
0
0
0
0
0
0
0
0
0
0
0
0
0
0
0
0
0
0
0
0
0
0
0
0
0
0
0
0
0
0
0
0
0
0
0
0
0
0
0
0
0
0
0
0
0
0
0
0
0
0
0
0
0
0
0
0
0
0
0
0
0
0
0
0
0
0
0
0
0
0
0
0
0
0
0
0
0
0
0
0
0
0
0
0
0
0
0
0
0
0
0
0
0
0
0
0
0
0
0
0
0
0
0
0
0
0
0
0
0
0
0
0
0
0
0
0
0
0
0
0
0
0
0
0
0
0
0
0
0
0
0
0
0
0
0
0
0
0
0
0
0
0
0
0
0
0
0
0
0
0
0
0
0
0
0
0
0
0
0
0
0
0
0
0
0
0
0
0
0
0
0
0
0
0
0
0
0
0
0
0
0
0
0
0
0
0
0
0
0
0
0
0
0
0
0
0
0
0
0
0
0
0
0
0
0
0
0
0
0
0
0
0
0
0
0
0
0
0
0
0
0
0
0
0
0
0
0
0
0
0
0
0
0
0
0
0
0
0
0
0
0
0
0
0
0
0
0
0
0
0
0
0
0
0
0
0
0
0
0
0
0
0
0
0
0
0
0
0
0
0
0
0
0
0
0
0
0
0
0
0
0
0
0
0
0
0
0
0
0
0
0
0
0
0
0
0
0
0
0
0
0
0
0
0
0
0
0
0
0
0
0
0
0
0
0
0
0
0
0
0
0
0
0
0
0
0
0
0
0
0
0
0
0
0
0
0
0
0
0
0
0
0
0
0
0
0
0
0
0
0
0
0
0
0
0
0
0
0
0
0
0
0
0
0
0
0
0
0
0
0
0
0
0
0
0
0
0
0
0
0
0
0
0
0
0
0
0
0
0
0
0
0
0
0
0
0
0
0
0
0
0
0
0
0
0
0
0
0
0
0
0
0
0
0
0
0
0
0
0
0
0
0
0
0
0
0
0
0
0
0
0
0
0
0
0
0
0
0
0
0
0
0
0
0
0
0
0
0
0
0
0
0
0
0
0
0
0
0
0
0
0
0
0
0
0
0
0
0
0
0
0
0
0
0
0
0
0
0
0
0
0
0
0
0
0
0
0
0
0
0
0
0
0
0
0
0
0
0
0
0
0
0
0
0
0
0
0
0
0
0
0
0
0
0
0
0
0
0
0
0
0
0
0
0
0
0
0
0
0
0
0
0
0
0
0
0
0
0
0
0
0
0
0
0
0
0
0
0
0
0
0
0
0
0
0
0
0
0
0
0
0
0
0
0
0
0
0
0
0
0
0
0
0
0
0
0
0
0
0
0
0
0
0
0
0
0
0
0
0
0
0
0
0
0
0
0
0
0
0
0
0
0
0
0
0
0
0
0
0
0
0
0
0
0
0
0
0
0
0
0
0
0
0
0
0
0
0
0
0
0
0
0
0
0
0
0
0
0
0
0
0
0
0
0
0
0
0
0
0
0
0
0
0
0
0
0
0
0
0
0
0
0
0
0
0
0
0
0
0
0
0
0
0
0
0
0
0
0
0
0
0
0
0
0
0
0
0
0
0
0
0
0
0
0
0
0
0
0
0
0
0
0
0
0
0
0
0
0
0
0
0
0
0
0
0
0
0
0
0
0
0
0
0
0
0
0
0
0
0
0
0
0
0
0
0
0
0
0
0
0
0
0
0
0
0
0
0
0
0
0
0
0
0
0
0
0
0
0
0
0
0
0
0
0
0
0
0
0
0
0
0
0
0
0
0
0
0
0
0
0
0
0
0
0
0
0
0
0
0
0
0
0
0
0
0
0
0
0
0
0
0
0
0
0
0
0
0
0
0
0
0
0
0
0
0
0
0
0
0
0
0
0
0
0
0
0
0
0
0
0
0
0
0
0
0
0
0
0
0
0
0
0
0
0
0
0
0
0
0
0
0
0
0
0
0
0
0
0
0
0
0
0
0
0
0
0
0
0
0
0
0
0
0
0
0
0
0
0
0
0
0
0
0
0
0
0
0
0
0
0
0
0
0
0
0
0
0
0
0
0
0
0
0
0
0
0
0
0
0
0
0
0
0
0
0
0
0
0
0
0
0
0
0
0
0
0
0
0
0
0
0
0
0
0
0
0
0
0
0
0
0
0
0
0
0
0
0
0
0
0
0
0
0
0
0
0
0
0
0
0
0
0
0
0
0
0
0
0
0
0
0
0
0
0
0
0
0
0
0
0
0
0
0
0
0
0
0
0
0
0
0
0
0
0
0
0
0
0
0
0
0
0
0
0
0
0
0
0
0
0
0
0
0
0
0
0
0
0
0
0
0
0
0
0
0
0
0
0
0
0
0
0
0
0
0
0
0
0
0
0
0
0
0
0
0
0
0
0
0
0
0
0
0
0
0
0
0
0
0
0
0
0
0
0
0
0
0
0
0
0
0
0
0
0
0
0
0
0
0
0
0
0
0
0
0
0
0
0
0
0
0
0
0
0
0
0
0
0
0
0
0
0
0
0
0
0
0
0
0
0
0
0
0
0
0
0
0
0
0
0
0
0
0
0
0
0
0
0
0
0
0
0
0
0
0
0
0
0
0
0
0
0
0
0
0
0
0
0
0
0
0
0
0
0
0
0
0
0
0
0
0
0
0
0
0
0
0
0
0
0
0
0
0
0
0
0
0
0
0
0
0
0
0
0
0
0
0
0
0
0
0
0
0
0
0
0
0
0
0
0
0
0
0
0
0
0
0
0
0
0
0
0
0
0
0
0
0
0
0
0
0
0
0
0
0
0
0
0
0
0
0
0
0
0
0
0
0
0
0
0
0
0
0
0
0
0
0
0
0
0
0
0
0
0
0
0
0
0
0
0
0
0
0
0
0
0
0
0
0
0
0
0
0
0
0
0
0
0
0
0
0
0
0
0
0
0
0
0
0
0
0
0
0
0
0
0
0
0
0
0
0
0
0
0
0
0
0
0
0
0
0
0
0
0
0
0
0
0
0
0
0
0
0
0
0
0
0
0
0
0
0
0
0
0
0
0
0
0
0
0
0
0
0
0
0
0
0
0
0
0
0
0
0
0
0
0
0
0
0
0
0
0
0
0
0
0
0
0
0
0
0
0
0
0
0
0
0
0
0
0
0
0
0
0
0
0
0
0
0
0
0
0
0
0
0
0
0
0
0
0
0
0
0
0
0
0
0
0
0
0
0
0
0
0
0
0
0
0
0
0
0
0
0
0
0
0
0
0
0
0
0
0
0
0
0
0
0
0
0
0
0
0
0
0
0
0
0
0
0
0
0
0
0
0
0
0
0
0
0
0
0
0
0
0
0
0
0
0
0
0
0
0
0
0
0
0
0
0
0
0
0
0
0
0
0
0
0
0
0
0
0
0
0
0
0
0
0
0
0
0
0
0
0
0
0
0
0
0
0
0
0
0
0
0
0
0
0
0
0
0
0
0
0
0
0
0
0
0
0
0
0
0
0
0
0
0
0
0
0
0
0
0
0
0
0
0
0
0
0
0
0
0
0
0
0
0
0
0
0
0
0
0
0
0
0
0
0
0
0
0
0
0
0
0
0
0
0
0
0
0
0
0
0
0
0
0
0
0
0
0
0
0
0
0
0
0
0
0
0
0
0
0
0
0
0
0
0
0
0
0
0
0
0
0
0
0
0
0
0
0
0
0
0
0
0
0
0
0
0
0
0
0
0
0
0
0
0
0
0
0
0
0
0
0
0
0
0
0
0
0
0
0
0
0
0
0
0
0
0
0
0
0
0
0
0
0
0
0
0
0
0
0
0
0
0
0
0
0
0
0
0
0
0
0
0
0
0
0
0
0
0
0
0
0
0
0
0
0
0
0
0
0
0
0
0
0
0
0
0
0
0
0
0
0
0
0
0
0
0
0
0
0
0
0
0
0
0
0
0
0
0
0
0
0
0
0
0
0
0
0
0
0
0
0
0
0
0
0
0
0
0
0
0
0
0
0
0
0
0
0
0
0
0
0
0
0
0
0
0
0
0
0
0
0
0
0
0
0
0
0
0
0
0
0
0
0
0
0
0
0
0
0
0
0
0
0
0
0
0
0
0
0
0
0
0
0
0
0
0
0
0
0
0
0
0
0
0
0
0
0
0
0
0
0
0
0
0
0
0
0
0
0
0
0
0
0
0
0
0
0
0
0
0
0
0
0
0
0
0
0
0
0
0
0
0
0
0
0
0
0
0
0
0
0
0
0
0
0
0
0
0
0
0
0
0
0
0
0
0
0
0
0
0
0
0
0
0
0
0
0
0
0
0
0
0
0
0
0
0
0
0
0
0
0
0
0
0
0
0
0
0
0
0
0
0
0
0
0
0
0
0
0
0
0
0
0
0
0
0
0
0
0
0
0
0
0
0
0
0
0
0
0
0
0
0
0
0
0
0
0
0
0
0
0
0
0
0
0
0
0
0
0
0
0
0
0
0
0
0
0
0
0
0
0
0
0
0
0
0
0
0
0
0
0
0
0
0
0
0
0
0
0
0
0
0
0
0
0
0
0
0
0
0
0
0
0
0
0
0
0
0
0
0
0
0
0
0
0
0
0
0
0
0
0
0
0
0
0
0
0
0
0
0
0
0
0
0
0
0
0
0
0
0
0
0
0
0
0
0
0
0
0
0
0
0
0
0
0
0
0
0
0
0
0
0
0
0
0
0
0
0
0
0
0
0
0
0
0
0
0
0
0
0
0
0
0
0
0
0
0
0
0
0
0
0
0
0
0
0
0
0
0
0
0
0
0
0
0
0
0
0
0
0
0
0
0
0
0
0
0
0
0
0
0
0
0
0
0
0
0
0
0
0
0
0
0
0
0
0
0
0
0
0
0
0
0
0
0
0
0
0
0
0
0
0
0
0
0
0
0
0
0
0
0
0
0
0
0
0
0
0
0
0
0
0
0
0
0
0
0
0
0
0
0
0
0
0
0
0
0
0
0
0
0
0
0
0
0
0
0
0
0
0
0
0
0
0
0
0
0
0
0
0
0
0
0
0
0
0
0
0
0
0
0
0
0
0
0
0
0
0
0
0
0
0
0
0
0
0
0
0
0
0
0
0
0
0
0
0
0
0
0
0
0
0
0
0
0
0
0
0
0
0
0
0
0
0
0
0
0
0
0
0
0
0
0
0
0
0
0
0
0
0
0
0
0
0
0
0
0
0
0
0
0
0
0
0
0
0
0
0
0
0
0
0
0
0
0
0
0
0
0
0
0
0
0
0
0
0
0
0
0
0
0
0
0
0
0
0
0
0
0
0
0
0
0
0
0
0
0
0
0
0
0
0
0
0
0
0
0
0
0
0
0
0
0
0
0
0
0
0
0
0
0
0
0
0
0
0
0
0
0
0
0
0
0
0
0
0
0
0
0
0
0
0
0
0
0
0
0
0
0
0
0
0
0
0
0
0
0
0
0
0
0
0
0
0
0
0
0
0
0
0
0
0
0
0
0
0
0
0
0
0
0
0
0
0
0
0
0
0
0
0
0
0
0
0
0
0
0
0
0
0
0
0
0
0
0
0
0
0
0
0
0
0
0
0
0
0
0
0
0
0
0
0
0
0
0
0
0
0
0
0
0
0
0
0
0
0
0
0
0
0
0
0
0
0
0
0
0
0
0
0
0
0
0
0
0
0
0
0
0
0
0
0
0
0
0
0
0
0
0
0
0
0
0
0
0
0
0
0
0
0
0
0
0
0
0
0
0
0
0
0
0
0
0
0
0
0
0
0
0
0
0
0
0
0
0
0
0
0
0
0
0
0
0
0
0
0
0
0
0
0
0
0
0
0
0
0
0
0
0
0
0
0
0
0
0
0
0
0
0
0
0
0
0
0
0
0
0
0
0
0
0
0
0
0
0
0
0
0
0
0
0
0
0
0
0
0
0
0
0
0
0
0
0
0
0
0
0
0
0
0
0
0
0
0
0
0
0
0
0
0
0
0
0
0
0
0
0
0
0
0
0
0
0
0
0
0
0
0
0
0
0
0
0
0
0
0
0
0
0
0
0
0
0
0
0
0
0
0
0
0
0
0
0
0
0
0
0
0
0
0
0
0
0
0
0
0
0
0
0
0
0
0
0
0
0
0
0
0
0
0
0
0
0
0
0
0
0
0
0
0
0
0
0
0
0
0
0
0
0
0
0
0
0
0
0
0
0
0
0
0
0
0
0
0
0
0
0
0
0
0
0
0
0
0
0
0
0
0
0
0
0
0
0
0
0
0
0
0
0
0
0
0
0
0
0
0
0
0
0
0
0
0
0
0
0
0
0
0
0
0
0
0
0
0
0
0
0
0
0
0
0
0
0
0
0
0
0
0
0
0
0
0
0
0
0
0
0
0
0
0
0
0
0
0
0
0
0
0
0
0
0
0
0
0
0
0
0
0
0
0
0
0
0
0
0
0
0
0
0
0
0
0
0
0
0
0
0
0
0
0
0
0
0
0
0
0
0
0
0
0
0
0
0
0
0
0
0
0
0
0
0
0
0
0
0
0
0
0
0
0
0
0
0
0
0
0
0
0
0
0
0
0
0
0
0
0
0
0
0
0
0
0
0
0
0
0
0
0
0
0
0
0
0
0
0
0
0
0
0
0
0
0
0
0
0
0
0
0
0
0
0
0
0
0
0
0
0
0
0
0
0
0
0
0
0
0
0
0
0
0
0
0
0
0
0
0
0
0
0
0
0
0
0
0
0
0
0
0
0
0
0
0
0
0
0
0
0
0
0
0
0
0
0
0
0
0
0
0
0
0
0
0
0
0
0
0
0
0
0
0
0
0
0
0
0
0
0
0
0
0
0
0
0
0
0
0
0
0
0
0
0
0
0
0
0
0
0
0
0
0
0
0
0
0
0
0
0
0
0
0
0
0
0
0
0
0
0
0
0
0
0
0
0
0
0
0
0
0
0
0
0
0
0
0
0
0
0
0
0
0
0
0
0
0
0
0
0
0
0
0
0
0
0
0
0
0
0
0
0
0
0
0
0
0
0
0
0
0
0
0
0
0
0
0
0
0
0
0
0
0
0
0
0
0
0
0
0
0
0
0
0
0
0
0
0
0
0
0
0
0
0
0
0
0
0
0
0
0
0
0
0
0
0
0
0
0
0
0
0
0
0
0
0
0
0
0
0
0
0
0
0
0
0
0
0
0
0
0
0
0
0
0
0
0
0
0
0
0
0
0
0
0
0
0
0
0
0
0
0
0
0
0
0
0
0
0
0
0
0
0
0
0
0
0
0
0
0
0
0
0
0
0
0
0
0
0
0
0
0
0
0
0
0
0
0
0
0
0
0
0
0
0
0
0
0
0
0
0
0
0
0
0
0
0
0
0
0
0
0
0
0
0
0
0
0
0
0
0
0
0
0
0
0
0
0
0
0
0
0
0
0
0
0
0
0
0
0
0
0
0
0
0
0
0
0
0
0
0
0
0
0
0
0
0
0
0
0
0
0
0
0
0
0
0
0
0
0
0
0
0
0
0
0
0
0
0
0
0
0
0
0
0
0
0
0
0
0
0
0
0
0
0
0
0
0
0
0
0
0
0
0
0
0
0
0
0
0
0
0
0
0
0
0
0
0
0
0
0
0
0
0
0
0
0
0
0
0
0
0
0
0
0
0
0
0
0
0
0
0
0
0
0
0
0
0
0
0
0
0
0
0
0
0
0
0
0
0
0
0
0
0
0
0
0
0
0
0
0
0
0
0
0
0
0
0
0
0
0
0
0
0
0
0
0
0
0
0
0
0
0
0
0
0
0
0
0
0
0
0
0
0
0
0
0
0
0
0
0
0
0
0
0
0
0
0
0
0
0
0
0
0
0
0
0
0
0
0
0
0
0
0
0
0
0
0
0
0
0
0
0
0
0
0
0
0
0
0
0
0
0
0
0
0
0
0
0
0
0
0
0
0
0
0
0
0
0
0
0
0
0
0
0
0
0
0
0
0
0
0
0
0
0
0
0
0
0
0
0
0
0
0
0
0
0
0
0
0
0
0
0
0
0
0
0
0
0
0
0
0
0
0
0
0
0
0
0
0
0
0
0
0
0
0
0
0
0
0
0
0
0
0
0
0
0
0
0
0
0
0
0
0
0
0
0
0
0
0
0
0
0
0
0
0
0
0
0
0
0
0
0
0
0
0
0
0
0
0
0
0
0
0
0
0
0
0
0
0
0
0
0
0
0
0
0
0
0
0
0
0
0
0
0
0
0
0
0
0
0
0
0
0
0
0
0
0
0
0
0
0
0
0
0
0
0
0
0
0
0
0
0
0
0
0
0
0
0
0
0
0
0
0
0
0
0
0
0
0
0
0
0
0
0
0
0
0
0
0
0
0
0
0
0
0
0
0
0
0
0
0
0
0
0
0
0
0
0
0
0
0
0
0
0
0
0
0
0
0
0
0
0
0
0
0
0
0
0
0
0
0
0
0
0
0
0
0
0
0
0
0
0
0
0
0
0
0
0
0
0
0
0
0
0
0
0
0
0
0
0
0
0
0
0
0
0
0
0
0
0
0
0
0
0
0
0
0
0
0
0
0
0
0
0
0
0
0
0
0
0
0
0
0
0
0
0
0
0
0
0
0
0
0
0
0
0
0
0
0
0
0
0
0
0
0
0
0
0
0
0
0
0
0
0
0
0
0
0
0
0
0
0
0
0
0
0
0
0
0
0
0
0
0
0
0
0
0
0
0
0
0
0
0
0
0
0
0
0
0
0
0
0
0
0
0
0
0
0
0
0
0
0
0
0
0
0
0
0
0
0
0
0
0
0
0
0
0
0
0
0
0
0
0
0
0
0
0
0
0
0
0
0
0
0
0
0
0
0
0
0
0
0
0
0
0
0
0
0
0
0
0
0
0
0
0
0
0
0
0
0
0
0
0
0
0
0
0
0
0
0
0
0
0
0
0
0
0
0
0
0
0
0
0
0
0
0
0
0
0
0
0
0
0
0
0
0
0
0
0
0
0
0
0
0
0
0
0
0
0
0
0
0
0
0
0
0
0
0
0
0
0
0
0
0
0
0
0
0
0
0
0
0
0
0
0
0
0
0
0
0
0
0
0
0
0
0
0
0
0
0
0
0
0
0
0
0
0
0
0
0
0
0
0
0
0
0
0
0
0
0
0
0
0
0
0
0
0
0
0
0
0
0
0
0
0
0
0
0
0
0
0
0
0
0
0
0
0
0
0
0
0
0
0
0
0
0
0
0
0
0
0
0
0
0
0
0
0
0
0
0
0
0
0
0
0
0
0
0
0
0
0
0
0
0
0
0
0
0
0
0
0
0
0
0
0
0
0
0
0
0
0
0
0
0
0
0
0
0
0
0
0
0
0
0
0
0
0
0
0
0
0
0
0
0
0
0
0
0
0
0
0
0
0
0
0
0
0
0
0
0
0
0
0
0
0
0
0
0
0
0
0
0
0
0
0
0
0
0
0
0
0
0
0
0
0
0
0
0
0
0
0
0
0
0
0
0
0
0
0
0
0
0
0
0
0
0
0
0
0
0
0
0
0
0
0
0
0
0
0
0
0
0
0
0
0
0
0
0
0
0
0
0
0
0
0
0
0
0
0
0
0
0
0
0
0
0
0
0
0
0
0
0
0
0
0
0
0
0
0
0
0
0
0
0
0
0
0
0
0
0
0
0
0
0
0
0
0
0
0
0
0
0
0
0
0
0
0
0
0
0
0
0
0
0
0
0
0
0
0
0
0
0
0
0
0
0
0
0
0
0
0
0
0
0
0
0
0
0
0
0
0
0
0
0
0
0
0
0
0
0
0
0
0
0
0
0
0
0
0
0
0
0
0
0
0
0
0
0
0
0
0
0
0
0
0
0
0
0
0
0
0
0
0
0
0
0
0
0
0
0
0
0
0
0
0
0
0
0
0
0
0
0
0
0
0
0
0
0
0
0
0
0
0
0
0
0
0
0
0
0
0
0
0
0
0
0
0
0
0
0
0
0
0
0
0
0
0
0
0
0
0
0
0
0
0
0
0
0
0
0
0
0
0
0
0
0
0
0
0
0
0
0
0
0
0
0
0
0
0
0
0
0
0
0
0
0
0
0
0
0
0
0
0
0
0
0
0
0
0
0
0
0
0
0
0
0
0
0
0
0
0
0
0
0
0
0
0
0
0
0
0
0
0
0
0
0
0
0
0
0
0
0
0
0
0
0
0
0
0
0
0
0
0
0
0
0
0
0
0
0
0
0
0
0
0
0
0
0
0
0
0
0
0
0
0
0
0
0
0
0
0
0
0
0
0
0
0
0
0
0
0
0
0
0
0
0
0
0
0
0
0
0
0
0
0
0
0
0
0
0
0
0
0
0
0
0
0
0
0
0
0
0
0
0
0
0
0
0
0
0
0
0
0
0
0
0
0
0
0
0
0
0
0
0
0
0
0
0
0
0
0
0
0
0
0
0
0
0
0
0
0
0
0
0
0
0
0
0
0
0
0
0
0
0
0
0
0
0
0
0
0
0
0
0
0
0
0
0
0
0
0
0
0
0
0
0
0
0
0
0
0
0
0
0
0
0
0
0
0
0
0
0
0
0
0
0
0
0
0
0
0
0
0
0
0
0
0
0
0
0
0
0
0
0
0
0
0
0
0
0
0
0
0
0
0
0
0
0
0
0
0
0
0
0
0
0
0
0
0
0
0
0
0
0
0
0
0
0
0
0
0
0
0
0
0
0
0
0
0
0
0
0
0
0
0
0
0
0
0
0
0
0
0
0
0
0
0
0
0
0
0
0
0
0
0
0
0
0
0
0
0
0
0
0
0
0
0
0
0
0
0
0
0
0
0
0
0
0
0
0
0
0
0
0
0
0
0
0
0
0
0
0
0
0
0
0
0
0
0
0
0
0
0
0
0
0
0
0
0
0
0
0
0
0
0
0
0
0
0
0
0
0
0
0
0
0
0
0
0
0
0
0
0
0
0
0
0
0
0
0
0
0
0
0
0
0
0
0
0
0
0
0
0
0
0
0
0
0
0
0
0
0
0
0
0
0
0
0
0
0
0
0
0
0
0
0
0
0
0
0
0
0
0
0
0
0
0
0
0
0
0
0
0
0
0
0
0
0
0
0
0
0
0
0
0
0
0
0
0
0
0
0
0
0
0
0
0
0
0
0
0
0
0
0
0
0
0
0
0
0
0
0
0
0
0
0
0
0
0
0
0
0
0
0
0
0
0
0
0
0
0
0
0
0
0
0
0
0
0
0
0
0
0
0
0
0
0
0
0
0
0
0
0
0
0
0
0
0
0
0
0
0
0
0
0
0
0
0
0
0
0
0
0
0
0
0
0
0
0
0
0
0
0
0
0
0
0
0
0
0
0
0
0
0
0
0
0
0
0
0
0
0
0
0
0
0
0
0
0
0
0
0
0
0
0
0
0
0
0
0
0
0
0
0
0
0
0
0
0
0
0
0
0
0
0
0
0
0
0
0
0
0
0
0
0
0
0
0
0
0
0
0
0
0
0
0
0
0
0
0
0
0
0
0
0
0
0
0
0
0
0
0
0
0
0
0
0
0
0
0
0
0
0
0
0
0
0
0
0
0
0
0
0
0
0
0
0
0
0
0
0
0
0
0
0
0
0
0
0
0
0
0
0
0
0
0
0
0
0
0
0
0
0
0
0
0
0
0
0
0
0
0
0
0
0
0
0
0
0
0
0
0
0
0
0
0
0
0
0
0
0
0
0
0
0
0
0
0
0
0
0
0
0
0
0
0
0
0
0
0
0
0
0
0
0
0
0
0
0
0
0
0
0
0
0
0
0
0
0
0
0
0
0
0
0
0
0
0
0
0
0
0
0
0
0
0
0
0
0
0
0
0
0
0
0
0
0
0
0
0
0
0
0
0
0
0
0
0
0
0
0
0
0
0
0
0
0
0
0
0
0
0
0
0
0
0
0
0
0
0
0
0
0
0
0
0
0
0
0
0
0
0
0
0
0
0
0
0
0
0
0
0
0
0
0
0
0
0
0
0
0
0
0
0
0
0
0
0
0
0
0
0
0
0
0
0
0
0
0
0
0
0
0
0
0
0
0
0
0
0
0
0
0
0
0
0
0
0
0
0
0
0
0
0
0
0
0
0
0
0
0
0
0
0
0
0
0
0
0
0
0
0
0
0
0
0
0
0
0
0
0
0
0
0
0
0
0
0
0
0
0
0
0
0
0
0
0
0
0
0
0
0
0
0
0
0
0
0
0
0
0
0
0
0
0
0
0
0
0
0
0
0
0
0
0
0
0
0
0
0
0
0
0
0
0
0
0
0
0
0
0
0
0
0
0
0
0
0
0
0
0
0
0
0
0
0
0
0
0
0
0
0
0
0
0
0
0
0
0
0
0
0
0
0
0
0
0
0
0
0
0
0
0
0
0
0
0
0
0
0
0
0
0
0
0
0
0
0
0
0
0
0
0
0
0
0
0
0
0
0
0
0
0
0
0
0
0
0
0
0
0
0
0
0
0
0
0
0
0
0
0
0
0
0
0
0
0
0
0
0
0
0
0
0
0
0
0
0
0
0
0
0
0
0
0
0
0
0
0
0
0
0
0
0
0
0
0
0
0
0
0
0
0
0
0
0
0
0
0
0
0
0
0
0
0
0
0
0
0
0
0
0
0
0
0
0
0
0
0
0
0
0
0
0
0
0
0
0
0
0
0
0
0
0
0
0
0
0
0
0
0
0
0
0
0
0
0
0
0
0
0
0
0
0
0
0
0
0
0
0
0
0
0
0
0
0
0
0
0
0
0
0
0
0
0
0
0
0
0
0
0
0
0
0
0
0
0
0
0
0
0
0
0
0
0
0
0
0
0
0
0
0
0
0
0
0
0
0
0
0
0
0
0
0
0
0
0
0
0
0
0
0
0
0
0
0
0
0
0
0
0
0
0
0
0
0
0
0
0
0
0
0
0
0
0
0
0
0
0
0
0
0
0
0
0
0
0
0
0
0
0
0
0
0
0
0
0
0
0
0
0
0
0
0
0
0
0
0
0
0
0
0
0
0
0
0
0
0
0
0
0
0
0
0
0
0
0
0
0
0
0
0
0
0
0
0
0
0
0
0
0
0
0
0
0
0
0
0
0
0
0
0
0
0
0
0
0
0
0
0
0
0
0
0
0
0
0
0
0
0
0
0
0
0
0
0
0
0
0
0
0
0
0
0
0
0
0
0
0
0
0
0
0
0
0
0
0
0
0
0
0
0
0
0
0
0
0
0
0
0
0
0
0
0
0
0
0
0
0
0
0
0
0
0
0
0
0
0
0
0
0
0
0
0
0
0
0
0
0
0
0
0
0
0
0
0
0
0
0
0
0
0
0
0
0
0
0
0
0
0
0
0
0
0
0
0
0
0
0
0
0
0
0
0
0
0
0
0
0
0
0
0
0
0
0
0
0
0
0
0
0
0
0
0
0
0
0
0
0
0
0
0
0
0
0
0
0
0
0
0
0
0
0
0
0
0
0
0
0
0
0
0
0
0
0
0
0
0
0
0
0
0
0
0
0
0
0
0
0
0
0
0
0
0
0
0
0
0
0
0
0
0
0
0
0
0
0
0
0
0
0
0
0
0
0
0
0
0
0
0
0
0
0
0
0
0
0
0
0
0
0
0
0
0
0
0
0
0
0
0
0
0
0
0
0
0
0
0
0
0
0
0
0
0
0
0
0
0
0
0
0
0
0
0
0
0
0
0
0
0
0
0
0
0
0
0
0
0
0
0
0
0
0
0
0
0
0
0
0
0
0
0
0
0
0
0
0
0
0
0
0
0
0
0
0
0
0
0
0
0
0
0
0
0
0
0
0
0
0
0
0
0
0
0
0
0
0
0
0
0
0
0
0
0
0
0
0
0
0
0
0
0
0
0
0
0
0
0
0
0
0
0
0
0
0
0
0
0
0
0
0
0
0
0
0
0
0
0
0
0
0
0
0
0
0
0
0
0
0
0
0
0
0
0
0
0
0
0
0
0
0
0
0
0
0
0
0
0
0
0
0
0
0
0
0
0
0
0
0
0
0
0
0
0
0
0
0
0
0
0
0
0
0
0
0
0
0
0
0
0
0
0
0
0
0
0
0
0
0
0
0
0
0
0
0
0
0
0
0
0
0
0
0
0
0
0
0
0
0
0
0
0
0
0
0
0
0
0
0
0
0
0
0
0
0
0
0
0
0
0
0
0
0
0
0
0
0
0
0
0
0
0
0
0
0
0
0
0
0
0
0
0
0
0
0
0
0
0
0
0
0
0
0
0
0
0
0
0
0
0
0
0
0
0
0
0
0
0
0
0
0
0
0
0
0
0
0
0
0
0
0
0
0
0
0
0
0
0
0
0
0
0
0
0
0
0
0
0
0
0
0
0
0
0
0
0
0
0
0
0
0
0
0
0
0
0
0
0
0
0
0
0
0
0
0
0
0
0
0
0
0
0
0
0
0
0
0
0
0
0
0
0
0
0
0
0
0
0
0
0
0
0
0
0
0
0
0
0
0
0
0
0
0
0
0
0
0
0
0
0
0
0
0
0
0
0
0
0
0
0
0
0
0
0
0
0
0
0
0
0
0
0
0
0
0
0
0
0
0
0
0
0
0
0
0
0
0
0
0
0
0
0
0
0
0
0
0
0
0
0
0
0
0
0
0
0
0
0
0
0
0
0
0
0
0
0
0
0
0
0
0
0
0
0
0
0
0
0
0
0
0
0
0
0
0
0
0
0
0
0
0
0
0
0
0
0
0
0
0
0
0
0
0
0
0
0
0
0
0
0
0
0
0
0
0
0
0
0
0
0
0
0
0
0
0
0
0
0
0
0
0
0
0
0
0
0
0
0
0
0
0
0
0
0
0
0
0
0
0
0
0
0
0
0
0
0
0
0
0
0
0
0
0
0
0
0
0
0
0
0
0
0
0
0
0
0
0
0
0
0
0
0
0
0
0
0
0
0
0
0
0
0
0
0
0
0
0
0
0
0
0
0
0
0
0
0
0
0
0
0
0
0
0
0
0
0
0
0
0
0
0
0
0
0
0
0
0
0
0
0
0
0
0
0
0
0
0
0
0
0
0
0
0
0
0
0
0
0
0
0
0
0
0
0
0
0
0
0
0
0
0
0
0
0
0
0
0
0
0
0
0
0
0
0
0
0
0
0
0
0
0
0
0
0
0
0
0
0
0
0
0
0
0
0
0
0
0
0
0
0
0
0
0
0
0
0
0
0
0
0
0
0
0
0
0
0
0
0
0
0
0
0
0
0
0
0
0
0
0
0
0
0
0
0
0
0
0
0
0
0
0
0
0
0
0
0
0
0
0
0
0
0
0
0
0
0
0
0
0
0
0
0
0
0
0
0
0
0
0
0
0
0
0
0
0
0
0
0
0
0
0
0
0
0
0
0
0
0
0
0
0
0
0
0
0
0
0
0
0
0
0
0
0
0
0
0
0
0
0
0
0
0
0
0
0
0
0
0
0
0
0
0
0
0
0
0
0
0
0
0
0
0
0
0
0
0
0
0
0
0
0
0
0
0
0
0
0
0
0
0
0
0
0
0
0
0
0
0
0
0
0
0
0
0
0
0
0
0
0
0
0
0
0
0
0
0
0
0
0
0
0
0
0
0
0
0
0
0
0
0
0
0
0
0
0
0
0
0
0
0
0
0
0
0
0
0
0
0
0
0
0
0
0
0
0
0
0
0
0
0
0
0
0
0
0
0
0
0
0
0
0
0
0
0
0
0
0
0
0
0
0
0
0
0
0
0
0
0
0
0
0
0
0
0
0
0
0
0
0
0
0
0
0
0
0
0
0
0
0
0
0
0
0
0
0
0
0
0
0
0
0
0
0
0
0
0
0
0
0
0
0
0
0
0
0
0
0
0
0
0
0
0
0
0
0
0
0
0
0
0
0
0
0
0
0
0
0
0
0
0
0
0
0
0
0
0
0
0
0
0
0
0
0
0
0
0
0
0
0
0
0
0
0
0
0
0
0
0
0
0
0
0
0
0
0
0
0
0
0
0
0
0
0
0
0
0
0
0
0
0
0
0
0
0
0
0
0
0
0
0
0
0
0
0
0
0
0
0
0
0
0
0
0
0
0
0
0
0
0
0
0
0
0
0
0
0
0
0
0
0
0
0
0
0
0
0
0
0
0
0
0
0
0
0
0
0
0
0
0
0
0
0
0
0
0
0
0
0
0
0
0
0
0
0
0
0
0
0
0
0
0
0
0
0
0
0
0
0
0
0
0
0
0
0
0
0
0
0
0
0
0
0
0
0
0
0
0
0
0
0
0
0
0
0
0
0
0
0
0
0
0
0
0
0
0
0
0
0
0
0
0
0
0
0
0
0
0
0
0
0
0
0
0
0
0
0
0
0
0
0
0
0
0
0
0
0
0
0
0
0
0
0
0
0
0
0
0
0
0
0
0
0
0
0
0
0
0
0
0
0
0
0
0
0
0
0
0
0
0
0
0
0
0
0
0
0
0
0
0
0
0
0
0
0
0
0
0
0
0
0
0
0
0
0
0
0
0
0
0
0
0
0
0
0
0
0
0
0
0
0
0
0
0
0
0
0
0
0
0
0
0
0
0
0
0
0
0
0
0
0
0
0
0
0
0
0
0
0
0
0
0
0
0
0
0
0
0
0
0
0
0
0
0
0
0
0
0
0
0
0
0
0
0
0
0
0
0
0
0
0
0
0
0
0
0
0
0
0
0
0
0
0
0
0
0
0
0
0
0
0
0
0
0
0
0
0
0
0
0
0
0
0
0
0
0
0
0
0
0
0
0
0
0
0
0
0
0
0
0
0
0
0
0
0
0
0
0
0
0
0
0
0
0
0
0
0
0
0
0
0
0
0
0
0
0
0
0
0
0
0
0
0
0
0
0
0
0
0
0
0
0
0
0
0
0
0
0
0
0
0
0
0
0
0
0
0
0
0
0
0
0
0
0
0
0
0
0
0
0
0
0
0
0
0
0
0
0
0
0
0
0
0
0
0
0
0
0
0
0
0
0
0
0
0
0
0
0
0
0
0
0
0
0
0
0
0
0
0
0
0
0
0
0
0
0
0
0
0
0
0
0
0
0
0
0
0
0
0
0
0
0
0
0
0
0
0
0
0
0
0
0
0
0
0
0
0
0
0
0
0
0
0
0
0
0
0
0
0
0
0
0
0
0
0
0
0
0
0
0
0
0
0
0
0
0
0
0
0
0
0
0
0
0
0
0
0
0
0
0
0
0
0
0
0
0
0
0
0
0
0
0
0
0
0
0
0
0
0
0
0
0
0
0
0
0
0
0
0
0
0
0
0
0
0
0
0
0
0
0
0
0
0
0
0
0
0
0
0
0
0
0
0
0
0
0
0
0
0
0
0
0
0
0
0
0
0
0
0
0
0
0
0
0
0
0
0
0
0
0
0
0
0
0
0
0
0
0
0
0
0
0
0
0
0
0
0
0
0
0
0
0
0
0
0
0
0
0
0
0
0
0
0
0
0
0
0
0
0
0
0
0
0
0
0
0
0
0
0
0
0
0
0
0
0
0
0
0
0
0
0
0
0
0
0
0
0
0
0
0
0
0
0
0
0
0
0
0
0
0
0
0
0
0
0
0
0
0
0
0
0
0
0
0
0
0
0
0
0
0
0
0
0
0
0
0
0
0
0
0
0
0
0
0
0
0
0
0
0
0
0
0
0
0
0
0
0
0
0
0
0
0
0
0
0
0
0
0
0
0
0
0
0
0
0
0
0
0
0
0
0
0
0
0
0
0
0
0
0
0
0
0
0
0
0
0
0
0
0
0
0
0
0
0
0
0
0
0
0
0
0
0
0
0
0
0
0
0
0
0
0
0
0
0
0
0
0
0
0
0
0
0
0
0
0
0
0
0
0
0
0
0
0
0
0
0
0
0
0
0
0
0
0
0
0
0
0
0
0
0
0
0
0
0
0
0
0
0
0
0
0
0
0
0
0
0
0
0
0
0
0
0
0
0
0
0
0
0
0
0
0
0
0
0
0
0
0
0
0
0
0
0
0
0
0
0
0
0
0
0
0
0
0
0
0
0
0
0
0
0
0
0
0
0
0
0
0
0
0
0
0
0
0
0
0
0
0
0
0
0
0
0
0
0
0
0
0
0
0
0
0
0
0
0
0
0
0
0
0
0
0
0
0
0
0
0
0
0
0
0
0
0
0
0
0
0
0
0
0
0
0
0
0
0
0
0
0
0
0
0
0
0
0
0
0
0
0
0
0
0
0
0
0
0
0
0
0
0
0
0
0
0
0
0
0
0
0
0
0
0
0
0
0
0
0
0
0
0
0
0
0
0
0
0
0
0
0
0
0
0
0
0
0
0
0
0
0
0
0
0
0
0
0
0
0
0
0
0
0
0
0
0
0
0
0
0
0
0
0
0
0
0
0
0
0
0
0
0
0
0
0
0
0
0
0
0
0
0
0
0
0
0
0
0
0
0
0
0
0
0
0
0
0
0
0
0
0
0
0
0
0
0
0
0
0
0
0
0
0
0
0
0
0
0
0
0
0
0
0
0
0
0
0
0
0
0
0
0
0
0
0
0
0
0
0
0
0
0
0
0
0
0
0
0
0
0
0
0
0
0
0
0
0
0
0
0
0
0
0
0
0
0
0
0
0
0
0
0
0
0
0
0
0
0
0
0
0
0
0
0
0
0
0
0
0
0
0
0
0
0
0
0
0
0
0
0
0
0
0
0
0
0
0
0
0
0
0
0
0
0
0
0
0
0
0
0
0
0
0
0
0
0
0
0
0
0
0
0
0
0
0
0
0
0
0
0
0
0
0
0
0
0
0
0
0
0
0
0
0
0
0
0
0
0
0
0
0
0
0
0
0
0
0
0
0
0
0
0
0
0
0
0
0
0
0
0
0
0
0
0
0
0
0
0
0
0
0
0
0
0
0
0
0
0
0
0
0
0
0
0
0
0
0
0
0
0
0
0
0
0
0
0
0
0
0
0
0
0
0
0
0
0
0
0
0
0
0
0
0
0
0
0
0
0
0
0
0
0
0
0
0
0
0
0
0
0
0
0
0
0
0
0
0
0
0
0
0
0
0
0
0
0
0
0
0
0
0
0
0
0
0
0
0
0
0
0
0
0
0
0
0
0
0
0
0
0
0
0
0
0
0
0
0
0
0
0
0
0
0
0
0
0
0
0
0
0
0
0
0
0
0
0
0
0
0
0
0
0
0
0
0
0
0
0
0
0
0
0
0
0
0
0
0
0
0
0
0
0
0
0
0
0
0
0
0
0
0
0
0
0
0
0
0
0
0
0
0
0
0
0
0
0
0
0
0
0
0
0
0
0
0
0
0
0
0
0
0
0
0
0
0
0
0
0
0
0
0
0
0
0
0
0
0
0
0
0
0
0
0
0
0
0
0
0
0
0
0
0
0
0
0
0
0
0
0
0
0
0
0
0
0
0
0
0
0
0
0
0
0
0
0
0
0
0
0
0
0
0
0
0
0
0
0
0
0
0
0
0
0
0
0
0
0
0
0
0
0
0
0
0
0
0
0
0
0
0
0
0
0
0
0
0
0
0
0
0
0
0
0
0
0
0
0
0
0
0
0
0
0
0
0
0
0
0
0
0
0
0
0
0
0
0
0
0
0
0
0
0
0
0
0
0
0
0
0
0
0
0
0
0
0
0
0
0
0
0
0
0
0
0
0
0
0
0
0
0
0
0
0
0
0
0
0
0
0
0
0
0
0
0
0
0
0
0
0
0
0
0
0
0
0
0
0
0
0
0
0
0
0
0
0
0
0
0
0
0
0
0
0
0
0
0
0
0
0
0
0
0
0
0
0
0
0
0
0
0
0
0
0
0
0
0
0
0
0
0
0
0
0
0
0
0
0
0
0
0
0
0
0
0
0
0
0
0
0
0
0
0
0
0
0
0
0
0
0
0
0
0
0
0
0
0
0
0
0
0
0
0
0
0
0
0
0
0
0
0
0
0
0
0
0
0
0
0
0
0
0
0
0
0
0
0
0
0
0
0
0
0
0
0
0
0
0
0
0
0
0
0
0
0
0
0
0
0
0
0
0
0
0
0
0
0
0
0
0
0
0
0
0
0
0
0
0
0
0
0
0
0
0
0
0
0
0
0
0
0
0
0
0
0
0
0
0
0
0
0
0
0
0
0
0
0
0
0
0
0
0
0
0
0
0
0
0
0
0
0
0
0
0
0
0
0
0
0
0
0
0
0
0
0
0
0
0
0
0
0
0
0
0
0
0
0
0
0
0
0
0
0
0
0
0
0
0
0
0
0
0
0
0
0
0
0
0
0
0
0
0
0
0
0
0
0
0
0
0
0
0
0
0
0
0
0
0
0
0
0
0
0
0
0
0
0
0
0
0
0
0
0
0
0
0
0
0
0
0
0
0
0
0
0
0
0
0
0
0
0
0
0
0
0
0
0
0
0
0
0
0
0
0
0
0
0
0
0
0
0
0
0
0
0
0
0
0
0
0
0
0
0
0
0
0
0
0
0
0
0
0
0
0
0
0
0
0
0
0
0
0
0
0
0
0
0
0
0
0
0
0
0
0
0
0
0
0
0
0
0
0
0
0
0
0
0
0
0
0
0
0
0
0
0
0
0
0
0
0
0
0
0
0
0
0
0
0
0
0
0
0
0
0
0
0
0
0
0
0
0
0
0
0
0
0
0
0
0
0
0
0
0
0
0
0
0
0
0
0
0
0
0
0
0
0
0
0
0
0
0
0
0
0
0
0
0
0
0
0
0
0
0
0
0
0
0
0
0
0
0
0
0
0
0
0
0
0
0
0
0
0
0
0
0
0
0
0
0
0
0
0
0
0
0
0
0
0
0
0
0
0
0
0
0
0
0
0
0
0
0
0
0
0
0
0
0
0
0
0
0
0
0
0
0
0
0
0
0
0
0
0
0
0
0
0
0
0
0
0
0
0
0
0
0
0
0
0
0
0
0
0
0
0
0
0
0
0
0
0
0
0
0
0
0
0
0
0
0
0
0
0
0
0
0
0
0
0
0
0
0
0
0
0
0
0
0
0
0
0
0
0
0
0
0
0
0
0
0
0
0
0
0
0
0
0
0
0
0
0
0
0
0
0
0
0
0
0
0
0
0
0
0
0
0
0
0
0
0
0
0
0
0
0
0
0
0
0
0
0
0
0
0
0
0
0
0
0
0
0
0
0
0
0
0
0
0
0
0
0
0
0
0
0
0
0
0
0
0
0
0
0
0
0
0
0
0
0
0
0
0
0
0
0
0
0
0
0
0
0
0
0
0
0
0
0
0
0
0
0
0
0
0
0
0
0
0
0
0
0
0
0
0
0
0
0
0
0
0
0
0
0
0
0
0
0
0
0
0
0
0
0
0
0
0
0
0
0
0
0
0
0
0
0
0
0
0
0
0
0
0
0
0
0
0
0
0
0
0
0
0
0
0
0
0
0
0
0
0
0
0
0
0
0
0
0
0
0
0
0
0
0
0
0
0
0
0
0
0
0
0
0
0
0
0
0
0
0
0
0
0
0
0
0
0
0
0
0
0
0
0
0
0
0
0
0
0
0
0
0
0
0
0
0
0
0
0
0
0
0
0
0
0
0
0
0
0
0
0
0
0
0
0
0
0
0
0
0
0
0
0
0
0
0
0
0
0
0
0
0
0
0
0
0
0
0
0
0
0
0
0
0
0
0
0
0
0
0
0
0
0
0
0
0
0
0
0
0
0
0
0
0
0
0
0
0
0
0
0
0
0
0
0
0
0
0
0
0
0
0
0
0
0
0
0
0
0
0
0
0
0
0
0
0
0
0
0
0
0
0
0
0
0
0
0
0
0
0
0
0
0
0
0
0
0
0
0
0
0
0
0
0
0
0
0
0
0
0
0
0
0
0
0
0
0
0
0
0
0
0
0
0
0
0
0
0
0
0
0
0
0
0
0
0
0
0
0
0
0
0
0
0
0
0
0
0
0
0
0
0
0
0
0
0
0
0
0
0
0
0
0
0
0
0
0
0
0
0
0
0
0
0
0
0
0
0
0
0
0
0
0
0
0
0
0
0
0
0
0
0
0
0
0
0
0
0
0
0
0
0
0
0
0
0
0
0
0
0
0
0
0
0
0
0
0
0
0
0
0
0
0
0
0
0
0
0
0
0
0
0
0
0
0
0
0
0
0
0
0
0
0
0
0
0
0
0
0
0
0
0
0
0
0
0
0
0
0
0
0
0
0
0
0
0
0
0
0
0
0
0
0
0
0
0
0
0
0
0
0
0
0
0
0
0
0
0
0
0
0
0
0
0
0
0
0
0
0
0
0
0
0
0
0
0
0
0
0
0
0
0
0
0
0
0
0
0
0
0
0
0
0
0
0
0
0
0
0
0
0
0
0
0
0
0
0
0
0
0
0
0
0
0
0
0
0
0
0
0
0
0
0
0
0
0
0
0
0
0
0
0
0
0
0
0
0
0
0
0
0
0
0
0
0
0
0
0
0
0
0
0
0
0
0
0
0
0
0
0
0
0
0
0
0
0
0
0
0
0
0
0
0
0
0
0
0
0
0
0
0
0
0
0
0
0
0
0
0
0
0
0
0
0
0
0
0
0
0
0
0
0
0
0
0
0
0
0
0
0
0
0
0
0
0
0
0
0
0
0
0
0
0
0
0
0
0
0
0
0
0
0
0
0
0
0
0
0
0
0
0
0
0
0
0
0
0
0
0
0
0
0
0
0
0
0
0
0
0
0
0
0
0
0
0
0
0
0
0
0
0
0
0
0
0
0
0
0
0
0
0
0
0
0
0
0
0
0
0
0
0
0
0
0
0
0
0
0
0
0
0
0
0
0
0
0
0
0
0
0
0
0
0
0
0
0
0
0
0
0
0
0
0
0
0
0
0
0
0
0
0
0
0
0
0
0
0
0
0
0
0
0
0
0
0
0
0
0
0
0
0
0
0
0
0
0
0
0
0
0
0
0
0
0
0
0
0
0
0
0
0
0
0
0
0
0
0
0
0
0
0
0
0
0
0
0
0
0
0
0
0
0
0
0
0
0
0
0
0
0
0
0
0
0
0
0
0
0
0
0
0
0
0
0
0
0
0
0
0
0
0
0
0
0
0
0
0
0
0
0
0
0
0
0
0
0
0
0
0
0
0
0
0
0
0
0
0
0
0
0
0
0
0
0
0
0
0
0
0
0
0
0
0
0
0
0
0
0
0
0
0
0
0
0
0
0
0
0
0
0
0
0
0
0
0
0
0
0
0
0
0
0
0
0
0
0
0
0
0
0
0
0
0
0
0
0
0
0
0
0
0
0
0
0
0
0
0
0
0
0
0
0
0
0
0
0
0
0
0
0
0
0
0
0
0
0
0
0
0
0
0
0
0
0
0
0
0
0
0
0
0
0
0
0
0
0
0
0
0
0
0
0
0
0
0
0
0
0
0
0
0
0
0
0
0
0
0
0
0
0
0
0
0
0
0
0
0
0
0
0
0
0
0
0
0
0
0
0
0
0
0
0
0
0
0
0
0
0
0
0
0
0
0
0
0
0
0
0
0
0
0
0
0
0
0
0
0
0
0
0
0
0
0
0
0
0
0
0
0
0
0
0
0
0
0
0
0
0
0
0
0
0
0
0
0
0
0
0
0
0
0
0
0
0
0
0
0
0
0
0
0
0
0
0
0
0
0
0
0
0
0
0
0
0
0
0
0
0
0
0
0
0
0
0
0
0
0
0
0
0
0
0
0
0
0
0
0
0
0
0
0
0
0
0
0
0
0
0
0
0
0
0
0
0
0
0
0
0
0
0
0
0
0
0
0
0
0
0
0
0
0
0
0
0
0
0
0
0
0
0
0
0
0
0
0
0
0
0
0
0
0
0
0
0
0
0
0
0
0
0
0
0
0
0
0
0
0
0
0
0
0
0
0
0
0
0
0
0
0
0
0
0
0
0
0
0
0
0
0
0
0
0
0
0
0
0
0
0
0
0
0
0
0
0
0
0
0
0
0
0
0
0
0
0
0
0
0
0
0
0
0
0
0
0
0
0
0
0
0
0
0
0
0
0
0
0
0
0
0
0
0
0
0
0
0
0
0
0
0
0
0
0
0
0
0
0
0
0
0
0
0
0
0
0
0
0
0
0
0
0
0
0
0
0
0
0
0
0
0
0
0
0
0
0
0
0
0
0
0
0
0
0
0
0
0
0
0
0
0
0
0
0
0
0
0
0
0
0
0
0
0
0
0
0
0
0
0
0
0
0
0
0
0
0
0
0
0
0
0
0
0
0
0
0
0
0
0
0
0
0
0
0
0
0
0
0
0
0
0
0
0
0
0
0
0
0
0
0
0
0
0
0
0
0
0
0
0
0
0
0
0
0
0
0
0
0
0
0
0
0
0
0
0
0
0
0
0
0
0
0
0
0
0
0
0
0
0
0
0
0
0
0
0
0
0
0
0
0
0
0
0
0
0
0
0
0
0
0
0
0
0
0
0
0
0
0
0
0
0
0
0
0
0
0
0
0
0
0
0
0
0
0
0
0
0
0
0
0
0
0
0
0
0
0
0
0
0
0
0
0
0
0
0
0
0
0
0
0
0
0
0
0
0
0
0
0
0
0
0
0
0
0
0
0
0
0
0
0
0
0
0
0
0
0
0
0
0
0
0
0
0
0
0
0
0
0
0
0
0
0
0
0
0
0
0
0
0
0
0
0
0
0
0
0
0
0
0
0
0
0
0
0
0
0
0
0
0
0
0
0
0
0
0
0
0
0
0
0
0
0
0
0
0
0
0
0
0
0
0
0
0
0
0
0
0
0
0
0
0
0
0
0
0
0
0
0
0
0
0
0
0
0
0
0
0
0
0
0
0
0
0
0
0
0
0
0
0
0
0
0
0
0
0
0
0
0
0
0
0
0
0
0
0
0
0
0
0
0
0
0
0
0
0
0
0
0
0
0
0
0
0
0
0
0
0
0
0
0
0
0
0
0
0
0
0
0
0
0
0
0
0
0
0
0
0
0
0
0
0
0
0
0
0
0
0
0
0
0
0
0
0
0
0
0
0
0
0
0
0
0
0
0
0
0
0
0
0
0
0
0
0
0
0
0
0
0
0
0
0
0
0
0
0
0
0
0
0
0
0
0
0
0
0
0
0
0
0
0
0
0
0
0
0
0
0
0
0
0
0
0
0
0
0
0
0
0
0
0
0
0
0
0
0
0
0
0
0
0
0
0
0
0
0
0
0
0
0
0
0
0
0
0
0
0
0
0
0
0
0
0
0
0
0
0
0
0
0
0
0
0
0
0
0
0
0
0
0
0
0
0
0
0
0
0
0
0
0
0
0
0
0
0
0
0
0
0
0
0
0
0
0
0
0
0
0
0
0
0
0
0
0
0
0
0
0
0
0
0
0
0
0
0
0
0
0
0
0
0
0
0
0
0
0
0
0
0
0
0
0
0
0
0
0
0
0
0
0
0
0
0
0
0
0
0
0
0
0
0
0
0
0
0
0
0
0
0
0
0
0
0
0
0
0
0
0
0
0
0
0
0
0
0
0
0
0
0
0
0
0
0
0
0
0
0
0
0
0
0
0
0
0
0
0
0
0
0
0
0
0
0
0
0
0
0
0
0
0
0
0
0
0
0
0
0
0
0
0
0
0
0
0
0
0
0
0
0
0
0
0
0
0
0
0
0
0
0
0
0
0
0
0
0
0
0
0
0
0
0
0
0
0
0
0
0
0
0
0
0
0
0
0
0
0
0
0
0
0
0
0
0
0
0
0
0
0
0
0
0
0
0
0
0
0
0
0
0
0
0
0
0
0
0
0
0
0
0
0
0
0
0
0
0
0
0
0
0
0
0
0
0
0
0
0
0
0
0
0
0
0
0
0
0
0
0
0
0
0
0
0
0
0
0
0
0
0
0
0
0
0
0
0
0
0
0
0
0
0
0
0
0
0
0
0
0
0
0
0
0
0
0
0
0
0
0
0
0
0
0
0
0
0
0
0
0
0
0
0
0
0
0
0
0
0
0
0
0
0
0
0
0
0
0
0
0
0
0
0
0
0
0
0
0
0
0
0
0
0
0
0
0
0
0
0
0
0
0
0
0
0
0
0
0
0
0
0
0
0
0
0
0
0
0
0
0
0
0
0
0
0
0
0
0
0
0
0
0
0
0
0
0
0
0
0
0
0
0
0
0
0
0
0
0
0
0
0
0
0
0
0
0
0
0
0
0
0
0
0
0
0
0
0
0
0
0
0
0
0
0
0
0
0
0
0
0
0
0
0
0
0
0
0
0
0
0
0
0
0
0
0
0
0
0
0
0
0
0
0
0
0
0
0
0
0
0
0
0
0
0
0
0
0
0
0
0
0
0
0
0
0
0
0
0
0
0
0
0
0
0
0
0
0
0
0
0
0
0
0
0
0
0
0
0
0
0
0
0
0
0
0
0
0
0
0
0
0
0
0
0
0
0
0
0
0
0
0
0
0
0
0
0
0
0
0
0
0
0
0
0
0
0
0
0
0
0
0
0
0
0
0
0
0
0
0
0
0
0
0
0
0
0
0
0
0
0
0
0
0
0
0
0
0
0
0
0
0
0
0
0
0
0
0
0
0
0
0
0
0
0
0
0
0
0
0
0
0
0
0
0
0
0
0
0
0
0
0
0
0
0
0
0
0
0
0
0
0
0
0
0
0
0
0
0
0
0
0
0
0
0
0
0
0
0
0
0
0
0
0
0
0
0
0
0
0
0
0
0
0
0
0
0
0
0
0
0
0
0
0
0
0
0
0
0
0
0
0
0
0
0
0
0
0
0
0
0
0
0
0
0
0
0
0
0
0
0
0
0
0
0
0
0
0
0
0
0
0
0
0
0
0
0
0
0
0
0
0
0
0
0
0
0
0
0
0
0
0
0
0
0
0
0
0
0
0
0
0
0
0
0
0
0
0
0
0
0
0
0
0
0
0
0
0
0
0
0
0
0
0
0
0
0
0
0
0
0
0
0
0
0
0
0
0
0
0
0
0
0
0
0
0
0
0
0
0
0
0
0
0
0
0
0
0
0
0
0
0
0
0
0
0
0
0
0
0
0
0
0
0
0
0
0
0
0
0
0
0
0
0
0
0
0
0
0
0
0
0
0
0
0
0
0
0
0
0
0
0
0
0
0
0
0
0
0
0
0
0
0
0
0
0
0
0
0
0
0
0
0
0
0
0
0
0
0
0
0
0
0
0
0
0
0
0
0
0
0
0
0
0
0
0
0
0
0
0
0
0
0
0
0
0
0
0
0
0
0
0
0
0
0
0
0
0
0
0
0
0
0
0
0
0
0
0
0
0
0
0
0
0
0
0
0
0
0
0
0
0
0
0
0
0
0
0
0
0
0
0
0
0
0
0
0
0
0
0
0
0
0
0
0
0
0
0
0
0
0
0
0
0
0
0
0
0
0
0
0
0
0
0
0
0
0
0
0
0
0
0
0
0
0
0
0
0
0
0
0
0
0
0
0
0
0
0
0
0
0
0
0
0
0
0
0
0
0
0
0
0
0
0
0
0
0
0
0
0
0
0
0
0
0
0
0
0
0
0
0
0
0
0
0
0
0
0
0
0
0
0
0
0
0
0
0
0
0
0
0
0
0
0
0
0
0
0
0
0
0
0
0
0
0
0
0
0
0
0
0
0
0
0
0
0
0
0
0
0
0
0
0
0
0
0
0
0
0
0
0
0
0
0
0
0
0
0
0
0
0
0
0
0
0
0
0
0
0
0
0
0
0
0
0
0
0
0
0
0
0
0
0
0
0
0
0
0
0
0
0
0
0
0
0
0
0
0
0
0
0
0
0
0
0
0
0
0
0
0
0
0
0
0
0
0
0
0
0
0
0
0
0
0
0
0
0
0
0
0
0
0
0
0
0
0
0
0
0
0
0
0
0
0
0
0
0
0
0
0
0
0
0
0
0
0
0
0
0
0
0
0
0
0
0
0
0
0
0
0
0
0
0
0
0
0
0
0
0
0
0
0
0
0
0
0
0
0
0
0
0
0
0
0
0
0
0
0
0
0
0
0
0
0
0
0
0
0
0
0
0
0
0
0
0
0
0
0
0
0
0
0
0
0
0
0
0
0
0
0
0
0
0
0
0
0
0
0
0
0
0
0
0
0
0
0
0
0
0
0
0
0
0
0
0
0
0
0
0
0
0
0
0
0
0
0
0
0
0
0
0
0
0
0
0
0
0
0
0
0
0
0
0
0
0
0
0
0
0
0
0
0
0
0
0
0
0
0
0
0
0
0
0
0
0
0
0
0
0
0
0
0
0
0
0
0
0
0
0
0
0
0
0
0
0
0
0
0
0
0
0
0
0
0
0
0
0
0
0
0
0
0
0
0
0
0
0
0
0
0
0
0
0
0
0
0
0
0
0
0
0
0
0
0
0
0
0
0
0
0
0
0
0
0
0
0
0
0
0
0
0
0
0
0
0
0
0
0
0
0
0
0
0
0
0
0
0
0
0
0
0
0
0
0
0
0
0
0
0
0
0
0
0
0
0
0
0
0
0
0
0
0
0
0
0
0
0
0
0
0
0
0
0
0
0
0
0
0
0
0
0
0
0
0
0
0
0
0
0
0
0
0
0
0
0
0
0
0
0
0
0
0
0
0
0
0
0
0
0
0
0
0
0
0
0
0
0
0
0
0
0
0
0
0
0
0
0
0
0
0
0
0
0
0
0
0
0
0
0
0
0
0
0
0
0
0
0
0
0
0
0
0
0
0
0
0
0
0
0
0
0
0
0
0
0
0
0
0
0
0
0
0
0
0
0
0
0
0
0
0
0
0
0
0
0
0
0
0
0
0
0
0
0
0
0
0
0
0
0
0
0
0
0
0
0
0
0
0
0
0
0
0
0
0
0
0
0
0
0
0
0
0
0
0
0
0
0
0
0
0
0
0
0
0
0
0
0
0
0
0
0
0
0
0
0
0
0
0
0
0
0
0
0
0
0
0
0
0
0
0
0
0
0
0
0
0
0
0
0
0
0
0
0
0
0
0
0
0
0
0
0
0
0
0
0
0
0
0
0
0
0
0
0
0
0
0
0
0
0
0
0
0
0
0
0
0
0
0
0
0
0
0
0
0
0
0
0
0
0
0
0
0
0
0
0
0
0
0
0
0
0
0
0
0
0
0
0
0
0
0
0
0
0
0
0
0
0
0
0
0
0
0
0
0
0
0
0
0
0
0
0
0
0
0
0
0
0
0
0
0
0
0
0
0
0
0
0
0
0
0
0
0
0
0
0
0
0
0
0
0
0
0
0
0
0
0
0
0
0
0
0
0
0
0
0
0
0
0
0
0
0
0
0
0
0
0
0
0
0
0
0
0
0
0
0
0
0
0
0
0
0
0
0
0
0
0
0
0
0
0
0
0
0
0
0
0
0
0
0
0
0
0
0
0
0
0
0
0
0
0
0
0
0
0
0
0
0
0
0
0
0
0
0
0
0
0
0
0
0
0
0
0
0
0
0
0
0
0
0
0
0
0
0
0
0
0
0
0
0
0
0
0
0
0
0
0
0
0
0
0
0
0
0
0
0
0
0
0
0
0
0
0
0
0
0
0
0
0
0
0
0
0
0
0
0
0
0
0
0
0
0
0
0
0
0
0
0
0
0
0
0
0
0
0
0
0
0
0
0
0
0
0
0
0
0
0
0
0
0
0
0
0
0
0
0
0
0
0
0
0
0
0
0
0
0
0
0
0
0
0
0
0
0
0
0
0
0
0
0
0
0
0
0
0
0
0
0
0
0
0
0
0
0
0
0
0
0
0
0
0
0
0
0
0
0
0
0
0
0
0
0
0
0
0
0
0
0
0
0
0
0
0
0
0
0
0
0
0
0
0
0
0
0
0
0
0
0
0
0
0
0
0
0
0
0
0
0
0
0
0
0
0
0
0
0
0
0
0
0
0
0
0
0
0
0
0
0
0
0
0
0
0
0
0
0
0
0
0
0
0
0
0
0
0
0
0
0
0
0
0
0
0
0
0
0
0
0
0
0
0
0
0
0
0
0
0
0
0
0
0
0
0
0
0
0
0
0
0
0
0
0
0
0
0
0
0
0
0
0
0
0
0
0
0
0
0
0
0
0
0
0
0
0
0
0
0
0
0
0
0
0
0
0
0
0
0
0
0
0
0
0
0
0
0
0
0
0
0
0
0
0
0
0
0
0
0
0
0
0
0
0
0
0
0
0
0
0
0
0
0
0
0
0
0
0
0
0
0
0
0
0
0
0
0
0
0
0
0
0
0
0
0
0
0
0
0
0
0
0
0
0
0
0
0
0
0
0
0
0
0
0
0
0
0
0
0
0
0
0
0
0
0
0
0
0
0
0
0
0
0
0
0
0
0
0
0
0
0
0
0
0
0
0
0
0
0
0
0
0
0
0
0
0
0
0
0
0
0
0
0
0
0
0
0
0
0
0
0
0
0
0
0
0
0
0
0
0
0
0
0
0
0
0
0
0
0
0
0
0
0
0
0
0
0
0
0
0
0
0
0
0
0
0
0
0
0
0
0
0
0
0
0
0
0
0
0
0
0
0
0
0
0
0
0
0
0
0
0
0
0
0
0
0
0
0
0
0
0
0
0
0
0
0
0
0
0
0
0
0
0
0
0
0
0
0
0
0
0
0
0
0
0
0
0
0
0
0
0
0
0
0
0
0
0
0
0
0
0
0
0
0
0
0
0
0
0
0
0
0
0
0
0
0
0
0
0
0
0
0
0
0
0
0
0
0
0
0
0
0
0
0
0
0
0
0
0
0
0
0
0
0
0
0
0
0
0
0
0
0
0
0
0
0
0
0
0
0
0
0
0
0
0
0
0
0
0
0
0
0
0
0
0
0
0
0
0
0
0
0
0
0
0
0
0
0
0
0
0
0
0
0
0
0
0
0
0
0
0
0
0
0
0
0
0
0
0
0
0
0
0
0
0
0
0
0
0
0
0
0
0
0
0
0
0
0
0
0
0
0
0
0
0
0
0
0
0
0
0
0
0
0
0
0
0
0
0
0
0
0
0
0
0
0
0
0
0
0
0
0
0
0
0
0
0
0
0
0
0
0
0
0
0
0
0
0
0
0
0
0
0
0
0
0
0
0
0
0
0
0
0
0
0
0
0
0
0
0
0
0
0
0
0
0
0
0
0
0
0
0
0
0
0
0
0
0
0
0
0
0
0
0
0
0
0
0
0
0
0
0
0
0
0
0
0
0
0
0
0
0
0
0
0
0
0
0
0
0
0
0
0
0
0
0
0
0
0
0
0
0
0
0
0
0
0
0
0
0
0
0
0
0
0
0
0
0
0
0
0
0
0
0
0
0
0
0
0
0
0
0
0
0
0
0
0
0
0
0
0
0
0
0
0
0
0
0
0
0
0
0
0
0
0
0
0
0
0
0
0
0
0
0
0
0
0
0
0
0
0
0
0
0
0
0
0
0
0
0
0
0
0
0
0
0
0
0
0
0
0
0
0
0
0
0
0
0
0
0
0
0
0
0
0
0
0
0
0
0
0
0
0
0
0
0
0
0
0
0
0
0
0
0
0
0
0
0
0
0
0
0
0
0
0
0
0
0
0
0
0
0
0
0
0
0
0
0
0
0
0
0
0
0
0
0
0
0
0
0
0
0
0
0
0
0
0
0
0
0
0
0
0
0
0
0
0
0
0
0
0
0
0
0
0
0
0
0
0
0
0
0
0
0
0
0
0
0
0
0
0
0
0
0
0
0
0
0
0
0
0
0
0
0
0
0
0
0
0
0
0
0
0
0
0
0
0
0
0
0
0
0
0
0
0
0
0
0
0
0
0
0
0
0
0
0
0
0
0
0
0
0
0
0
0
0
0
0
0
0
0
0
0
0
0
0
0
0
0
0
0
0
0
0
0
0
0
0
0
0
0
0
0
0
0
0
0
0
0
0
0
0
0
0
0
0
0
0
0
0
0
0
0
0
0
0
0
0
0
0
0
0
0
0
0
0
0
0
0
0
0
0
0
0
0
0
0
0
0
0
0
0
0
0
0
0
0
0
0
0
0
0
0
0
0
0
0
0
0
0
0
0
0
0
0
0
0
0
0
0
0
0
0
0
0
0
0
0
0
0
0
0
0
0
0
0
0
0
0
0
0
0
0
0
0
0
0
0
0
0
0
0
0
0
0
0
0
0
0
0
0
0
0
0
0
0
0
0
0
0
0
0
0
0
0
0
0
0
0
0
0
0
0
0
0
0
0
0
0
0
0
0
0
0
0
0
0
0
0
0
0
0
0
0
0
0
0
0
0
0
0
0
0
0
0
0
0
0
0
0
0
0
0
0
0
0
0
0
0
0
0
0
0
0
0
0
0
0
0
0
0
0
0
0
0
0
0
0
0
0
0
0
0
0
0
0
0
0
0
0
0
0
0
0
0
0
0
0
0
0
0
0
0
0
0
0
0
0
0
0
0
0
0
0
0
0
0
0
0
0
0
0
0
0
0
0
0
0
0
0
0
0
0
0
0
0
0
0
0
0
0
0
0
0
0
0
0
0
0
0
0
0
0
0
0
0
0
0
0
0
0
0
0
0
0
0
0
0
0
0
0
0
0
0
0
0
0
0
0
0
0
0
0
0
0
0
0
0
0
0
0
0
0
0
0
0
0
0
0
0
0
0
0
0
0
0
0
0
0
0
0
0
0
0
0
0
0
0
0
0
0
0
0
0
0
0
0
0
0
0
0
0
0
0
0
0
0
0
0
0
0
0
0
0
0
0
0
0
0
0
0
0
0
0
0
0
0
0
0
0
0
0
0
0
0
0
0
0
0
0
0
0
0
0
0
0
0
0
0
0
0
0
0
0
0
0
0
0
0
0
0
0
0
0
0
0
0
0
0
0
0
0
0
0
0
0
0
0
0
0
0
0
0
0
0
0
0
0
0
0
0
0
0
0
0
0
0
0
0
0
0
0
0
0
0
0
0
0
0
0
0
0
0
0
0
0
0
0
0
0
0
0
0
0
0
0
0
0
0
0
0
0
0
0
0
0
0
0
0
0
0
0
0
0
0
0
0
0
0
0
0
0
0
0
0
0
0
0
0
0
0
0
0
0
0
0
0
0
0
0
0
0
0
0
0
0
0
0
0
0
0
0
0
0
0
0
0
0
0
0
0
0
0
0
0
0
0
0
0
0
0
0
0
0
0
0
0
0
0
0
0
0
0
0
0
0
0
0
0
0
0
0
0
0
0
0
0
0
0
0
0
0
0
0
0
0
0
0
0
0
0
0
0
0
0
0
0
0
0
0
0
0
0
0
0
0
0
0
0
0
0
0
0
0
0
0
0
0
0
0
0
0
0
0
0
0
0
0
0
0
0
0
0
0
0
0
0
0
0
0
0
0
0
0
0
0
0
0
0
0
0
0
0
0
0
0
0
0
0
0
0
0
0
0
0
0
0
0
0
0
0
0
0
0
0
0
0
0
0
0
0
0
0
0
0
0
0
0
0
0
0
0
0
0
0
0
0
0
0
0
0
0
0
0
0
0
0
0
0
0
0
0
0
0
0
0
0
0
0
0
0
0
0
0
0
0
0
0
0
0
0
0
0
0
0
0
0
0
0
0
0
0
0
0
0
0
0
0
0
0
0
0
0
0
0
0
0
0
0
0
0
0
0
0
0
0
0
0
0
0
0
0
0
0
0
0
0
0
0
0
0
0
0
0
0
0
0
0
0
0
0
0
0
0
0
0
0
0
0
0
0
0
0
0
0
0
0
0
0
0
0
0
0
0
0
0
0
0
0
0
0
0
0
0
0
0
0
0
0
0
0
0
0
0
0
0
0
0
0
0
0
0
0
0
0
0
0
0
0
0
0
0
0
0
0
0
0
0
0
0
0
0
0
0
0
0
0
0
0
0
0
0
0
0
0
0
0
0
0
0
0
0
0
0
0
0
0
0
0
0
0
0
0
0
0
0
0
0
0
0
0
0
0
0
0
0
0
0
0
0
0
0
0
0
0
0
0
0
0
0
0
0
0
0
0
0
0
0
0
0
0
0
0
0
0
0
0
0
0
0
0
0
0
0
0
0
0
0
0
0
0
0
0
0
0
0
0
0
0
0
0
0
0
0
0
0
0
0
0
0
0
0
0
0
0
0
0
0
0
0
0
0
0
0
0
0
0
0
0
0
0
0
0
0
0
0
0
0
0
0
0
0
0
0
0
0
0
0
0
0
0
0
0
0
0
0
0
0
0
0
0
0
0
0
0
0
0
0
0
0
0
0
0
0
0
0
0
0
0
0
0
0
0
0
0
0
0
0
0
0
0
0
0
0
0
0
0
0
0
0
0
0
0
0
0
0
0
0
0
0
0
0
0
0
0
0
0
0
0
0
0
0
0
0
0
0
0
0
0
0
0
0
0
0
0
0
0
0
0
0
0
0
0
0
0
0
0
0
0
0
0
0
0
0
0
0
0
0
0
0
0
0
0
0
0
0
0
0
0
0
0
0
0
0
0
0
0
0
0
0
0
0
0
0
0
0
0
0
0
0
0
0
0
0
0
0
0
0
0
0
0
0
0
0
0
0
0
0
0
0
0
0
0
0
0
0
0
0
0
0
0
0
0
0
0
0
0
0
0
0
0
0
0
0
0
0
0
0
0
0
0
0
0
0
0
0
0
0
0
0
0
0
0
0
0
0
0
0
0
0
0
0
0
0
0
0
0
0
0
0
0
0
0
0
0
0
0
0
0
0
0
0
0
0
0
0
0
0
0
0
0
0
0
0
0
0
0
0
0
0
0
0
0
0
0
0
0
0
0
0
0
0
0
0
0
0
0
0
0
0
0
0
0
0
0
0
0
0
0
0
0
0
0
0
0
0
0
0
0
0
0
0
0
0
0
0
0
0
0
0
0
0
0
0
0
0
0
0
0
0
0
0
0
0
0
0
0
0
0
0
0
0
0
0
0
0
0
0
0
0
0
0
0
0
0
0
0
0
0
0
0
0
0
0
0
0
0
0
0
0
0
0
0
0
0
0
0
0
0
0
0
0
0
0
0
0
0
0
0
0
0
0
0
0
0
0
0
0
0
0
0
0
0
0
0
0
0
0
0
0
0
0
0
0
0
0
0
0
0
0
0
0
0
0
0
0
0
0
0
0
0
0
0
0
0
0
0
0
0
0
0
0
0
0
0
0
0
0
0
0
0
0
0
0
0
0
0
0
0
0
0
0
0
0
0
0
0
0
0
0
0
0
0
0
0
0
0
0
0
0
0
0
0
0
0
0
0
0
0
0
0
0
0
0
0
0
0
0
0
0
0
0
0
0
0
0
0
0
0
0
0
0
0
0
0
0
0
0
0
0
0
0
0
0
0
0
0
0
0
0
0
0
0
0
0
0
0
0
0
0
0
0
0
0
0
0
0
0
0
0
0
0
0
0
0
0
0
0
0
0
0
0
0
0
0
0
0
0
0
0
0
0
0
0
0
0
0
0
0
0
0
0
0
0
0
0
0
0
0
0
0
0
0
0
0
0
0
0
0
0
0
0
0
0
0
0
0
0
0
0
0
0
0
0
0
0
0
0
0
0
0
0
0
0
0
0
0
0
0
0
0
0
0
0
0
0
0
0
0
0
0
0
0
0
0
0
0
0
0
0
0
0
0
0
0
0
0
0
0
0
0
0
0
0
0
0
0
0
0
0
0
0
0
0
0
0
0
0
0
0
0
0
0
0
0
0
0
0
0
0
0
0
0
0
0
0
0
0
0
0
0
0
0
0
0
0
0
0
0
0
0
0
0
0
0
0
0
0
0
0
0
0
0
0
0
0
0
0
0
0
0
0
0
0
0
0
0
0
0
0
0
0
0
0
0
0
0
0
0
0
0
0
0
0
0
0
0
0
0
0
0
0
0
0
0
0
0
0
0
0
0
0
0
0
0
0
0
0
0
0
0
0
0
0
0
0
0
0
0
0
0
0
0
0
0
0
0
0
0
0
0
0
0
0
0
0
0
0
0
0
0
0
0
0
0
0
0
0
0
0
0
0
0
0
0
0
0
0
0
0
0
0
0
0
0
0
0
0
0
0
0
0
0
0
0
0
0
0
0
0
0
0
0
0
0
0
0
0
0
0
0
0
0
0
0
0
0
0
0
0
0
0
0
0
0
0
0
0
0
0
0
0
0
0
0
0
0
0
0
0
0
0
0
0
0
0
0
0
0
0
0
0
0
0
0
0
0
0
0
0
0
0
0
0
0
0
0
0
0
0
0
0
0
0
0
0
0
0
0
0
0
0
0
0
0
0
0
0
0
0
0
0
0
0
0
0
0
0
0
0
0
0
0
0
0
0
0
0
0
0
0
0
0
0
0
0
0
0
0
0
0
0
0
0
0
0
0
0
0
0
0
0
0
0
0
0
0
0
0
0
0
0
0
0
0
0
0
0
0
0
0
0
0
0
0
0
0
0
0
0
0
0
0
0
0
0
0
0
0
0
0
0
0
0
0
0
0
0
0
0
0
0
0
0
0
0
0
0
0
0
0
0
0
0
0
0
0
0
0
0
0
0
0
0
0
0
0
0
0
0
0
0
0
0
0
0
0
0
0
0
0
0
0
0
0
0
0
0
0
0
0
0
0
0
0
0
0
0
0
0
0
0
0
0
0
0
0
0
0
0
0
0
0
0
0
0
0
0
0
0
0
0
0
0
0
0
0
0
0
0
0
0
0
0
0
0
0
0
0
0
0
0
0
0
0
0
0
0
0
0
0
0
0
0
0
0
0
0
0
0
0
0
0
0
0
0
0
0
0
0
0
0
0
0
0
0
0
0
0
0
0
0
0
0
0
0
0
0
0
0
0
0
0
0
0
0
0
0
0
0
0
0
0
0
0
0
0
0
0
0
0
0
0
0
0
0
0
0
0
0
0
0
0
0
0
0
0
0
0
0
0
0
0
0
0
0
0
0
0
0
0
0
0
0
0
0
0
0
0
0
0
0
0
0
0
0
0
0
0
0
0
0
0
0
0
0
0
0
0
0
0
0
0
0
0
0
0
0
0
0
0
0
0
0
0
0
0
0
0
0
0
0
0
0
0
0
0
0
0
0
0
0
0
0
0
0
0
0
0
0
0
0
0
0
0
0
0
0
0
0
0
0
0
0
0
0
0
0
0
0
0
0
0
0
0
0
0
0
0
0
0
0
0
0
0
0
0
0
0
0
0
0
0
0
0
0
0
0
0
0
0
0
0
0
0
0
0
0
0
0
0
0
0
0
0
0
0
0
0
0
0
0
0
0
0
0
0
0
0
0
0
0
0
0
0
0
0
0
0
0
0
0
0
0
0
0
0
0
0
0
0
0
0
0
0
0
0
0
0
0
0
0
0
0
0
0
0
0
0
0
0
0
0
0
0
0
0
0
0
0
0
0
0
0
0
0
0
0
0
0
0
0
0
0
0
0
0
0
0
0
0
0
0
0
0
0
0
0
0
0
0
0
0
0
0
0
0
0
0
0
0
0
0
0
0
0
0
0
0
0
0
0
0
0
0
0
0
0
0
0
0
0
0
0
0
0
0
0
0
0
0
0
0
0
0
0
0
0
0
0
0
0
0
0
0
0
0
0
0
0
0
0
0
0
0
0
0
0
0
0
0
0
0
0
0
0
0
0
0
0
0
0
0
0
0
0
0
0
0
0
0
0
0
0
0
0
0
0
0
0
0
0
0
0
0
0
0
0
0
0
0
0
0
0
0
0
0
0
0
0
0
0
0
0
0
0
0
0
0
0
0
0
0
0
0
0
0
0
0
0
0
0
0
0
0
0
0
0
0
0
0
0
0
0
0
0
0
0
0
0
0
0
0
0
0
0
0
0
0
0
0
0
0
0
0
0
0
0
0
0
0
0
0
0
0
0
0
0
0
0
0
0
0
0
0
0
0
0
0
0
0
0
0
0
0
0
0
0
0
0
0
0
0
0
0
0
0
0
0
0
0
0
0
0
0
0
0
0
0
0
0
0
0
0
0
0
0
0
0
0
0
0
0
0
0
0
0
0
0
0
0
0
0
0
0
0
0
0
0
0
0
0
0
0
0
0
0
0
0
0
0
0
0
0
0
0
0
0
0
0
0
0
0
0
0
0
0
0
0
0
0
0
0
0
0
0
0
0
0
0
0
0
0
0
0
0
0
0
0
0
0
0
0
0
0
0
0
0
0
0
0
0
0
0
0
0
0
0
0
0
0
0
0
0
0
0
0
0
0
0
0
0
0
0
0
0
0
0
0
0
0
0
0
0
0
0
0
0
0
0
0
0
0
0
0
0
0
0
0
0
0
0
0
0
0
0
0
0
0
0
0
0
0
0
0
0
0
0
0
0
0
0
0
0
0
0
0
0
0
0
0
0
0
0
0
0
0
0
0
0
0
0
0
0
0
0
0
0
0
0
0
0
0
0
0
0
0
0
0
0
0
0
0
0
0
0
0
0
0
0
0
0
0
0
0
0
0
0
0
0
0
0
0
0
0
0
0
0
0
0
0
0
0
0
0
0
0
0
0
0
0
0
0
0
0
0
0
0
0
0
0
0
0
0
0
0
0
0
0
0
0
0
0
0
0
0
0
0
0
0
0
0
0
0
0
0
0
0
0
0
0
0
0
0
0
0
0
0
0
0
0
0
0
0
0
0
0
0
0
0
0
0
0
0
0
0
0
0
0
0
0
0
0
0
0
0
0
0
0
0
0
0
0
0
0
0
0
0
0
0
0
0
0
0
0
0
0
0
0
0
0
0
0
0
0
0
0
0
0
0
0
0
0
0
0
0
0
0
0
0
0
0
0
0
0
0
0
0
0
0
0
0
0
0
0
0
0
0
0
0
0
0
0
0
0
0
0
0
0
0
0
0
0
0
0
0
0
0
0
0
0
0
0
0
0
0
0
0
0
0
0
0
0
0
0
0
0
0
0
0
0
0
0
0
0
0
0
0
0
0
0
0
0
0
0
0
0
0
0
0
0
0
0
0
0
0
0
0
0
0
0
0
0
0
0
0
0
0
0
0
0
0
0
0
0
0
0
0
0
0
0
0
0
0
0
0
0
0
0
0
0
0
0
0
0
0
0
0
0
0
0
0
0
0
0
0
0
0
0
0
0
0
0
0
0
0
0
0
0
0
0
0
0
0
0
0
0
0
0
0
0
0
0
0
0
0
0
0
0
0
0
0
0
0
0
0
0
0
0
0
0
0
0
0
0
0
0
0
0
0
0
0
0
0
0
0
0
0
0
0
0
0
0
0
0
0
0
0
0
0
0
0
0
0
0
0
0
0
0
0
0
0
0
0
0
0
0
0
0
0
0
0
0
0
0
0
0
0
0
0
0
0
0
0
0
0
0
0
0
0
0
0
0
0
0
0
0
0
0
0
0
0
0
0
0
0
0
0
0
0
0
0
0
0
0
0
0
0
0
0
0
0
0
0
0
0
0
0
0
0
0
0
0
0
0
0
0
0
0
0
0
0
0
0
0
0
0
0
0
0
0
0
0
0
0
0
0
0
0
0
0
0
0
0
0
0
0
0
0
0
0
0
0
0
0
0
0
0
0
0
0
0
0
0
0
0
0
0
0
0
0
0
0
0
0
0
0
0
0
0
0
0
0
0
0
0
0
0
0
0
0
0
0
0
0
0
0
0
0
0
0
0
0
0
0
0
0
0
0
0
0
0
0
0
0
0
0
0
0
0
0
0
0
0
0
0
0
0
0
0
0
0
0
0
0
0
0
0
0
0
0
0
0
0
0
0
0
0
0
0
0
0
0
0
0
0
0
0
0
0
0
0
0
0
0
0
0
0
0
0
0
0
0
0
0
0
0
0
0
0
0
0
0
0
0
0
0
0
0
0
0
0
0
0
0
0
0
0
0
0
0
0
0
0
0
0
0
0
0
0
0
0
0
0
0
0
0
0
0
0
0
0
0
0
0
0
0
0
0
0
0
0
0
0
0
0
0
0
0
0
0
0
0
0
0
0
0
0
0
0
0
0
0
0
0
0
0
0
0
0
0
0
0
0
0
0
0
0
0
0
0
0
0
0
0
0
0
0
0
0
0
0
0
0
0
0
0
0
0
0
0
0
0
0
0
0
0
0
0
0
0
0
0
0
0
0
0
0
0
0
0
0
0
0
0
0
0
0
0
0
0
0
0
0
0
0
0
0
0
0
0
0
0
0
0
0
0
0
0
0
0
0
0
0
0
0
0
0
0
0
0
0
0
0
0
0
0
0
0
0
0
0
0
0
0
0
0
0
0
0
0
0
0
0
0
0
0
0
0
0
0
0
0
0
0
0
0
0
0
0
0
0
0
0
0
0
0
0
0
0
0
0
0
0
0
0
0
0
0
0
0
0
0
0
0
0
0
0
0
0
0
0
0
0
0
0
0
0
0
0
0
0
0
0
0
0
0
0
0
0
0
0
0
0
0
0
0
0
0
0
0
0
0
0
0
0
0
0
0
0
0
0
0
0
0
0
0
0
0
0
0
0
0
0
0
0
0
0
0
0
0
0
0
0
0
0
0
0
0
0
0
0
0
0
0
0
0
0
0
0
0
0
0
0
0
0
0
0
0
0
0
0
0
0
0
0
0
0
0
0
0
0
0
0
0
0
0
0
0
0
0
0
0
0
0
0
0
0
0
0
0
0
0
0
0
0
0
0
0
0
0
0
0
0
0
0
0
0
0
0
0
0
0
0
0
0
0
0
0
0
0
0
0
0
0
0
0
0
0
0
0
0
0
0
0
0
0
0
0
0
0
0
0
0
0
0
0
0
0
0
0
0
0
0
0
0
0
0
0
0
0
0
0
0
0
0
0
0
0
0
0
0
0
0
0
0
0
0
0
0
0
0
0
0
0
0
0
0
0
0
0
0
0
0
0
0
0
0
0
0
0
0
0
0
0
0
0
0
0
0
0
0
0
0
0
0
0
0
0
0
0
0
0
0
0
0
0
0
0
0
0
0
0
0
0
0
0
0
0
0
0
0
0
0
0
0
0
0
0
0
0
0
0
0
0
0
0
0
0
0
0
0
0
0
0
0
0
0
0
0
0
0
0
0
0
0
0
0
0
0
0
0
0
0
0
0
0
0
0
0
0
0
0
0
0
0
0
0
0
0
0
0
0
0
0
0
0
0
0
0
0
0
0
0
0
0
0
0
0
0
0
0
0
0
0
0
0
0
0
0
0
0
0
0
0
0
0
0
0
0
0
0
0
0
0
0
0
0
0
0
0
0
0
0
0
0
0
0
0
0
0
0
0
0
0
0
0
0
0
0
0
0
0
0
0
0
0
0
0
0
0
0
0
0
0
0
0
0
0
0
0
0
0
0
0
0
0
0
0
0
0
0
0
0
0
0
0
0
0
0
0
0
0
0
0
0
0
0
0
0
0
0
0
0
0
0
0
0
0
0
0
0
0
0
0
0
0
0
0
0
0
0
0
0
0
0
0
0
0
0
0
0
0
0
0
0
0
0
0
0
0
0
0
0
0
0
0
0
0
0
0
0
0
0
0
0
0
0
0
0
0
0
0
0
0
0
0
0
0
0
0
0
0
0
0
0
0
0
0
0
0
0
0
0
0
0
0
0
0
0
0
0
0
0
0
0
0
0
0
0
0
0
0
0
0
0
0
0
0
0
0
0
0
0
0
0
0
0
0
0
0
0
0
0
0
0
0
0
0
0
0
0
0
0
0
0
0
0
0
0
0
0
0
0
0
0
0
0
0
0
0
0
0
0
0
0
0
0
0
0
0
0
0
0
0
0
0
0
0
0
0
0
0
0
0
0
0
0
0
0
0
0
0
0
0
0
0
0
0
0
0
0
0
0
0
0
0
0
0
0
0
0
0
0
0
0
0
0
0
0
0
0
0
0
0
0
0
0
0
0
0
0
0
0
0
0
0
0
0
0
0
0
0
0
0
0
0
0
0
0
0
0
0
0
0
0
0
0
0
0
0
0
0
0
0
0
0
0
0
0
0
0
0
0
0
0
0
0
0
0
0
0
0
0
0
0
0
0
0
0
0
0
0
0
0
0
0
0
0
0
0
0
0
0
0
0
0
0
0
0
0
0
0
0
0
0
0
0
0
0
0
0
0
0
0
0
0
0
0
0
0
0
0
0
0
0
0
0
0
0
0
0
0
0
0
0
0
0
0
0
0
0
0
0
0
0
0
0
0
0
0
0
0
0
0
0
0
0
0
0
0
0
0
0
0
0
0
0
0
0
0
0
0
0
0
0
0
0
0
0
0
0
0
0
0
0
0
0
0
0
0
0
0
0
0
0
0
0
0
0
0
0
0
0
0
0
0
0
0
0
0
0
0
0
0
0
0
0
0
0
0
0
0
0
0
0
0
0
0
0
0
0
0
0
0
0
0
0
0
0
0
0
0
0
0
0
0
0
0
0
0
0
0
0
0
0
0
0
0
0
0
0
0
0
0
0
0
0
0
0
0
0
0
0
0
0
0
0
0
0
0
0
0
0
0
0
0
0
0
0
0
0
0
0
0
0
0
0
0
0
0
0
0
0
0
0
0
0
0
0
0
0
0
0
0
0
0
0
0
0
0
0
0
0
0
0
0
0
0
0
0
0
0
0
0
0
0
0
0
0
0
0
0
0
0
0
0
0
0
0
0
0
0
0
0
0
0
0
0
0
0
0
0
0
0
0
0
0
0
0
0
0
0
0
0
0
0
0
0
0
0
0
0
0
0
0
0
0
0
0
0
0
0
0
0
0
0
0
0
0
0
0
0
0
0
0
0
0
0
0
0
0
0
0
0
0
0
0
0
0
0
0
0
0
0
0
0
0
0
0
0
0
0
0
0
0
0
0
0
0
0
0
0
0
0
0
0
0
0
0
0
0
0
0
0
0
0
0
0
0
0
0
0
0
0
0
0
0
0
0
0
0
0
0
0
0
0
0
0
0
0
0
0
0
0
0
0
0
0
0
0
0
0
0
0
0
0
0
0
0
0
0
0
0
0
0
0
0
0
0
0
0
0
0
0
0
0
0
0
0
0
0
0
0
0
0
0
0
0
0
0
0
0
0
0
0
0
0
0
0
0
0
0
0
0
0
0
0
0
0
0
0
0
0
0
0
0
0
0
0
0
0
0
0
0
0
0
0
0
0
0
0
0
0
0
0
0
0
0
0
0
0
0
0
0
0
0
0
0
0
0
0
0
0
0
0
0
0
0
0
0
0
0
0
0
0
0
0
0
0
0
0
0
0
0
0
0
0
0
0
0
0
0
0
0
0
0
0
0
0
0
0
0
0
0
0
0
0
0
0
0
0
0
0
0
0
0
0
0
0
0
0
0
0
0
0
0
0
0
0
0
0
0
0
0
0
0
0
0
0
0
0
0
0
0
0
0
0
0
0
0
0
0
0
0
0
0
0
0
0
0
0
0
0
0
0
0
0
0
0
0
0
0
0
0
0
0
0
0
0
0
0
0
0
0
0
0
0
0
0
0
0
0
0
0
0
0
0
0
0
0
0
0
0
0
0
0
0
0
0
0
0
0
0
0
0
0
0
0
0
0
0
0
0
0
0
0
0
0
0
0
0
0
0
0
0
0
0
0
0
0
0
0
0
0
0
0
0
0
0
0
0
0
0
0
0
0
0
0
0
0
0
0
0
0
0
0
0
0
0
0
0
0
0
0
0
0
0
0
0
0
0
0
0
0
0
0
0
0
0
0
0
0
0
0
0
0
0
0
0
0
0
0
0
0
0
0
0
0
0
0
0
0
0
0
0
0
0
0
0
0
0
0
0
0
0
0
0
0
0
0
0
0
0
0
0
0
0
0
0
0
0
0
0
0
0
0
0
0
0
0
0
0
0
0
0
0
0
0
0
0
0
0
0
0
0
0
0
0
0
0
0
0
0
0
0
0
0
0
0
0
0
0
0
0
0
0
0
0
0
0
0
0
0
0
0
0
0
0
0
0
0
0
0
0
0
0
0
0
0
0
0
0
0
0
0
0
0
0
0
0
0
0
0
0
0
0
0
0
0
0
0
0
0
0
0
0
0
0
0
0
0
0
0
0
0
0
0
0
0
0
0
0
0
0
0
0
0
0
0
0
0
0
0
0
0
0
0
0
0
0
0
0
0
0
0
0
0
0
0
0
0
0
0
0
0
0
0
0
0
0
0
0
0
0
0
0
0
0
0
0
0
0
0
0
0
0
0
0
0
0
0
0
0
0
0
0
0
0
0
0
0
0
0
0
0
0
0
0
0
0
0
0
0
0
0
0
0
0
0
0
0
0
0
0
0
0
0
0
0
0
0
0
0
0
0
0
0
0
0
0
0
0
0
0
0
0
0
0
0
0
0
0
0
0
0
0
0
0
0
0
0
0
0
0
0
0
0
0
0
0
0
0
0
0
0
0
0
0
0
0
0
0
0
0
0
0
0
0
0
0
0
0
0
0
0
0
0
0
0
0
0
0
0
0
0
0
0
0
0
0
0
0
0
0
0
0
0
0
0
0
0
0
0
0
0
0
0
0
0
0
0
0
0
0
0
0
0
0
0
0
0
0
0
0
0
0
0
0
0
0
0
0
0
0
0
0
0
0
0
0
0
0
0
0
0
0
0
0
0
0
0
0
0
0
0
0
0
0
0
0
0
0
0
0
0
0
0
0
0
0
0
0
0
0
0
0
0
0
0
0
0
0
0
0
0
0
0
0
0
0
0
0
0
0
0
0
0
0
0
0
0
0
0
0
0
0
0
0
0
0
0
0
0
0
0
0
0
0
0
0
0
0
0
0
0
0
0
0
0
0
0
0
0
0
0
0
0
0
0
0
0
0
0
0
0
0
0
0
0
0
0
0
0
0
0
0
0
0
0
0
0
0
0
0
0
0
0
0
0
0
0
0
0
0
0
0
0
0
0
0
0
0
0
0
0
0
0
0
0
0
0
0
0
0
0
0
0
0
0
0
0
0
0
0
0
0
0
0
0
0
0
0
0
0
0
0
0
0
0
0
0
0
0
0
0
0
0
0
0
0
0
0
0
0
0
0
0
0
0
0
0
0
0
0
0
0
0
0
0
0
0
0
0
0
0
0
0
0
0
0
0
0
0
0
0
0
0
0
0
0
0
0
0
0
0
0
0
0
0
0
0
0
0
0
0
0
0
0
0
0
0
0
0
0
0
0
0
0
0
0
0
0
0
0
0
0
0
0
0
0
0
0
0
0
0
0
0
0
0
0
0
0
0
0
0
0
0
0
0
0
0
0
0
0
0
0
0
0
0
0
0
0
0
0
0
0
0
0
0
0
0
0
0
0
0
0
0
0
0
0
0
0
0
0
0
0
0
0
0
0
0
0
0
0
0
0
0
0
0
0
0
0
0
0
0
0
0
0
0
0
0
0
0
0
0
0
0
0
0
0
0
0
0
0
0
0
0
0
0
0
0
0
0
0
0
0
0
0
0
0
0
0
0
0
0
0
0
0
0
0
0
0
0
0
0
0
0
0
0
0
0
0
0
0
0
0
0
0
0
0
0
0
0
0
0
0
0
0
0
0
0
0
0
0
0
0
0
0
0
0
0
0
0
0
0
0
0
0
0
0
0
0
0
0
0
0
0
0
0
0
0
0
0
0
0
0
0
0
0
0
0
0
0
0
0
0
0
0
0
0
0
0
0
0
0
0
0
0
0
0
0
0
0
0
0
0
0
0
0
0
0
0
0
0
0
0
0
0
0
0
0
0
0
0
0
0
0
0
0
0
0
0
0
0
0
0
0
0
0
0
0
0
0
0
0
0
0
0
0
0
0
0
0
0
0
0
0
0
0
0
0
0
0
0
0
0
0
0
0
0
0
0
0
0
0
0
0
0
0
0
0
0
0
0
0
0
0
0
0
0
0
0
0
0
0
0
0
0
0
0
0
0
0
0
0
0
0
0
0
0
0
0
0
0
0
0
0
0
0
0
0
0
0
0
0
0
0
0
0
0
0
0
0
0
0
0
0
0
0
0
0
0
0
0
0
0
0
0
0
0
0
0
0
0
0
0
0
0
0
0
0
0
0
0
0
0
0
0
0
0
0
0
0
0
0
0
0
0
0
0
0
0
0
0
0
0
0
0
0
0
0
0
0
0
0
0
0
0
0
0
0
0
0
0
0
0
0
0
0
0
0
0
0
0
0
0
0
0
0
0
0
0
0
0
0
0
0
0
0
0
0
0
0
0
0
0
0
0
0
0
0
0
0
0
0
0
0
0
0
0
0
0
0
0
0
0
0
0
0
0
0
0
0
0
0
0
0
0
0
0
0
0
0
0
0
0
0
0
0
0
0
0
0
0
0
0
0
0
0
0
0
0
0
0
0
0
0
0
0
0
0
0
0
0
0
0
0
0
0
0
0
0
0
0
0
0
0
0
0
0
0
0
0
0
0
0
0
0
0
0
0
0
0
0
0
0
0
0
0
0
0
0
0
0
0
0
0
0
0
0
0
0
0
0
0
0
0
0
0
0
0
0
0
0
0
0
0
0
0
0
0
0
0
0
0
0
0
0
0
0
0
0
0
0
0
0
0
0
0
0
0
0
0
0
0
0
0
0
0
0
0
0
0
0
0
0
0
0
0
0
0
0
0
0
0
0
0
0
0
0
0
0
0
0
0
0
0
0
0
0
0
0
0
0
0
0
0
0
0
0
0
0
0
0
0
0
0
0
0
0
0
0
0
0
0
0
0
0
0
0
0
0
0
0
0
0
0
0
0
0
0
0
0
0
0
0
0
0
0
0
0
0
0
0
0
0
0
0
0
0
0
0
0
0
0
0
0
0
0
0
0
0
0
0
0
0
0
0
0
0
0
0
0
0
0
0
0
0
0
0
0
0
0
0
0
0
0
0
0
0
0
0
0
0
0
0
0
0
0
0
0
0
0
0
0
0
0
0
0
0
0
0
0
0
0
0
0
0
0
0
0
0
0
0
0
0
0
0
0
0
0
0
0
0
0
0
0
0
0
0
0
0
0
0
0
0
0
0
0
0
0
0
0
0
0
0
0
0
0
0
0
0
0
0
0
0
0
0
0
0
0
0
0
0
0
0
0
0
0
0
0
0
0
0
0
0
0
0
0
0
0
0
0
0
0
0
0
0
0
0
0
0
0
0
0
0
0
0
0
0
0
0
0
0
0
0
0
0
0
0
0
0
0
0
0
0
0
0
0
0
0
0
0
0
0
0
0
0
0
0
0
0
0
0
0
0
0
0
0
0
0
0
0
0
0
0
0
0
0
0
0
0
0
0
0
0
0
0
0
0
0
0
0
0
0
0
0
0
0
0
0
0
0
0
0
0
0
0
0
0
0
0
0
0
0
0
0
0
0
0
0
0
0
0
0
0
0
0
0
0
0
0
0
0
0
0
0
0
0
0
0
0
0
0
0
0
0
0
0
0
0
0
0
0
0
0
0
0
0
0
0
0
0
0
0
0
0
0
0
0
0
0
0
0
0
0
0
0
0
0
0
0
0
0
0
0
0
0
0
0
0
0
0
0
0
0
0
0
0
0
0
0
0
0
0
0
0
0
0
0
0
0
0
0
0
0
0
0
0
0
0
0
0
0
0
0
0
0
0
0
0
0
0
0
0
0
0
0
0
0
0
0
0
0
0
0
0
0
0
0
0
0
0
0
0
0
0
0
0
0
0
0
0
0
0
0
0
0
0
0
0
0
0
0
0
0
0
0
0
0
0
0
0
0
0
0
0
0
0
0
0
0
0
0
0
0
0
0
0
0
0
0
0
0
0
0
0
0
0
0
0
0
0
0
0
0
0
0
0
0
0
0
0
0
0
0
0
0
0
0
0
0
0
0
0
0
0
0
0
0
0
0
0
0
0
0
0
0
0
0
0
0
0
0
0
0
0
0
0
0
0
0
0
0
0
0
0
0
0
0
0
0
0
0
0
0
0
0
0
0
0
0
0
0
0
0
0
0
0
0
0
0
0
0
0
0
0
0
0
0
0
0
0
0
0
0
0
0
0
0
0
0
0
0
0
0
0
0
0
0
0
0
0
0
0
0
0
0
0
0
0
0
0
0
0
0
0
0
0
0
0
0
0
0
0
0
0
0
0
0
0
0
0
0
0
0
0
0
0
0
0
0
0
0
0
0
0
0
0
0
0
0
0
0
0
0
0
0
0
0
0
0
0
0
0
0
0
0
0
0
0
0
0
0
0
0
0
0
0
0
0
0
0
0
0
0
0
0
0
0
0
0
0
0
0
0
0
0
0
0
0
0
0
0
0
0
0
0
0
0
0
0
0
0
0
0
0
0
0
0
0
0
0
0
0
0
0
0
0
0
0
0
0
0
0
0
0
0
0
0
0
0
0
0
0
0
0
0
0
0
0
0
0
0
0
0
0
0
0
0
0
0
0
0
0
0
0
0
0
0
0
0
0
0
0
0
0
0
0
0
0
0
0
0
0
0
0
0
0
0
0
0
0
0
0
0
0
0
0
0
0
0
0
0
0
0
0
0
0
0
0
0
0
0
0
0
0
0
0
0
0
0
0
0
0
0
0
0
0
0
0
0
0
0
0
0
0
0
0
0
0
0
0
0
0
0
0
0
0
0
0
0
0
0
0
0
0
0
0
0
0
0
0
0
0
0
0
0
0
0
0
0
0
0
0
0
0
0
0
0
0
0
0
0
0
0
0
0
0
0
0
0
0
0
0
0
0
0
0
0
0
0
0
0
0
0
0
0
0
0
0
0
0
0
0
0
0
0
0
0
0
0
0
0
0
0
0
0
0
0
0
0
0
0
0
0
0
0
0
0
0
0
0
0
0
0
0
0
0
0
0
0
0
0
0
0
0
0
0
0
0
0
0
0
0
0
0
0
0
0
0
0
0
0
0
0
0
0
0
0
0
0
0
0
0
0
0
0
0
0
0
0
0
0
0
0
0
0
0
0
0
0
0
0
0
0
0
0
0
0
0
0
0
0
0
0
0
0
0
0
0
0
0
0
0
0
0
0
0
0
0
0
0
0
0
0
0
0
0
0
0
0
0
0
0
0
0
0
0
0
0
0
0
0
0
0
0
0
0
0
0
0
0
0
0
0
0
0
0
0
0
0
0
0
0
0
0
0
0
0
0
0
0
0
0
0
0
0
0
0
0
0
0
0
0
0
0
0
0
0
0
0
0
0
0
0
0
0
0
0
0
0
0
0
0
0
0
0
0
0
0
0
0
0
0
0
0
0
0
0
0
0
0
0
0
0
0
0
0
0
0
0
0
0
0
0
0
0
0
0
0
0
0
0
0
0
0
0
0
0
0
0
0
0
0
0
0
0
0
0
0
0
0
0
0
0
0
0
0
0
0
0
0
0
0
0
0
0
0
0
0
0
0
0
0
0
0
0
0
0
0
0
0
0
0
0
0
0
0
0
0
0
0
0
0
0
0
0
0
0
0
0
0
0
0
0
0
0
0
0
0
0
0
0
0
0
0
0
0
0
0
0
0
0
0
0
0
0
0
0
0
0
0
0
0
0
0
0
0
0
0
0
0
0
0
0
0
0
0
0
0
0
0
0
0
0
0
0
0
0
0
0
0
0
0
0
0
0
0
0
0
0
0
0
0
0
0
0
0
0
0
0
0
0
0
0
0
0
0
0
0
0
0
0
0
0
0
0
0
0
0
0
0
0
0
0
0
0
0
0
0
0
0
0
0
0
0
0
0
0
0
0
0
0
0
0
0
0
0
0
0
0
0
0
0
0
0
0
0
0
0
0
0
0
0
0
0
0
0
0
0
0
0
0
0
0
0
0
0
0
0
0
0
0
0
0
0
0
0
0
0
0
0
0
0
0
0
0
0
0
0
0
0
0
0
0
0
0
0
0
0
0
0
0
0
0
0
0
0
0
0
0
0
0
0
0
0
0
0
0
0
0
0
0
0
0
0
0
0
0
0
0
0
0
0
0
0
0
0
0
0
0
0
0
0
0
0
0
0
0
0
0
0
0
0
0
0
0
0
0
0
0
0
0
0
0
0
0
0
0
0
0
0
0
0
0
0
0
0
0
0
0
0
0
0
0
0
0
0
0
0
0
0
0
0
0
0
0
0
0
0
0
0
0
0
0
0
0
0
0
0
0
0
0
0
0
0
0
0
0
0
0
0
0
0
0
0
0
0
0
0
0
0
0
0
0
0
0
0
0
0
0
0
0
0
0
0
0
0
0
0
0
0
0
0
0
0
0
0
0
0
0
0
0
0
0
0
0
0
0
0
0
0
0
0
0
0
0
0
0
0
0
0
0
0
0
0
0
0
0
0
0
0
0
0
0
0
0
0
0
0
0
0
0
0
0
0
0
0
0
0
0
0
0
0
0
0
0
0
0
0
0
0
0
0
0
0
0
0
0
0
0
0
0
0
0
0
0
0
0
0
0
0
0
0
0
0
0
0
0
0
0
0
0
0
0
0
0
0
0
0
0
0
0
0
0
0
0
0
0
0
0
0
0
0
0
0
0
0
0
0
0
0
0
0
0
0
0
0
0
0
0
0
0
0
0
0
0
0
0
0
0
0
0
0
0
0
0
0
0
0
0
0
0
0
0
0
0
0
0
0
0
0
0
0
0
0
0
0
0
0
0
0
0
0
0
0
0
0
0
0
0
0
0
0
0
0
0
0
0
0
0
0
0
0
0
0
0
0
0
0
0
0
0
0
0
0
0
0
0
0
0
0
0
0
0
0
0
0
0
0
0
0
0
0
0
0
0
0
0
0
0
0
0
0
0
0
0
0
0
0
0
0
0
0
0
0
0
0
0
0
0
0
0
0
0
0
0
0
0
0
0
0
0
0
0
0
0
0
0
0
0
0
0
0
0
0
0
0
0
0
0
0
0
0
0
0
0
0
0
0
0
0
0
0
0
0
0
0
0
0
0
0
0
0
0
0
0
0
0
0
0
0
0
0
0
0
0
0
0
0
0
0
0
0
0
0
0
0
0
0
0
0
0
0
0
0
0
0
0
0
0
0
0
0
0
0
0
0
0
0
0
0
0
0
0
0
0
0
0
0
0
0
0
0
0
0
0
0
0
0
0
0
0
0
0
0
0
0
0
0
0
0
0
0
0
0
0
0
0
0
0
0
0
0
0
0
0
0
0
0
0
0
0
0
0
0
0
0
0
0
0
0
0
0
0
0
0
0
0
0
0
0
0
0
0
0
0
0
0
0
0
0
0
0
0
0
0
0
0
0
0
0
0
0
0
0
0
0
0
0
0
0
0
0
0
0
0
0
0
0
0
0
0
0
0
0
0
0
0
0
0
0
0
0
0
0
0
0
0
0
0
0
0
0
0
0
0
0
0
0
0
0
0
0
0
0
0
0
0
0
0
0
0
0
0
0
0
0
0
0
0
0
0
0
0
0
0
0
0
0
0
0
0
0
0
0
0
0
0
0
0
0
0
0
0
0
0
0
0
0
0
0
0
0
0
0
0
0
0
0
0
0
0
0
0
0
0
0
0
0
0
0
0
0
0
0
0
0
0
0
0
0
0
0
0
0
0
0
0
0
0
0
0
0
0
0
0
0
0
0
0
0
0
0
0
0
0
0
0
0
0
0
0
0
0
0
0
0
0
0
0
0
0
0
0
0
0
0
0
0
0
0
0
0
0
0
0
0
0
0
0
0
0
0
0
0
0
0
0
0
0
0
0
0
0
0
0
0
0
0
0
0
0
0
0
0
0
0
0
0
0
0
0
0
0
0
0
0
0
0
0
0
0
0
0
0
0
0
0
0
0
0
0
0
0
0
0
0
0
0
0
0
0
0
0
0
0
0
0
0
0
0
0
0
0
0
0
0
0
0
0
0
0
0
0
0
0
0
0
0
0
0
0
0
0
0
0
0
0
0
0
0
0
0
0
0
0
0
0
0
0
0
0
0
0
0
0
0
0
0
0
0
0
0
0
0
0
0
0
0
0
0
0
0
0
0
0
0
0
0
0
0
0
0
0
0
0
0
0
0
0
0
0
0
0
0
0
0
0
0
0
0
0
0
0
0
0
0
0
0
0
0
0
0
0
0
0
0
0
0
0
0
0
0
0
0
0
0
0
0
0
0
0
0
0
0
0
0
0
0
0
0
0
0
0
0
0
0
0
0
0
0
0
0
0
0
0
0
0
0
0
0
0
0
0
0
0
0
0
0
0
0
0
0
0
0
0
0
0
0
0
0
0
0
0
0
0
0
0
0
0
0
0
0
0
0
0
0
0
0
0
0
0
0
0
0
0
0
0
0
0
0
0
0
0
0
0
0
0
0
0
0
0
0
0
0
0
0
0
0
0
0
0
0
0
0
0
0
0
0
0
0
0
0
0
0
0
0
0
0
0
0
0
0
0
0
0
0
0
0
0
0
0
0
0
0
0
0
0
0
0
0
0
0
0
0
0
0
0
0
0
0
0
0
0
0
0
0
0
0
0
0
0
0
0
0
0
0
0
0
0
0
0
0
0
0
0
0
0
0
0
0
0
0
0
0
0
0
0
0
0
0
0
0
0
0
0
0
0
0
0
0
0
0
0
0
0
0
0
0
0
0
0
0
0
0
0
0
0
0
0
0
0
0
0
0
0
0
0
0
0
0
0
0
0
0
0
0
0
0
0
0
0
0
0
0
0
0
0
0
0
0
0
0
0
0
0
0
0
0
0
0
0
0
0
0
0
0
0
0
0
0
0
0
0
0
0
0
0
0
0
0
0
0
0
0
0
0
0
0
0
0
0
0
0
0
0
0
0
0
0
0
0
0
0
0
0
0
0
0
0
0
0
0
0
0
0
0
0
0
0
0
0
0
0
0
0
0
0
0
0
0
0
0
0
0
0
0
0
0
0
0
0
0
0
0
0
0
0
0
0
0
0
0
0
0
0
0
0
0
0
0
0
0
0
0
0
0
0
0
0
0
0
0
0
0
0
0
0
0
0
0
0
0
0
0
0
0
0
0
0
0
0
0
0
0
0
0
0
0
0
0
0
0
0
0
0
0
0
0
0
0
0
0
0
0
0
0
0
0
0
0
0
0
0
0
0
0
0
0
0
0
0
0
0
0
0
0
0
0
0
0
0
0
0
0
0
0
0
0
0
0
0
0
0
0
0
0
0
0
0
0
0
0
0
0
0
0
0
0
0
0
0
0
0
0
0
0
0
0
0
0
0
0
0
0
0
0
0
0
0
0
0
0
0
0
0
0
0
0
0
0
0
0
0
0
0
0
0
0
0
0
0
0
0
0
0
0
0
0
0
0
0
0
0
0
0
0
0
0
0
0
0
0
0
0
0
0
0
0
0
0
0
0
0
0
0
0
0
0
0
0
0
0
0
0
0
0
0
0
0
0
0
0
0
0
0
0
0
0
0
0
0
0
0
0
0
0
0
0
0
0
0
0
0
0
0
0
0
0
0
0
0
0
0
0
0
0
0
0
0
0
0
0
0
0
0
0
0
0
0
0
0
0
0
0
0
0
0
0
0
0
0
0
0
0
0
0
0
0
0
0
0
0
0
0
0
0
0
0
0
0
0
0
0
0
0
0
0
0
0
0
0
0
0
0
0
0
0
0
0
0
0
0
0
0
0
0
0
0
0
0
0
0
0
0
0
0
0
0
0
0
0
0
0
0
0
0
0
0
0
0
0
0
0
0
0
0
0
0
0
0
0
0
0
0
0
0
0
0
0
0
0
0
0
0
0
0
0
0
0
0
0
0
0
0
0
0
0
0
0
0
0
0
0
0
0
0
0
0
0
0
0
0
0
0
0
0
0
0
0
0
0
0
0
0
0
0
0
0
0
0
0
0
0
0
0
0
0
0
0
0
0
0
0
0
0
0
0
0
0
0
0
0
0
0
0
0
0
0
0
0
0
0
0
0
0
0
0
0
0
0
0
0
0
0
0
0
0
0
0
0
0
0
0
0
0
0
0
0
0
0
0
0
0
0
0
0
0
0
0
0
0
0
0
0
0
0
0
0
0
0
0
0
0
0
0
0
0
0
0
0
0
0
0
0
0
0
0
0
0
0
0
0
0
0
0
0
0
0
0
0
0
0
0
0
0
0
0
0
0
0
0
0
0
0
0
0
0
0
0
0
0
0
0
0
0
0
0
0
0
0
0
0
0
0
0
0
0
0
0
0
0
0
0
0
0
0
0
0
0
0
0
0
0
0
0
0
0
0
0
0
0
0
0
0
0
0
0
0
0
0
0
0
0
0
0
0
0
0
0
0
0
0
0
0
0
0
0
0
0
0
0
0
0
0
0
0
0
0
0
0
0
0
0
0
0
0
0
0
0
0
0
0
0
0
0
0
0
0
0
0
0
0
0
0
0
0
0
0
0
0
0
0
0
0
0
0
0
0
0
0
0
0
0
0
0
0
0
0
0
0
0
0
0
0
0
0
0
0
0
0
0
0
0
0
0
0
0
0
0
0
0
0
0
0
0
0
0
0
0
0
0
0
0
0
0
0
0
0
0
0
0
0
0
0
0
0
0
0
0
0
0
0
0
0
0
0
0
0
0
0
0
0
0
0
0
0
0
0
0
0
0
0
0
0
0
0
0
0
0
0
0
0
0
0
0
0
0
0
0
0
0
0
0
0
0
0
0
0
0
0
0
0
0
0
0
0
0
0
0
0
0
0
0
0
0
0
0
0
0
0
0
0
0
0
0
0
0
0
0
0
0
0
0
0
0
0
0
0
0
0
0
0
0
0
0
0
0
0
0
0
0
0
0
0
0
0
0
0
0
0
0
0
0
0
0
0
0
0
0
0
0
0
0
0
0
0
0
0
0
0
0
0
0
0
0
0
0
0
0
0
0
0
0
0
0
0
0
0
0
0
0
0
0
0
0
0
0
0
0
0
0
0
0
0
0
0
0
0
0
0
0
0
0
0
0
0
0
0
0
0
0
0
0
0
0
0
0
0
0
0
0
0
0
0
0
0
0
0
0
0
0
0
0
0
0
0
0
0
0
0
0
0
0
0
0
0
0
0
0
0
0
0
0
0
0
0
0
0
0
0
0
0
0
0
0
0
0
0
0
0
0
0
0
0
0
0
0
0
0
0
0
0
0
0
0
0
0
0
0
0
0
0
0
0
0
0
0
0
0
0
0
0
0
0
0
0
0
0
0
0
0
0
0
0
0
0
0
0
0
0
0
0
0
0
0
0
0
0
0
0
0
0
0
0
0
0
0
0
0
0
0
0
0
0
0
0
0
0
0
0
0
0
0
0
0
0
0
0
0
0
0
0
0
0
0
0
0
0
0
0
0
0
0
0
0
0
0
0
0
0
0
0
0
0
0
0
0
0
0
0
0
0
0
0
0
0
0
0
0
0
0
0
0
0
0
0
0
0
0
0
0
0
0
0
0
0
0
0
0
0
0
0
0
0
0
0
0
0
0
0
0
0
0
0
0
0
0
0
0
0
0
0
0
0
0
0
0
0
0
0
0
0
0
0
0
0
0
0
0
0
0
0
0
0
0
0
0
0
0
0
0
0
0
0
0
0
0
0
0
0
0
0
0
0
0
0
0
0
0
0
0
0
0
0
0
0
0
0
0
0
0
0
0
0
0
0
0
0
0
0
0
0
0
0
0
0
0
0
0
0
0
0
0
0
0
0
0
0
0
0
0
0
0
0
0
0
0
0
0
0
0
0
0
0
0
0
0
0
0
0
0
0
0
0
0
0
0
0
0
0
0
0
0
0
0
0
0
0
0
0
0
0
0
0
0
0
0
0
0
0
0
0
0
0
0
0
0
0
0
0
0
0
0
0
0
0
0
0
0
0
0
0
0
0
0
0
0
0
0
0
0
0
0
0
0
0
0
0
0
0
0
0
0
0
0
0
0
0
0
0
0
0
0
0
0
0
0
0
0
0
0
0
0
0
0
0
0
0
0
0
0
0
0
0
0
0
0
0
0
0
0
0
0
0
0
0
0
0
0
0
0
0
0
0
0
0
0
0
0
0
0
0
0
0
0
0
0
0
0
0
0
0
0
0
0
0
0
0
0
0
0
0
0
0
0
0
0
0
0
0
0
0
0
0
0
0
0
0
0
0
0
0
0
0
0
0
0
0
0
0
0
0
0
0
0
0
0
0
0
0
0
0
0
0
0
0
0
0
0
0
0
0
0
0
0
0
0
0
0
0
0
0
0
0
0
0
0
0
0
0
0
0
0
0
0
0
0
0
0
0
0
0
0
0
0
0
0
0
0
0
0
0
0
0
0
0
0
0
0
0
0
0
0
0
0
0
0
0
0
0
0
0
0
0
0
0
0
0
0
0
0
0
0
0
0
0
0
0
0
0
0
0
0
0
0
0
0
0
0
0
0
0
0
0
0
0
0
0
0
0
0
0
0
0
0
0
0
0
0
0
0
0
0
0
0
0
0
0
0
0
0
0
0
0
0
0
0
0
0
0
0
0
0
0
0
0
0
0
0
0
0
0
0
0
0
0
0
0
0
0
0
0
0
0
0
0
0
0
0
0
0
0
0
0
0
0
0
0
0
0
0
0
0
0
0
0
0
0
0
0
0
0
0
0
0
0
0
0
0
0
0
0
0
0
0
0
0
0
0
0
0
0
0
0
0
0
0
0
0
0
0
0
0
0
0
0
0
0
0
0
0
0
0
0
0
0
0
0
0
0
0
0
0
0
0
0
0
0
0
0
0
0
0
0
0
0
0
0
0
0
0
0
0
0
0
0
0
0
0
0
0
0
0
0
0
0
0
0
0
0
0
0
0
0
0
0
0
0
0
0
0
0
0
0
0
0
0
0
0
0
0
0
0
0
0
0
0
0
0
0
0
0
0
0
0
0
0
0
0
0
0
0
0
0
0
0
0
0
0
0
0
0
0
0
0
0
0
0
0
0
0
0
0
0
0
0
0
0
0
0
0
0
0
0
0
0
0
0
0
0
0
0
0
0
0
0
0
0
0
0
0
0
0
0
0
0
0
0
0
0
0
0
0
0
0
0
0
0
0
0
0
0
0
0
0
0
0
0
0
0
0
0
0
0
0
0
0
0
0
0
0
0
0
0
0
0
0
0
0
0
0
0
0
0
0
0
0
0
0
0
0
0
0
0
0
0
0
0
0
0
0
0
0
0
0
0
0
0
0
0
0
0
0
0
0
0
0
0
0
0
0
0
0
0
0
0
0
0
0
0
0
0
0
0
0
0
0
0
0
0
0
0
0
0
0
0
0
0
0
0
0
0
0
0
0
0
0
0
0
0
0
0
0
0
0
0
0
0
0
0
0
0
0
0
0
0
0
0
0
0
0
0
0
0
0
0
0
0
0
0
0
0
0
0
0
0
0
0
0
0
0
0
0
0
0
0
0
0
0
0
0
0
0
0
0
0
0
0
0
0
0
0
0
0
0
0
0
0
0
0
0
0
0
0
0
0
0
0
0
0
0
0
0
0
0
0
0
0
0
0
0
0
0
0
0
0
0
0
0
0
0
0
0
0
0
0
0
0
0
0
0
0
0
0
0
0
0
0
0
0
0
0
0
0
0
0
0
0
0
0
0
0
0
0
0
0
0
0
0
0
0
0
0
0
0
0
0
0
0
0
0
0
0
0
0
0
0
0
0
0
0
0
0
0
0
0
0
0
0
0
0
0
0
0
0
0
0
0
0
0
0
0
0
0
0
0
0
0
0
0
0
0
0
0
0
0
0
0
0
0
0
0
0
0
0
0
0
0
0
0
0
0
0
0
0
0
0
0
0
0
0
0
0
0
0
0
0
0
0
0
0
0
0
0
0
0
0
0
0
0
0
0
0
0
0
0
0
0
0
0
0
0
0
0
0
0
0
0
0
0
0
0
0
0
0
0
0
0
0
0
0
0
0
0
0
0
0
0
0
0
0
0
0
0
0
0
0
0
0
0
0
0
0
0
0
0
0
0
0
0
0
0
0
0
0
0
0
0
0
0
0
0
0
0
0
0
0
0
0
0
0
0
0
0
0
0
0
0
0
0
0
0
0
0
0
0
0
0
0
0
0
0
0
0
0
0
0
0
0
0
0
0
0
0
0
0
0
0
0
0
0
0
0
0
0
0
0
0
0
0
0
0
0
0
0
0
0
0
0
0
0
0
0
0
0
0
0
0
0
0
0
0
0
0
0
0
0
0
0
0
0
0
0
0
0
0
0
0
0
0
0
0
0
0
0
0
0
0
0
0
0
0
0
0
0
0
0
0
0
0
0
0
0
0
0
0
0
0
0
0
0
0
0
0
0
0
0
0
0
0
0
0
0
0
0
0
0
0
0
0
0
0
0
0
0
0
0
0
0
0
0
0
0
0
0
0
0
0
0
0
0
0
0
0
0
0
0
0
0
0
0
0
0
0
0
0
0
0
0
0
0
0
0
0
0
0
0
0
0
0
0
0
0
0
0
0
0
0
0
0
0
0
0
0
0
0
0
0
0
0
0
0
0
0
0
0
0
0
0
0
0
0
0
0
0
0
0
0
0
0
0
0
0
0
0
0
0
0
0
0
0
0
0
0
0
0
0
0
0
0
0
0
0
0
0
0
0
0
0
0
0
0
0
0
0
0
0
0
0
0
0
0
0
0
0
0
0
0
0
0
0
0
0
0
0
0
0
0
0
0
0
0
0
0
0
0
0
0
0
0
0
0
0
0
0
0
0
0
0
0
0
0
0
0
0
0
0
0
0
0
0
0
0
0
0
0
0
0
0
0
0
0
0
0
0
0
0
0
0
0
0
0
0
0
0
0
0
0
0
0
0
0
0
0
0
0
0
0
0
0
0
0
0
0
0
0
0
0
0
0
0
0
0
0
0
0
0
0
0
0
0
0
0
0
0
0
0
0
0
0
0
0
0
0
0
0
0
0
0
0
0
0
0
0
0
0
0
0
0
0
0
0
0
0
0
0
0
0
0
0
0
0
0
0
0
0
0
0
0
0
0
0
0
0
0
0
0
0
0
0
0
0
0
0
0
0
0
0
0
0
0
0
0
0
0
0
0
0
0
0
0
0
0
0
0
0
0
0
0
0
0
0
0
0
0
0
0
0
0
0
0
0
0
0
0
0
0
0
0
0
0
0
0
0
0
0
0
0
0
0
0
0
0
0
0
0
0
0
0
0
0
0
0
0
0
0
0
0
0
0
0
0
0
0
0
0
0
0
0
0
0
0
0
0
0
0
0
0
0
0
0
0
0
0
0
0
0
0
0
0
0
0
0
0
0
0
0
0
0
0
0
0
0
0
0
0
0
0
0
0
0
0
0
0
0
0
0
0
0
0
0
0
0
0
0
0
0
0
0
0
0
0
0
0
0
0
0
0
0
0
0
0
0
0
0
0
0
0
0
0
0
0
0
0
0
0
0
0
0
0
0
0
0
0
0
0
0
0
0
0
0
0
0
0
0
0
0
0
0
0
0
0
0
0
0
0
0
0
0
0
0
0
0
0
0
0
0
0
0
0
0
0
0
0
0
0
0
0
0
0
0
0
0
0
0
0
0
0
0
0
0
0
0
0
0
0
0
0
0
0
0
0
0
0
0
0
0
0
0
0
0
0
0
0
0
0
0
0
0
0
0
0
0
0
0
0
0
0
0
0
0
0
0
0
0
0
0
0
0
0
0
0
0
0
0
0
0
0
0
0
0
0
0
0
0
0
0
0
0
0
0
0
0
0
0
0
0
0
0
0
0
0
0
0
0
0
0
0
0
0
0
0
0
0
0
0
0
0
0
0
0
0
0
0
0
0
0
0
0
0
0
0
0
0
0
0
0
0
0
0
0
0
0
0
0
0
0
0
0
0
0
0
0
0
0
0
0
0
0
0
0
0
0
0
0
0
0
0
0
0
0
0
0
0
0
0
0
0
0
0
0
0
0
0
0
0
0
0
0
0
0
0
0
0
0
0
0
0
0
0
0
0
0
0
0
0
0
0
0
0
0
0
0
0
0
0
0
0
0
0
0
0
0
0
0
0
0
0
0
0
0
0
0
0
0
0
0
0
0
0
0
0
0
0
0
0
0
0
0
0
0
0
0
0
0
0
0
0
0
0
0
0
0
0
0
0
0
0
0
0
0
0
0
0
0
0
0
0
0
0
0
0
0
0
0
0
0
0
0
0
0
0
0
0
0
0
0
0
0
0
0
0
0
0
0
0
0
0
0
0
0
0
0
0
0
0
0
0
0
0
0
0
0
0
0
0
0
0
0
0
0
0
0
0
0
0
0
0
0
0
0
0
0
0
0
0
0
0
0
0
0
0
0
0
0
0
0
0
0
0
0
0
0
0
0
0
0
0
0
0
0
0
0
0
0
0
0
0
0
0
0
0
0
0
0
0
0
0
0
0
0
0
0
0
0
0
0
0
0
0
0
0
0
0
0
0
0
0
0
0
0
0
0
0
0
0
0
0
0
0
0
0
0
0
0
0
0
0
0
0
0
0
0
0
0
0
0
0
0
0
0
0
0
0
0
0
0
0
0
0
0
0
0
0
0
0
0
0
0
0
0
0
0
0
0
0
0
0
0
0
0
0
0
0
0
0
0
0
0
0
0
0
0
0
0
0
0
0
0
0
0
0
0
0
0
0
0
0
0
0
0
0
0
0
0
0
0
0
0
0
0
0
0
0
0
0
0
0
0
0
0
0
0
0
0
0
0
0
0
0
0
0
0
0
0
0
0
0
0
0
0
0
0
0
0
0
0
0
0
0
0
0
0
0
0
0
0
0
0
0
0
0
0
0
0
0
0
0
0
0
0
0
0
0
0
0
0
0
0
0
0
0
0
0
0
0
0
0
0
0
0
0
0
0
0
0
0
0
0
0
0
0
0
0
0
0
0
0
0
0
0
0
0
0
0
0
0
0
0
0
0
0
0
0
0
0
0
0
0
0
0
0
0
0
0
0
0
0
0
0
0
0
0
0
0
0
0
0
0
0
0
0
0
0
0
0
0
0
0
0
0
0
0
0
0
0
0
0
0
0
0
0
0
0
0
0
0
0
0
0
0
0
0
0
0
0
0
0
0
0
0
0
0
0
0
0
0
0
0
0
0
0
0
0
0
0
0
0
0
0
0
0
0
0
0
0
0
0
0
0
0
0
0
0
0
0
0
0
0
0
0
0
0
0
0
0
0
0
0
0
0
0
0
0
0
0
0
0
0
0
0
0
0
0
0
0
0
0
0
0
0
0
0
0
0
0
0
0
0
0
0
0
0
0
0
0
0
0
0
0
0
0
0
0
0
0
0
0
0
0
0
0
0
0
0
0
0
0
0
0
0
0
0
0
0
0
0
0
0
0
0
0
0
0
0
0
0
0
0
0
0
0
0
0
0
0
0
0
0
0
0
0
0
0
0
0
0
0
0
0
0
0
0
0
0
0
0
0
0
0
0
0
0
0
0
0
0
0
0
0
0
0
0
0
0
0
0
0
0
0
0
0
0
0
0
0
0
0
0
0
0
0
0
0
0
0
0
0
0
0
0
0
0
0
0
0
0
0
0
0
0
0
0
0
0
0
0
0
0
0
0
0
0
0
0
0
0
0
0
0
0
0
0
0
0
0
0
0
0
0
0
0
0
0
0
0
0
0
0
0
0
0
0
0
0
0
0
0
0
0
0
0
0
0
0
0
0
0
0
0
0
0
0
0
0
0
0
0
0
0
0
0
0
0
0
0
0
0
0
0
0
0
0
0
0
0
0
0
0
0
0
0
0
0
0
0
0
0
0
0
0
0
0
0
0
0
0
0
0
0
0
0
0
0
0
0
0
0
0
0
0
0
0
0
0
0
0
0
0
0
0
0
0
0
0
0
0
0
0
0
0
0
0
0
0
0
0
0
0
0
0
0
0
0
0
0
0
0
0
0
0
0
0
0
0
0
0
0
0
0
0
0
0
0
0
0
0
0
0
0
0
0
0
0
0
0
0
0
0
0
0
0
0
0
0
0
0
0
0
0
0
0
0
0
0
0
0
0
0
0
0
0
0
0
0
0
0
0
0
0
0
0
0
0
0
0
0
0
0
0
0
0
0
0
0
0
0
0
0
0
0
0
0
0
0
0
0
0
0
0
0
0
0
0
0
0
0
0
0
0
0
0
0
0
0
0
0
0
0
0
0
0
0
0
0
0
0
0
0
0
0
0
0
0
0
0
0
0
0
0
0
0
0
0
0
0
0
0
0
0
0
0
0
0
0
0
0
0
0
0
0
0
0
0
0
0
0
0
0
0
0
0
0
0
0
0
0
0
0
0
0
0
0
0
0
0
0
0
0
0
0
0
0
0
0
0
0
0
0
0
0
0
0
0
0
0
0
0
0
0
0
0
0
0
0
0
0
0
0
0
0
0
0
0
0
0
0
0
0
0
0
0
0
0
0
0
0
0
0
0
0
0
0
0
0
0
0
0
0
0
0
0
0
0
0
0
0
0
0
0
0
0
0
0
0
0
0
0
0
0
0
0
0
0
0
0
0
0
0
0
0
0
0
0
0
0
0
0
0
0
0
0
0
0
0
0
0
0
0
0
0
0
0
0
0
0
0
0
0
0
0
0
0
0
0
0
0
0
0
0
0
0
0
0
0
0
0
0
0
0
0
0
0
0
0
0
0
0
0
0
0
0
0
0
0
0
0
0
0
0
0
0
0
0
0
0
0
0
0
0
0
0
0
0
0
0
0
0
0
0
0
0
0
0
0
0
0
0
0
0
0
0
0
0
0
0
0
0
0
0
0
0
0
0
0
0
0
0
0
0
0
0
0
0
0
0
0
0
0
0
0
0
0
0
0
0
0
0
0
0
0
0
0
0
0
0
0
0
0
0
0
0
0
0
0
0
0
0
0
0
0
0
0
0
0
0
0
0
0
0
0
0
0
0
0
0
0
0
0
0
0
0
0
0
0
0
0
0
0
0
0
0
0
0
0
0
0
0
0
0
0
0
0
0
0
0
0
0
0
0
0
0
0
0
0
0
0
0
0
0
0
0
0
0
0
0
0
0
0
0
0
0
0
0
0
0
0
0
0
0
0
0
0
0
0
0
0
0
0
0
0
0
0
0
0
0
0
0
0
0
0
0
0
0
0
0
0
0
0
0
0
0
0
0
0
0
0
0
0
0
0
0
0
0
0
0
0
0
0
0
0
0
0
0
0
0
0
0
0
0
0
0
0
0
0
0
0
0
0
0
0
0
0
0
0
0
0
0
0
0
0
0
0
0
0
0
0
0
0
0
0
0
0
0
0
0
0
0
0
0
0
0
0
0
0
0
0
0
0
0
0
0
0
0
0
0
0
0
0
0
0
0
0
0
0
0
0
0
0
0
0
0
0
0
0
0
0
0
0
0
0
0
0
0
0
0
0
0
0
0
0
0
0
0
0
0
0
0
0
0
0
0
0
0
0
0
0
0
0
0
0
0
0
0
0
0
0
0
0
0
0
0
0
0
0
0
0
0
0
0
0
0
0
0
0
0
0
0
0
0
0
0
0
0
0
0
0
0
0
0
0
0
0
0
0
0
0
0
0
0
0
0
0
0
0
0
0
0
0
0
0
0
0
0
0
0
0
0
0
0
0
0
0
0
0
0
0
0
0
0
0
0
0
0
0
0
0
0
0
0
0
0
0
0
0
0
0
0
0
0
0
0
0
0
0
0
0
0
0
0
0
0
0
0
0
0
0
0
0
0
0
0
0
0
0
0
0
0
0
0
0
0
0
0
0
0
0
0
0
0
0
0
0
0
0
0
0
0
0
0
0
0
0
0
0
0
0
0
0
0
0
0
0
0
0
0
0
0
0
0
0
0
0
0
0
0
0
0
0
0
0
0
0
0
0
0
0
0
0
0
0
0
0
0
0
0
0
0
0
0
0
0
0
0
0
0
0
0
0
0
0
0
0
0
0
0
0
0
0
0
0
0
0
0
0
0
0
0
0
0
0
0
0
0
0
0
0
0
0
0
0
0
0
0
0
0
0
0
0
0
0
0
0
0
0
0
0
0
0
0
0
0
0
0
0
0
0
0
0
0
0
0
0
0
0
0
0
0
0
0
0
0
0
0
0
0
0
0
0
0
0
0
0
0
0
0
0
0
0
0
0
0
0
0
0
0
0
0
0
0
0
0
0
0
0
0
0
0
0
0
0
0
0
0
0
0
0
0
0
0
0
0
0
0
0
0
0
0
0
0
0
0
0
0
0
0
0
0
0
0
0
0
0
0
0
0
0
0
0
0
0
0
0
0
0
0
0
0
0
0
0
0
0
0
0
0
0
0
0
0
0
0
0
0
0
0
0
0
0
0
0
0
0
0
0
0
0
0
0
0
0
0
0
0
0
0
0
0
0
0
0
0
0
0
0
0
0
0
0
0
0
0
0
0
0
0
0
0
0
0
0
0
0
0
0
0
0
0
0
0
0
0
0
0
0
0
0
0
0
0
0
0
0
0
0
0
0
0
0
0
0
0
0
0
0
0
0
0
0
0
0
0
0
0
0
0
0
0
0
0
0
0
0
0
0
0
0
0
0
0
0
0
0
0
0
0
0
0
0
0
0
0
0
0
0
0
0
0
0
0
0
0
0
0
0
0
0
0
0
0
0
0
0
0
0
0
0
0
0
0
0
0
0
0
0
0
0
0
0
0
0
0
0
0
0
0
0
0
0
0
0
0
0
0
0
0
0
0
0
0
0
0
0
0
0
0
0
0
0
0
0
0
0
0
0
0
0
0
0
0
0
0
0
0
0
0
0
0
0
0
0
0
0
0
0
0
0
0
0
0
0
0
0
0
0
0
0
0
0
0
0
0
0
0
0
0
0
0
0
0
0
0
0
0
0
0
0
0
0
0
0
0
0
0
0
0
0
0
0
0
0
0
0
0
0
0
0
0
0
0
0
0
0
0
0
0
0
0
0
0
0
0
0
0
0
0
0
0
0
0
0
0
0
0
0
0
0
0
0
0
0
0
0
0
0
0
0
0
0
0
0
0
0
0
0
0
0
0
0
0
0
0
0
0
0
0
0
0
0
0
0
0
0
0
0
0
0
0
0
0
0
0
0
0
0
0
0
0
0
0
0
0
0
0
0
0
0
0
0
0
0
0
0
0
0
0
0
0
0
0
0
0
0
0
0
0
0
0
0
0
0
0
0
0
0
0
0
0
0
0
0
0
0
0
0
0
0
0
0
0
0
0
0
0
0
0
0
0
0
0
0
0
0
0
0
0
0
0
0
0
0
0
0
0
0
0
0
0
0
0
0
0
0
0
0
0
0
0
0
0
0
0
0
0
0
0
0
0
0
0
0
0
0
0
0
0
0
0
0
0
0
0
0
0
0
0
0
0
0
0
0
0
0
0
0
0
0
0
0
0
0
0
0
0
0
0
0
0
0
0
0
0
0
0
0
0
0
0
0
0
0
0
0
0
0
0
0
0
0
0
0
0
0
0
0
0
0
0
0
0
0
0
0
0
0
0
0
0
0
0
0
0
0
0
0
0
0
0
0
0
0
0
0
0
0
0
0
0
0
0
0
0
0
0
0
0
0
0
0
0
0
0
0
0
0
0
0
0
0
0
0
0
0
0
0
0
0
0
0
0
0
0
0
0
0
0
0
0
0
0
0
0
0
0
0
0
0
0
0
0
0
0
0
0
0
0
0
0
0
0
0
0
0
0
0
0
0
0
0
0
0
0
0
0
0
0
0
0
0
0
0
0
0
0
0
0
0
0
0
0
0
0
0
0
0
0
0
0
0
0
0
0
0
0
0
0
0
0
0
0
0
0
0
0
0
0
0
0
0
0
0
0
0
0
0
0
0
0
0
0
0
0
0
0
0
0
0
0
0
0
0
0
0
0
0
0
0
0
0
0
0
0
0
0
0
0
0
0
0
0
0
0
0
0
0
0
0
0
0
0
0
0
0
0
0
0
0
0
0
0
0
0
0
0
0
0
0
0
0
0
0
0
0
0
0
0
0
0
0
0
0
0
0
0
0
0
0
0
0
0
0
0
0
0
0
0
0
0
0
0
0
0
0
0
0
0
0
0
0
0
0
0
0
0
0
0
0
0
0
0
0
0
0
0
0
0
0
0
0
0
0
0
0
0
0
0
0
0
0
0
0
0
0
0
0
0
0
0
0
0
0
0
0
0
0
0
0
0
0
0
0
0
0
0
0
0
0
0
0
0
0
0
0
0
0
0
0
0
0
0
0
0
0
0
0
0
0
0
0
0
0
0
0
0
0
0
0
0
0
0
0
0
0
0
0
0
0
0
0
0
0
0
0
0
0
0
0
0
0
0
0
0
0
0
0
0
0
0
0
0
0
0
0
0
0
0
0
0
0
0
0
0
0
0
0
0
0
0
0
0
0
0
0
0
0
0
0
0
0
0
0
0
0
0
0
0
0
0
0
0
0
0
0
0
0
0
0
0
0
0
0
0
0
0
0
0
0
0
0
0
0
0
0
0
0
0
0
0
0
0
0
0
0
0
0
0
0
0
0
0
0
0
0
0
0
0
0
0
0
0
0
0
0
0
0
0
0
0
0
0
0
0
0
0
0
0
0
0
0
0
0
0
0
0
0
0
0
0
0
0
0
0
0
0
0
0
0
0
0
0
0
0
0
0
0
0
0
0
0
0
0
0
0
0
0
0
0
0
0
0
0
0
0
0
0
0
0
0
0
0
0
0
0
0
0
0
0
0
0
0
0
0
0
0
0
0
0
0
0
0
0
0
0
0
0
0
0
0
0
0
0
0
0
0
0
0
0
0
0
0
0
0
0
0
0
0
0
0
0
0
0
0
0
0
0
0
0
0
0
0
0
0
0
0
0
0
0
0
0
0
0
0
0
0
0
0
0
0
0
0
0
0
0
0
0
0
0
0
0
0
0
0
0
0
0
0
0
0
0
0
0
0
0
0
0
0
0
0
0
0
0
0
0
0
0
0
0
0
0
0
0
0
0
0
0
0
0
0
0
0
0
0
0
0
0
0
0
0
0
0
0
0
0
0
0
0
0
0
0
0
0
0
0
0
0
0
0
0
0
0
0
0
0
0
0
0
0
0
0
0
0
0
0
0
0
0
0
0
0
0
0
0
0
0
0
0
0
0
0
0
0
0
0
0
0
0
0
0
0
0
0
0
0
0
0
0
0
0
0
0
0
0
0
0
0
0
0
0
0
0
0
0
0
0
0
0
0
0
0
0
0
0
0
0
0
0
0
0
0
0
0
0
0
0
0
0
0
0
0
0
0
0
0
0
0
0
0
0
0
0
0
0
0
0
0
0
0
0
0
0
0
0
0
0
0
0
0
0
0
0
0
0
0
0
0
0
0
0
0
0
0
0
0
0
0
0
0
0
0
0
0
0
0
0
0
0
0
0
0
0
0
0
0
0
0
0
0
0
0
0
0
0
0
0
0
0
0
0
0
0
0
0
0
0
0
0
0
0
0
0
0
0
0
0
0
0
0
0
0
0
0
0
0
0
0
0
0
0
0
0
0
0
0
0
0
0
0
0
0
0
0
0
0
0
0
0
0
0
0
0
0
0
0
0
0
0
0
0
0
0
0
0
0
0
0
0
0
0
0
0
0
0
0
0
0
0
0
0
0
0
0
0
0
0
0
0
0
0
0
0
0
0
0
0
0
0
0
0
0
0
0
0
0
0
0
0
0
0
0
0
0
0
0
0
0
0
0
0
0
0
0
0
0
0
0
0
0
0
0
0
0
0
0
0
0
0
0
0
0
0
0
0
0
0
0
0
0
0
0
0
0
0
0
0
0
0
0
0
0
0
0
0
0
0
0
0
0
0
0
0
0
0
0
0
0
0
0
0
0
0
0
0
0
0
0
0
0
0
0
0
0
0
0
0
0
0
0
0
0
0
0
0
0
0
0
0
0
0
0
0
0
0
0
0
0
0
0
0
0
0
0
0
0
0
0
0
0
0
0
0
0
0
0
0
0
0
0
0
0
0
0
0
0
0
0
0
0
0
0
0
0
0
0
0
0
0
0
0
0
0
0
0
0
0
0
0
0
0
0
0
0
0
0
0
0
0
0
0
0
0
0
0
0
0
0
0
0
0
0
0
0
0
0
0
0
0
0
0
0
0
0
0
0
0
0
0
0
0
0
0
0
0
0
0
0
0
0
0
0
0
0
0
0
0
0
0
0
0
0
0
0
0
0
0
0
0
0
0
0
0
0
0
0
0
0
0
0
0
0
0
0
0
0
0
0
0
0
0
0
0
0
0
0
0
0
0
0
0
0
0
0
0
0
0
0
0
0
0
0
0
0
0
0
0
0
0
0
0
0
0
0
0
0
0
0
0
0
0
0
0
0
0
0
0
0
0
0
0
0
0
0
0
0
0
0
0
0
0
0
0
0
0
0
0
0
0
0
0
0
0
0
0
0
0
0
0
0
0
0
0
0
0
0
0
0
0
0
0
0
0
0
0
0
0
0
0
0
0
0
0
0
0
0
0
0
0
0
0
0
0
0
0
0
0
0
0
0
0
0
0
0
0
0
0
0
0
0
0
0
0
0
0
0
0
0
0
0
0
0
0
0
0
0
0
0
0
0
0
0
0
0
0
0
0
0
0
0
0
0
0
0
0
0
0
0
0
0
0
0
0
0
0
0
0
0
0
0
0
0
0
0
0
0
0
0
0
0
0
0
0
0
0
0
0
0
0
0
0
0
0
0
0
0
0
0
0
0
0
0
0
0
0
0
0
0
0
0
0
0
0
0
0
0
0
0
0
0
0
0
0
0
0
0
0
0
0
0
0
0
0
0
0
0
0
0
0
0
0
0
0
0
0
0
0
0
0
0
0
0
0
0
0
0
0
0
0
0
0
0
0
0
0
0
0
0
0
0
0
0
0
0
0
0
0
0
0
0
0
0
0
0
0
0
0
0
0
0
0
0
0
0
0
0
0
0
0
0
0
0
0
0
0
0
0
0
0
0
0
0
0
0
0
0
0
0
0
0
0
0
0
0
0
0
0
0
0
0
0
0
0
0
0
0
0
0
0
0
0
0
0
0
0
0
0
0
0
0
0
0
0
0
0
0
0
0
0
0
0
0
0
0
0
0
0
0
0
0
0
0
0
0
0
0
0
0
0
0
0
0
0
0
0
0
0
0
0
0
0
0
0
0
0
0
0
0
0
0
0
0
0
0
0
0
0
0
0
0
0
0
0
0
0
0
0
0
0
0
0
0
0
0
0
0
0
0
0
0
0
0
0
0
0
0
0
0
0
0
0
0
0
0
0
0
0
0
0
0
0
0
0
0
0
0
0
0
0
0
0
0
0
0
0
0
0
0
0
0
0
0
0
0
0
0
0
0
0
0
0
0
0
0
0
0
0
0
0
0
0
0
0
0
0
0
0
0
0
0
0
0
0
0
0
0
0
0
0
0
0
0
0
0
0
0
0
0
0
0
0
0
0
0
0
0
0
0
0
0
0
0
0
0
0
0
0
0
0
0
0
0
0
0
0
0
0
0
0
0
0
0
0
0
0
0
0
0
0
0
0
0
0
0
0
0
0
0
0
0
0
0
0
0
0
0
0
0
0
0
0
0
0
0
0
0
0
0
0
0
0
0
0
0
0
0
0
0
0
0
0
0
0
0
0
0
0
0
0
0
0
0
0
0
0
0
0
0
0
0
0
0
0
0
0
0
0
0
0
0
0
0
0
0
0
0
0
0
0
0
0
0
0
0
0
0
0
0
0
0
0
0
0
0
0
0
0
0
0
0
0
0
0
0
0
0
0
0
0
0
0
0
0
0
0
0
0
0
0
0
0
0
0
0
0
0
0
0
0
0
0
0
0
0
0
0
0
0
0
0
0
0
0
0
0
0
0
0
0
0
0
0
0
0
0
0
0
0
0
0
0
0
0
0
0
0
0
0
0
0
0
0
0
0
0
0
0
0
0
0
0
0
0
0
0
0
0
0
0
0
0
0
0
0
0
0
0
0
0
0
0
0
0
0
0
0
0
0
0
0
0
0
0
0
0
0
0
0
0
0
0
0
0
0
0
0
0
0
0
0
0
0
0
0
0
0
0
0
0
0
0
0
0
0
0
0
0
0
0
0
0
0
0
0
0
0
0
0
0
0
0
0
0
0
0
0
0
0
0
0
0
0
0
0
0
0
0
0
0
0
0
0
0
0
0
0
0
0
0
0
0
0
0
0
0
0
0
0
0
0
0
0
0
0
0
0
0
0
0
0
0
0
0
0
0
0
0
0
0
0
0
0
0
0
0
0
0
0
0
0
0
0
0
0
0
0
0
0
0
0
0
0
0
0
0
0
0
0
0
0
0
0
0
0
0
0
0
0
0
0
0
0
0
0
0
0
0
0
0
0
0
0
0
0
0
0
0
0
0
0
0
0
0
0
0
0
0
0
0
0
0
0
0
0
0
0
0
0
0
0
0
0
0
0
0
0
0
0
0
0
0
0
0
0
0
0
0
0
0
0
0
0
0
0
0
0
0
0
0
0
0
0
0
0
0
0
0
0
0
0
0
0
0
0
0
0
0
0
0
0
0
0
0
0
0
0
0
0
0
0
0
0
0
0
0
0
0
0
0
0
0
0
0
0
0
0
0
0
0
0
0
0
0
0
0
0
0
0
0
0
0
0
0
0
0
0
0
0
0
0
0
0
0
0
0
0
0
0
0
0
0
0
0
0
0
0
0
0
0
0
0
0
0
0
0
0
0
0
0
0
0
0
0
0
0
0
0
0
0
0
0
0
0
0
0
0
0
0
0
0
0
0
0
0
0
0
0
0
0
0
0
0
0
0
0
0
0
0
0
0
0
0
0
0
0
0
0
0
0
0
0
0
0
0
0
0
0
0
0
0
0
0
0
0
0
0
0
0
0
0
0
0
0
0
0
0
0
0
0
0
0
0
0
0
0
0
0
0
0
0
0
0
0
0
0
0
0
0
0
0
0
0
0
0
0
0
0
0
0
0
0
0
0
0
0
0
0
0
0
0
0
0
0
0
0
0
0
0
0
0
0
0
0
0
0
0
0
0
0
0
0
0
0
0
0
0
0
0
0
0
0
0
0
0
0
0
0
0
0
0
0
0
0
0
0
0
0
0
0
0
0
0
0
0
0
0
0
0
0
0
0
0
0
0
0
0
0
0
0
0
0
0
0
0
0
0
0
0
0
0
0
0
0
0
0
0
0
0
0
0
0
0
0
0
0
0
0
0
0
0
0
0
0
0
0
0
0
0
0
0
0
0
0
0
0
0
0
0
0
0
0
0
0
0
0
0
0
0
0
0
0
0
0
0
0
0
0
0
0
0
0
0
0
0
0
0
0
0
0
0
0
0
0
0
0
0
0
0
0
0
0
0
0
0
0
0
0
0
0
0
0
0
0
0
0
0
0
0
0
0
0
0
0
0
0
0
0
0
0
0
0
0
0
0
0
0
0
0
0
0
0
0
0
0
0
0
0
0
0
0
0
0
0
0
0
0
0
0
0
0
0
0
0
0
0
0
0
0
0
0
0
0
0
0
0
0
0
0
0
0
0
0
0
0
0
0
0
0
0
0
0
0
0
0
0
0
0
0
0
0
0
0
0
0
0
0
0
0
0
0
0
0
0
0
0
0
0
0
0
0
0
0
0
0
0
0
0
0
0
0
0
0
0
0
0
0
0
0
0
0
0
0
0
0
0
0
0
0
0
0
0
0
0
0
0
0
0
0
0
0
0
0
0
0
0
0
0
0
0
0
0
0
0
0
0
0
0
0
0
0
0
0
0
0
0
0
0
0
0
0
0
0
0
0
0
0
0
0
0
0
0
0
0
0
0
0
0
0
0
0
0
0
0
0
0
0
0
0
0
0
0
0
0
0
0
0
0
0
0
0
0
0
0
0
0
0
0
0
0
0
0
0
0
0
0
0
0
0
0
0
0
0
0
0
0
0
0
0
0
0
0
0
0
0
0
0
0
0
0
0
0
0
0
0
0
0
0
0
0
0
0
0
0
0
0
0
0
0
0
0
0
0
0
0
0
0
0
0
0
0
0
0
0
0
0
0
0
0
0
0
0
0
0
0
0
0
0
0
0
0
0
0
0
0
0
0
0
0
0
0
0
0
0
0
0
0
0
0
0
0
0
0
0
0
0
0
0
0
0
0
0
0
0
0
0
0
0
0
0
0
0
0
0
0
0
0
0
0
0
0
0
0
0
0
0
0
0
0
0
0
0
0
0
0
0
0
0
0
0
0
0
0
0
0
0
0
0
0
0
0
0
0
0
0
0
0
0
0
0
0
0
0
0
0
0
0
0
0
0
0
0
0
0
0
0
0
0
0
0
0
0
0
0
0
0
0
0
0
0
0
0
0
0
0
0
0
0
0
0
0
0
0
0
0
0
0
0
0
0
0
0
0
0
0
0
0
0
0
0
0
0
0
0
0
0
0
0
0
0
0
0
0
0
0
0
0
0
0
0
0
0
0
0
0
0
0
0
0
0
0
0
0
0
0
0
0
0
0
0
0
0
0
0
0
0
0
0
0
0
0
0
0
0
0
0
0
0
0
0
0
0
0
0
0
0
0
0
0
0
0
0
0
0
0
0
0
0
0
0
0
0
0
0
0
0
0
0
0
0
0
0
0
0
0
0
0
0
0
0
0
0
0
0
0
0
0
0
0
0
0
0
0
0
0
0
0
0
0
0
0
0
0
0
0
0
0
0
0
0
0
0
0
0
0
0
0
0
0
0
0
0
0
0
0
0
0
0
0
0
0
0
0
0
0
0
0
0
0
0
0
0
0
0
0
0
0
0
0
0
0
0
0
0
0
0
0
0
0
0
0
0
0
0
0
0
0
0
0
0
0
0
0
0
0
0
0
0
0
0
0
0
0
0
0
0
0
0
0
0
0
0
0
0
0
0
0
0
0
0
0
0
0
0
0
0
0
0
0
0
0
0
0
0
0
0
0
0
0
0
0
0
0
0
0
0
0
0
0
0
0
0
0
0
0
0
0
0
0
0
0
0
0
0
0
0
0
0
0
0
0
0
0
0
0
0
0
0
0
0
0
0
0
0
0
0
0
0
0
0
0
0
0
0
0
0
0
0
0
0
0
0
0
0
0
0
0
0
0
0
0
0
0
0
0
0
0
0
0
0
0
0
0
0
0
0
0
0
0
0
0
0
0
0
0
0
0
0
0
0
0
0
0
0
0
0
0
0
0
0
0
0
0
0
0
0
0
0
0
0
0
0
0
0
0
0
0
0
0
0
0
0
0
0
0
0
0
0
0
0
0
0
0
0
0
0
0
0
0
0
0
0
0
0
0
0
0
0
0
0
0
0
0
0
0
0
0
0
0
0
0
0
0
0
0
0
0
0
0
0
0
0
0
0
0
0
0
0
0
0
0
0
0
0
0
0
0
0
0
0
0
0
0
0
0
0
0
0
0
0
0
0
0
0
0
0
0
0
0
0
0
0
0
0
0
0
0
0
0
0
0
0
0
0
0
0
0
0
0
0
0
0
0
0
0
0
0
0
0
0
0
0
0
0
0
0
0
0
0
0
0
0
0
0
0
0
0
0
0
0
0
0
0
0
0
0
0
0
0
0
0
0
0
0
0
0
0
0
0
0
0
0
0
0
0
0
0
0
0
0
0
0
0
0
0
0
0
0
0
0
0
0
0
0
0
0
0
0
0
0
0
0
0
0
0
0
0
0
0
0
0
0
0
0
0
0
0
0
0
0
0
0
0
0
0
0
0
0
0
0
0
0
0
0
0
0
0
0
0
0
0
0
0
0
0
0
0
0
0
0
0
0
0
0
0
0
0
0
0
0
0
0
0
0
0
0
0
0
0
0
0
0
0
0
0
0
0
0
0
0
0
0
0
0
0
0
0
0
0
0
0
0
0
0
0
0
0
0
0
0
0
0
0
0
0
0
0
0
0
0
0
0
0
0
0
0
0
0
0
0
0
0
0
0
0
0
0
0
0
0
0
0
0
0
0
0
0
0
0
0
0
0
0
0
0
0
0
0
0
0
0
0
0
0
0
0
0
0
0
0
0
0
0
0
0
0
0
0
0
0
0
0
0
0
0
0
0
0
0
0
0
0
0
0
0
0
0
0
0
0
0
0
0
0
0
0
0
0
0
0
0
0
0
0
0
0
0
0
0
0
0
0
0
0
0
0
0
0
0
0
0
0
0
0
0
0
0
0
0
0
0
0
0
0
0
0
0
0
0
0
0
0
0
0
0
0
0
0
0
0
0
0
0
0
0
0
0
0
0
0
0
0
0
0
0
0
0
0
0
0
0
0
0
0
0
0
0
0
0
0
0
0
0
0
0
0
0
0
0
0
0
0
0
0
0
0
0
0
0
0
0
0
0
0
0
0
0
0
0
0
0
0
0
0
0
0
0
0
0
0
0
0
0
0
0
0
0
0
0
0
0
0
0
0
0
0
0
0
0
0
0
0
0
0
0
0
0
0
0
0
0
0
0
0
0
0
0
0
0
0
0
0
0
0
0
0
0
0
0
0
0
0
0
0
0
0
0
0
0
0
0
0
0
0
0
0
0
0
0
0
0
0
0
0
0
0
0
0
0
0
0
0
0
0
0
0
0
0
0
0
0
0
0
0
0
0
0
0
0
0
0
0
0
0
0
0
0
0
0
0
0
0
0
0
0
0
0
0
0
0
0
0
0
0
0
0
0
0
0
0
0
0
0
0
0
0
0
0
0
0
0
0
0
0
0
0
0
0
0
0
0
0
0
0
0
0
0
0
0
0
0
0
0
0
0
0
0
0
0
0
0
0
0
0
0
0
0
0
0
0
0
0
0
0
0
0
0
0
0
0
0
0
0
0
0
0
0
0
0
0
0
0
0
0
0
0
0
0
0
0
0
0
0
0
0
0
0
0
0
0
0
0
0
0
0
0
0
0
0
0
0
0
0
0
0
0
0
0
0
0
0
0
0
0
0
0
0
0
0
0
0
0
0
0
0
0
0
0
0
0
0
0
0
0
0
0
0
0
0
0
0
0
0
0
0
0
0
0
0
0
0
0
0
0
0
0
0
0
0
0
0
0
0
0
0
0
0
0
0
0
0
0
0
0
0
0
0
0
0
0
0
0
0
0
0
0
0
0
0
0
0
0
0
0
0
0
0
0
0
0
0
0
0
0
0
0
0
0
0
0
0
0
0
0
0
0
0
0
0
0
0
0
0
0
0
0
0
0
0
0
0
0
0
0
0
0
0
0
0
0
0
0
0
0
0
0
0
0
0
0
0
0
0
0
0
0
0
0
0
0
0
0
0
0
0
0
0
0
0
0
0
0
0
0
0
0
0
0
0
0
0
0
0
0
0
0
0
0
0
0
0
0
0
0
0
0
0
0
0
0
0
0
0
0
0
0
0
0
0
0
0
0
0
0
0
0
0
0
0
0
0
0
0
0
0
0
0
0
0
0
0
0
0
0
0
0
0
0
0
0
0
0
0
0
0
0
0
0
0
0
0
0
0
0
0
0
0
0
0
0
0
0
0
0
0
0
0
0
0
0
0
0
0
0
0
0
0
0
0
0
0
0
0
0
0
0
0
0
0
0
0
0
0
0
0
0
0
0
0
0
0
0
0
0
0
0
0
0
0
0
0
0
0
0
0
0
0
0
0
0
0
0
0
0
0
0
0
0
0
0
0
0
0
0
0
0
0
0
0
0
0
0
0
0
0
0
0
0
0
0
0
0
0
0
0
0
0
0
0
0
0
0
0
0
0
0
0
0
0
0
0
0
0
0
0
0
0
0
0
0
0
0
0
0
0
0
0
0
0
0
0
0
0
0
0
0
0
0
0
0
0
0
0
0
0
0
0
0
0
0
0
0
0
0
0
0
0
0
0
0
0
0
0
0
0
0
0
0
0
0
0
0
0
0
0
0
0
0
0
0
0
0
0
0
0
0
0
0
0
0
0
0
0
0
0
0
0
0
0
0
0
0
0
0
0
0
0
0
0
0
0
0
0
0
0
0
0
0
0
0
0
0
0
0
0
0
0
0
0
0
0
0
0
0
0
0
0
0
0
0
0
0
0
0
0
0
0
0
0
0
0
0
0
0
0
0
0
0
0
0
0
0
0
0
0
0
0
0
0
0
0
0
0
0
0
0
0
0
0
0
0
0
0
0
0
0
0
0
0
0
0
0
0
0
0
0
0
0
0
0
0
0
0
0
0
0
0
0
0
0
0
0
0
0
0
0
0
0
0
0
0
0
0
0
0
0
0
0
0
0
0
0
0
0
0
0
0
0
0
0
0
0
0
0
0
0
0
0
0
0
0
0
0
0
0
0
0
0
0
0
0
0
0
0
0
0
0
0
0
0
0
0
0
0
0
0
0
0
0
0
0
0
0
0
0
0
0
0
0
0
0
0
0
0
0
0
0
0
0
0
0
0
0
0
0
0
0
0
0
0
0
0
0
0
0
0
0
0
0
0
0
0
0
0
0
0
0
0
0
0
0
0
0
0
0
0
0
0
0
0
0
0
0
0
0
0
0
0
0
0
0
0
0
0
0
0
0
0
0
0
0
0
0
0
0
0
0
0
0
0
0
0
0
0
0
0
0
0
0
0
0
0
0
0
0
0
0
0
0
0
0
0
0
0
0
0
0
0
0
0
0
0
0
0
0
0
0
0
0
0
0
0
0
0
0
0
0
0
0
0
0
0
0
0
0
0
0
0
0
0
0
0
0
0
0
0
0
0
0
0
0
0
0
0
0
0
0
0
0
0
0
0
0
0
0
0
0
0
0
0
0
0
0
0
0
0
0
0
0
0
0
0
0
0
0
0
0
0
0
0
0
0
0
0
0
0
0
0
0
0
0
0
0
0
0
0
0
0
0
0
0
0
0
0
0
0
0
0
0
0
0
0
0
0
0
0
0
0
0
0
0
0
0
0
0
0
0
0
0
0
0
0
0
0
0
0
0
0
0
0
0
0
0
0
0
0
0
0
0
0
0
0
0
0
0
0
0
0
0
0
0
0
0
0
0
0
0
0
0
0
0
0
0
0
0
0
0
0
0
0
0
0
0
0
0
0
0
0
0
0
0
0
0
0
0
0
0
0
0
0
0
0
0
0
0
0
0
0
0
0
0
0
0
0
0
0
0
0
0
0
0
0
0
0
0
0
0
0
0
0
0
0
0
0
0
0
0
0
0
0
0
0
0
0
0
0
0
0
0
0
0
0
0
0
0
0
0
0
0
0
0
0
0
0
0
0
0
0
0
0
0
0
0
0
0
0
0
0
0
0
0
0
0
0
0
0
0
0
0
0
0
0
0
0
0
0
0
0
0
0
0
0
0
0
0
0
0
0
0
0
0
0
0
0
0
0
0
0
0
0
0
0
0
0
0
0
0
0
0
0
0
0
0
0
0
0
0
0
0
0
0
0
0
0
0
0
0
0
0
0
0
0
0
0
0
0
0
0
0
0
0
0
0
0
0
0
0
0
0
0
0
0
0
0
0
0
0
0
0
0
0
0
0
0
0
0
0
0
0
0
0
0
0
0
0
0
0
0
0
0
0
0
0
0
0
0
0
0
0
0
0
0
0
0
0
0
0
0
0
0
0
0
0
0
0
0
0
0
0
0
0
0
0
0
0
0
0
0
0
0
0
0
0
0
0
0
0
0
0
0
0
0
0
0
0
0
0
0
0
0
0
0
0
0
0
0
0
0
0
0
0
0
0
0
0
0
0
0
0
0
0
0
0
0
0
0
0
0
0
0
0
0
0
0
0
0
0
0
0
0
0
0
0
0
0
0
0
0
0
0
0
0
0
0
0
0
0
0
0
0
0
0
0
0
0
0
0
0
0
0
0
0
0
0
0
0
0
0
0
0
0
0
0
0
0
0
0
0
0
0
0
0
0
0
0
0
0
0
0
0
0
0
0
0
0
0
0
0
0
0
0
0
0
0
0
0
0
0
0
0
0
0
0
0
0
0
0
0
0
0
0
0
0
0
0
0
0
0
0
0
0
0
0
0
0
0
0
0
0
0
0
0
0
0
0
0
0
0
0
0
0
0
0
0
0
0
0
0
0
0
0
0
0
0
0
0
0
0
0
0
0
0
0
0
0
0
0
0
0
0
0
0
0
0
0
0
0
0
0
0
0
0
0
0
0
0
0
0
0
0
0
0
0
0
0
0
0
0
0
0
0
0
0
0
0
0
0
0
0
0
0
0
0
0
0
0
0
0
0
0
0
0
0
0
0
0
0
0
0
0
0
0
0
0
0
0
0
0
0
0
0
0
0
0
0
0
0
0
0
0
0
0
0
0
0
0
0
0
0
0
0
0
0
0
0
0
0
0
0
0
0
0
0
0
0
0
0
0
0
0
0
0
0
0
0
0
0
0
0
0
0
0
0
0
0
0
0
0
0
0
0
0
0
0
0
0
0
0
0
0
0
0
0
0
0
0
0
0
0
0
0
0
0
0
0
0
0
0
0
0
0
0
0
0
0
0
0
0
0
0
0
0
0
0
0
0
0
0
0
0
0
0
0
0
0
0
0
0
0
0
0
0
0
0
0
0
0
0
0
0
0
0
0
0
0
0
0
0
0
0
0
0
0
0
0
0
0
0
0
0
0
0
0
0
0
0
0
0
0
0
0
0
0
0
0
0
0
0
0
0
0
0
0
0
0
0
0
0
0
0
0
0
0
0
0
0
0
0
0
0
0
0
0
0
0
0
0
0
0
0
0
0
0
0
0
0
0
0
0
0
0
0
0
0
0
0
0
0
0
0
0
0
0
0
0
0
0
0
0
0
0
0
0
0
0
0
0
0
0
0
0
0
0
0
0
0
0
0
0
0
0
0
0
0
0
0
0
0
0
0
0
0
0
0
0
0
0
0
0
0
0
0
0
0
0
0
0
0
0
0
0
0
0
0
0
0
0
0
0
0
0
0
0
0
0
0
0
0
0
0
0
0
0
0
0
0
0
0
0
0
0
0
0
0
0
0
0
0
0
0
0
0
0
0
0
0
0
0
0
0
0
0
0
0
0
0
0
0
0
0
0
0
0
0
0
0
0
0
0
0
0
0
0
0
0
0
0
0
0
0
0
0
0
0
0
0
0
0
0
0
0
0
0
0
0
0
0
0
0
0
0
0
0
0
0
0
0
0
0
0
0
0
0
0
0
0
0
0
0
0
0
0
0
0
0
0
0
0
0
0
0
0
0
0
0
0
0
0
0
0
0
0
0
0
0
0
0
0
0
0
0
0
0
0
0
0
0
0
0
0
0
0
0
0
0
0
0
0
0
0
0
0
0
0
0
0
0
0
0
0
0
0
0
0
0
0
0
0
0
0
0
0
0
0
0
0
0
0
0
0
0
0
0
0
0
0
0
0
0
0
0
0
0
0
0
0
0
0
0
0
0
0
0
0
0
0
0
0
0
0
0
0
0
0
0
0
0
0
0
0
0
0
0
0
0
0
0
0
0
0
0
0
0
0
0
0
0
0
0
0
0
0
0
0
0
0
0
0
0
0
0
0
0
0
0
0
0
0
0
0
0
0
0
0
0
0
0
0
0
0
0
0
0
0
0
0
0
0
0
0
0
0
0
0
0
0
0
0
0
0
0
0
0
0
0
0
0
0
0
0
0
0
0
0
0
0
0
0
0
0
0
0
0
0
0
0
0
0
0
0
0
0
0
0
0
0
0
0
0
0
0
0
0
0
0
0
0
0
0
0
0
0
0
0
0
0
0
0
0
0
0
0
0
0
0
0
0
0
0
0
0
0
0
0
0
0
0
0
0
0
0
0
0
0
0
0
0
0
0
0
0
0
0
0
0
0
0
0
0
0
0
0
0
0
0
0
0
0
0
0
0
0
0
0
0
0
0
0
0
0
0
0
0
0
0
0
0
0
0
0
0
0
0
0
0
0
0
0
0
0
0
0
0
0
0
0
0
0
0
0
0
0
0
0
0
0
0
0
0
0
0
0
0
0
0
0
0
0
0
0
0
0
0
0
0
0
0
0
0
0
0
0
0
0
0
0
0
0
0
0
0
0
0
0
0
0
0
0
0
0
0
0
0
0
0
0
0
0
0
0
0
0
0
0
0
0
0
0
0
0
0
0
0
0
0
0
0
0
0
0
0
0
0
0
0
0
0
0
0
0
0
0
0
0
0
0
0
0
0
0
0
0
0
0
0
0
0
0
0
0
0
0
0
0
0
0
0
0
0
0
0
0
0
0
0
0
0
0
0
0
0
0
0
0
0
0
0
0
0
0
0
0
0
0
0
0
0
0
0
0
0
0
0
0
0
0
0
0
0
0
0
0
0
0
0
0
0
0
0
0
0
0
0
0
0
0
0
0
0
0
0
0
0
0
0
0
0
0
0
0
0
0
0
0
0
0
0
0
0
0
0
0
0
0
0
0
0
0
0
0
0
0
0
0
0
0
0
0
0
0
0
0
0
0
0
0
0
0
0
0
0
0
0
0
0
0
0
0
0
0
0
0
0
0
0
0
0
0
0
0
0
0
0
0
0
0
0
0
0
0
0
0
0
0
0
0
0
0
0
0
0
0
0
0
0
0
0
0
0
0
0
0
0
0
0
0
0
0
0
0
0
0
0
0
0
0
0
0
0
0
0
0
0
0
0
0
0
0
0
0
0
0
0
0
0
0
0
0
0
0
0
0
0
0
0
0
0
0
0
0
0
0
0
0
0
0
0
0
0
0
0
0
0
0
0
0
0
0
0
0
0
0
0
0
0
0
0
0
0
0
0
0
0
0
0
0
0
0
0
0
0
0
0
0
0
0
0
0
0
0
0
0
0
0
0
0
0
0
0
0
0
0
0
0
0
0
0
0
0
0
0
0
0
0
0
0
0
0
0
0
0
0
0
0
0
0
0
0
0
0
0
0
0
0
0
0
0
0
0
0
0
0
0
0
0
0
0
0
0
0
0
0
0
0
0
0
0
0
0
0
0
0
0
0
0
0
0
0
0
0
0
0
0
0
0
0
0
0
0
0
0
0
0
0
0
0
0
0
0
0
0
0
0
0
0
0
0
0
0
0
0
0
0
0
0
0
0
0
0
0
0
0
0
0
0
0
0
0
0
0
0
0
0
0
0
0
0
0
0
0
0
0
0
0
0
0
0
0
0
0
0
0
0
0
0
0
0
0
0
0
0
0
0
0
0
0
0
0
0
0
0
0
0
0
0
0
0
0
0
0
0
0
0
0
0
0
0
0
0
0
0
0
0
0
0
0
0
0
0
0
0
0
0
0
0
0
0
0
0
0
0
0
0
0
0
0
0
0
0
0
0
0
0
0
0
0
0
0
0
0
0
0
0
0
0
0
0
0
0
0
0
0
0
0
0
0
0
0
0
0
0
0
0
0
0
0
0
0
0
0
0
0
0
0
0
0
0
0
0
0
0
0
0
0
0
0
0
0
0
0
0
0
0
0
0
0
0
0
0
0
0
0
0
0
0
0
0
0
0
0
0
0
0
0
0
0
0
0
0
0
0
0
0
0
0
0
0
0
0
0
0
0
0
0
0
0
0
0
0
0
0
0
0
0
0
0
0
0
0
0
0
0
0
0
0
0
0
0
0
0
0
0
0
0
0
0
0
0
0
0
0
0
0
0
0
0
0
0
0
0
0
0
0
0
0
0
0
0
0
0
0
0
0
0
0
0
0
0
0
0
0
0
0
0
0
0
0
0
0
0
0
0
0
0
0
0
0
0
0
0
0
0
0
0
0
0
0
0
0
0
0
0
0
0
0
0
0
0
0
0
0
0
0
0
0
0
0
0
0
0
0
0
0
0
0
0
0
0
0
0
0
0
0
0
0
0
0
0
0
0
0
0
0
0
0
0
0
0
0
0
0
0
0
0
0
0
0
0
0
0
0
0
0
0
0
0
0
0
0
0
0
0
0
0
0
0
0
0
0
0
0
0
0
0
0
0
0
0
0
0
0
0
0
0
0
0
0
0
0
0
0
0
0
0
0
0
0
0
0
0
0
0
0
0
0
0
0
0
0
0
0
0
0
0
0
0
0
0
0
0
0
0
0
0
0
0
0
0
0
0
0
0
0
0
0
0
0
0
0
0
0
0
0
0
0
0
0
0
0
0
0
0
0
0
0
0
0
0
0
0
0
0
0
0
0
0
0
0
0
0
0
0
0
0
0
0
0
0
0
0
0
0
0
0
0
0
0
0
0
0
0
0
0
0
0
0
0
0
0
0
0
0
0
0
0
0
0
0
0
0
0
0
0
0
0
0
0
0
0
0
0
0
0
0
0
0
0
0
0
0
0
0
0
0
0
0
0
0
0
0
0
0
0
0
0
0
0
0
0
0
0
0
0
0
0
0
0
0
0
0
0
0
0
0
0
0
0
0
0
0
0
0
0
0
0
0
0
0
0
0
0
0
0
0
0
0
0
0
0
0
0
0
0
0
0
0
0
0
0
0
0
0
0
0
0
0
0
0
0
0
0
0
0
0
0
0
0
0
0
0
0
0
0
0
0
0
0
0
0
0
0
0
0
0
0
0
0
0
0
0
0
0
0
0
0
0
0
0
0
0
0
0
0
0
0
0
0
0
0
0
0
0
0
0
0
0
0
0
0
0
0
0
0
0
0
0
0
0
0
0
0
0
0
0
0
0
0
0
0
0
0
0
0
0
0
0
0
0
0
0
0
0
0
0
0
0
0
0
0
0
0
0
0
0
0
0
0
0
0
0
0
0
0
0
0
0
0
0
0
0
0
0
0
0
0
0
0
0
0
0
0
0
0
0
0
0
0
0
0
0
0
0
0
0
0
0
0
0
0
0
0
0
0
0
0
0
0
0
0
0
0
0
0
0
0
0
0
0
0
0
0
0
0
0
0
0
0
0
0
0
0
0
0
0
0
0
0
0
0
0
0
0
0
0
0
0
0
0
0
0
0
0
0
0
0
0
0
0
0
0
0
0
0
0
0
0
0
0
0
0
0
0
0
0
0
0
0
0
0
0
0
0
0
0
0
0
0
0
0
0
0
0
0
0
0
0
0
0
0
0
0
0
0
0
0
0
0
0
0
0
0
0
0
0
0
0
0
0
0
0
0
0
0
0
0
0
0
0
0
0
0
0
0
0
0
0
0
0
0
0
0
0
0
0
0
0
0
0
0
0
0
0
0
0
0
0
0
0
0
0
0
0
0
0
0
0
0
0
0
0
0
0
0
0
0
0
0
0
0
0
0
0
0
0
0
0
0
0
0
0
0
0
0
0
0
0
0
0
0
0
0
0
0
0
0
0
0
0
0
0
0
0
0
0
0
0
0
0
0
0
0
0
0
0
0
0
0
0
0
0
0
0
0
0
0
0
0
0
0
0
0
0
0
0
0
0
0
0
0
0
0
0
0
0
0
0
0
0
0
0
0
0
0
0
0
0
0
0
0
0
0
0
0
0
0
0
0
0
0
0
0
0
0
0
0
0
0
0
0
0
0
0
0
0
0
0
0
0
0
0
0
0
0
0
0
0
0
0
0
0
0
0
0
0
0
0
0
0
0
0
0
0
0
0
0
0
0
0
0
0
0
0
0
0
0
0
0
0
0
0
0
0
0
0
0
0
0
0
0
0
0
0
0
0
0
0
0
0
0
0
0
0
0
0
0
0
0
0
0
0
0
0
0
0
0
0
0
0
0
0
0
0
0
0
0
0
0
0
0
0
0
0
0
0
0
0
0
0
0
0
0
0
0
0
0
0
0
0
0
0
0
0
0
0
0
0
0
0
0
0
0
0
0
0
0
0
0
0
0
0
0
0
0
0
0
0
0
0
0
0
0
0
0
0
0
0
0
0
0
0
0
0
0
0
0
0
0
0
0
0
0
0
0
0
0
0
0
0
0
0
0
0
0
0
0
0
0
0
0
0
0
0
0
0
0
0
0
0
0
0
0
0
0
0
0
0
0
0
0
0
0
0
0
0
0
0
0
0
0
0
0
0
0
0
0
0
0
0
0
0
0
0
0
0
0
0
0
0
0
0
0
0
0
0
0
0
0
0
0
0
0
0
0
0
0
0
0
0
0
0
0
0
0
0
0
0
0
0
0
0
0
0
0
0
0
0
0
0
0
0
0
0
0
0
0
0
0
0
0
0
0
0
0
0
0
0
0
0
0
0
0
0
0
0
0
0
0
0
0
0
0
0
0
0
0
0
0
0
0
0
0
0
0
0
0
0
0
0
0
0
0
0
0
0
0
0
0
0
0
0
0
0
0
0
0
0
0
0
0
0
0
0
0
0
0
0
0
0
0
0
0
0
0
0
0
0
0
0
0
0
0
0
0
0
0
0
0
0
0
0
0
0
0
0
0
0
0
0
0
0
0
0
0
0
0
0
0
0
0
0
0
0
0
0
0
0
0
0
0
0
0
0
0
0
0
0
0
0
0
0
0
0
0
0
0
0
0
0
0
0
0
0
0
0
0
0
0
0
0
0
0
0
0
0
0
0
0
0
0
0
0
0
0
0
0
0
0
0
0
0
0
0
0
0
0
0
0
0
0
0
0
0
0
0
0
0
0
0
0
0
0
0
0
0
0
0
0
0
0
0
0
0
0
0
0
0
0
0
0
0
0
0
0
0
0
0
0
0
0
0
0
0
0
0
0
0
0
0
0
0
0
0
0
0
0
0
0
0
0
0
0
0
0
0
0
0
0
0
0
0
0
0
0
0
0
0
0
0
0
0
0
0
0
0
0
0
0
0
0
0
0
0
0
0
0
0
0
0
0
0
0
0
0
0
0
0
0
0
0
0
0
0
0
0
0
0
0
0
0
0
0
0
0
0
0
0
0
0
0
0
0
0
0
0
0
0
0
0
0
0
0
0
0
0
0
0
0
0
0
0
0
0
0
0
0
0
0
0
0
0
0
0
0
0
0
0
0
0
0
0
0
0
0
0
0
0
0
0
0
0
0
0
0
0
0
0
0
0
0
0
0
0
0
0
0
0
0
0
0
0
0
0
0
0
0
0
0
0
0
0
0
0
0
0
0
0
0
0
0
0
0
0
0
0
0
0
0
0
0
0
0
0
0
0
0
0
0
0
0
0
0
0
0
0
0
0
0
0
0
0
0
0
0
0
0
0
0
0
0
0
0
0
0
0
0
0
0
0
0
0
0
0
0
0
0
0
0
0
0
0
0
0
0
0
0
0
0
0
0
0
0
0
0
0
0
0
0
0
0
0
0
0
0
0
0
0
0
0
0
0
0
0
0
0
0
0
0
0
0
0
0
0
0
0
0
0
0
0
0
0
0
0
0
0
0
0
0
0
0
0
0
0
0
0
0
0
0
0
0
0
0
0
0
0
0
0
0
0
0
0
0
0
0
0
0
0
0
0
0
0
0
0
0
0
0
0
0
0
0
0
0
0
0
0
0
0
0
0
0
0
0
0
0
0
0
0
0
0
0
0
0
0
0
0
0
0
0
0
0
0
0
0
0
0
0
0
0
0
0
0
0
0
0
0
0
0
0
0
0
0
0
0
0
0
0
0
0
0
0
0
0
0
0
0
0
0
0
0
0
0
0
0
0
0
0
0
0
0
0
0
0
0
0
0
0
0
0
0
0
0
0
0
0
0
0
0
0
0
0
0
0
0
0
0
0
0
0
0
0
0
0
0
0
0
0
0
0
0
0
0
0
0
0
0
0
0
0
0
0
0
0
0
0
0
0
0
0
0
0
0
0
0
0
0
0
0
0
0
0
0
0
0
0
0
0
0
0
0
0
0
0
0
0
0
0
0
0
0
0
0
0
0
0
0
0
0
0
0
0
0
0
0
0
0
0
0
0
0
0
0
0
0
0
0
0
0
0
0
0
0
0
0
0
0
0
0
0
0
0
0
0
0
0
0
0
0
0
0
0
0
0
0
0
0
0
0
0
0
0
0
0
0
0
0
0
0
0
0
0
0
0
0
0
0
0
0
0
0
0
0
0
0
0
0
0
0
0
0
0
0
0
0
0
0
0
0
0
0
0
0
0
0
0
0
0
0
0
0
0
0
0
0
0
0
0
0
0
0
0
0
0
0
0
0
0
0
0
0
0
0
0
0
0
0
0
0
0
0
0
0
0
0
0
0
0
0
0
0
0
0
0
0
0
0
0
0
0
0
0
0
0
0
0
0
0
0
0
0
0
0
0
0
0
0
0
0
0
0
0
0
0
0
0
0
0
0
0
0
0
0
0
0
0
0
0
0
0
0
0
0
0
0
0
0
0
0
0
0
0
0
0
0
0
0
0
0
0
0
0
0
0
0
0
0
0
0
0
0
0
0
0
0
0
0
0
0
0
0
0
0
0
0
0
0
0
0
0
0
0
0
0
0
0
0
0
0
0
0
0
0
0
0
0
0
0
0
0
0
0
0
0
0
0
0
0
0
0
0
0
0
0
0
0
0
0
0
0
0
0
0
0
0
0
0
0
0
0
0
0
0
0
0
0
0
0
0
0
0
0
0
0
0
0
0
0
0
0
0
0
0
0
0
0
0
0
0
0
0
0
0
0
0
0
0
0
0
0
0
0
0
0
0
0
0
0
0
0
0
0
0
0
0
0
0
0
0
0
0
0
0
0
0
0
0
0
0
0
0
0
0
0
0
0
0
0
0
0
0
0
0
0
0
0
0
0
0
0
0
0
0
0
0
0
0
0
0
0
0
0
0
0
0
0
0
0
0
0
0
0
0
0
0
0
0
0
0
0
0
0
0
0
0
0
0
0
0
0
0
0
0
0
0
0
0
0
0
0
0
0
0
0
0
0
0
0
0
0
0
0
0
0
0
0
0
0
0
0
0
0
0
0
0
0
0
0
0
0
0
0
0
0
0
0
0
0
0
0
0
0
0
0
0
0
0
0
0
0
0
0
0
0
0
0
0
0
0
0
0
0
0
0
0
0
0
0
0
0
0
0
0
0
0
0
0
0
0
0
0
0
0
0
0
0
0
0
0
0
0
0
0
0
0
0
0
0
0
0
0
0
0
0
0
0
0
0
0
0
0
0
0
0
0
0
0
0
0
0
0
0
0
0
0
0
0
0
0
0
0
0
0
0
0
0
0
0
0
0
0
0
0
0
0
0
0
0
0
0
0
0
0
0
0
0
0
0
0
0
0
0
0
0
0
0
0
0
0
0
0
0
0
0
0
0
0
0
0
0
0
0
0
0
0
0
0
0
0
0
0
0
0
0
0
0
0
0
0
0
0
0
0
0
0
0
0
0
0
0
0
0
0
0
0
0
0
0
0
0
0
0
0
0
0
0
0
0
0
0
0
0
0
0
0
0
0
0
0
0
0
0
0
0
0
0
0
0
0
0
0
0
0
0
0
0
0
0
0
0
0
0
0
0
0
0
0
0
0
0
0
0
0
0
0
0
0
0
0
0
0
0
0
0
0
0
0
0
0
0
0
0
0
0
0
0
0
0
0
0
0
0
0
0
0
0
0
0
0
0
0
0
0
0
0
0
0
0
0
0
0
0
0
0
0
0
0
0
0
0
0
0
0
0
0
0
0
0
0
0
0
0
0
0
0
0
0
0
0
0
0
0
0
0
0
0
0
0
0
0
0
0
0
0
0
0
0
0
0
0
0
0
0
0
0
0
0
0
0
0
0
0
0
0
0
0
0
0
0
0
0
0
0
0
0
0
0
0
0
0
0
0
0
0
0
0
0
0
0
0
0
0
0
0
0
0
0
0
0
0
0
0
0
0
0
0
0
0
0
0
0
0
0
0
0
0
0
0
0
0
0
0
0
0
0
0
0
0
0
0
0
0
0
0
0
0
0
0
0
0
0
0
0
0
0
0
0
0
0
0
0
0
0
0
0
0
0
0
0
0
0
0
0
0
0
0
0
0
0
0
0
0
0
0
0
0
0
0
0
0
0
0
0
0
0
0
0
0
0
0
0
0
0
0
0
0
0
0
0
0
0
0
0
0
0
0
0
0
0
0
0
0
0
0
0
0
0
0
0
0
0
0
0
0
0
0
0
0
0
0
0
0
0
0
0
0
0
0
0
0
0
0
0
0
0
0
0
0
0
0
0
0
0
0
0
0
0
0
0
0
0
0
0
0
0
0
0
0
0
0
0
0
0
0
0
0
0
0
0
0
0
0
0
0
0
0
0
0
0
0
0
0
0
0
0
0
0
0
0
0
0
0
0
0
0
0
0
0
0
0
0
0
0
0
0
0
0
0
0
0
0
0
0
0
0
0
0
0
0
0
0
0
0
0
0
0
0
0
0
0
0
0
0
0
0
0
0
0
0
0
0
0
0
0
0
0
0
0
0
0
0
0
0
0
0
0
0
0
0
0
0
0
0
0
0
0
0
0
0
0
0
0
0
0
0
0
0
0
0
0
0
0
0
0
0
0
0
0
0
0
0
0
0
0
0
0
0
0
0
0
0
0
0
0
0
0
0
0
0
0
0
0
0
0
0
0
0
0
0
0
0
0
0
0
0
0
0
0
0
0
0
0
0
0
0
0
0
0
0
0
0
0
0
0
0
0
0
0
0
0
0
0
0
0
0
0
0
0
0
0
0
0
0
0
0
0
0
0
0
0
0
0
0
0
0
0
0
0
0
0
0
0
0
0
0
0
0
0
0
0
0
0
0
0
0
0
0
0
0
0
0
0
0
0
0
0
0
0
0
0
0
0
0
0
0
0
0
0
0
0
0
0
0
0
0
0
0
0
0
0
0
0
0
0
0
0
0
0
0
0
0
0
0
0
0
0
0
0
0
0
0
0
0
0
0
0
0
0
0
0
0
0
0
0
0
0
0
0
0
0
0
0
0
0
0
0
0
0
0
0
0
0
0
0
0
0
0
0
0
0
0
0
0
0
0
0
0
0
0
0
0
0
0
0
0
0
0
0
0
0
0
0
0
0
0
0
0
0
0
0
0
0
0
0
0
0
0
0
0
0
0
0
0
0
0
0
0
0
0
0
0
0
0
0
0
0
0
0
0
0
0
0
0
0
0
0
0
0
0
0
0
0
0
0
0
0
0
0
0
0
0
0
0
0
0
0
0
0
0
0
0
0
0
0
0
0
0
0
0
0
0
0
0
0
0
0
0
0
0
0
0
0
0
0
0
0
0
0
0
0
0
0
0
0
0
0
0
0
0
0
0
0
0
0
0
0
0
0
0
0
0
0
0
0
0
0
0
0
0
0
0
0
0
0
0
0
0
0
0
0
0
0
0
0
0
0
0
0
0
0
0
0
0
0
0
0
0
0
0
0
0
0
0
0
0
0
0
0
0
0
0
0
0
0
0
0
0
0
0
0
0
0
0
0
0
0
0
0
0
0
0
0
0
0
0
0
0
0
0
0
0
0
0
0
0
0
0
0
0
0
0
0
0
0
0
0
0
0
0
0
0
0
0
0
0
0
0
0
0
0
0
0
0
0
0
0
0
0
0
0
0
0
0
0
0
0
0
0
0
0
0
0
0
0
0
0
0
0
0
0
0
0
0
0
0
0
0
0
0
0
0
0
0
0
0
0
0
0
0
0
0
0
0
0
0
0
0
0
0
0
0
0
0
0
0
0
0
0
0
0
0
0
0
0
0
0
0
0
0
0
0
0
0
0
0
0
0
0
0
0
0
0
0
0
0
0
0
0
0
0
0
0
0
0
0
0
0
0
0
0
0
0
0
0
0
0
0
0
0
0
0
0
0
0
0
0
0
0
0
0
0
0
0
0
0
0
0
0
0
0
0
0
0
0
0
0
0
0
0
0
0
0
0
0
0
0
0
0
0
0
0
0
0
0
0
0
0
0
0
0
0
0
0
0
0
0
0
0
0
0
0
0
0
0
0
0
0
0
0
0
0
0
0
0
0
0
0
0
0
0
0
0
0
0
0
0
0
0
0
0
0
0
0
0
0
0
0
0
0
0
0
0
0
0
0
0
0
0
0
0
0
0
0
0
0
0
0
0
0
0
0
0
0
0
0
0
0
0
0
0
0
0
0
0
0
0
0
0
0
0
0
0
0
0
0
0
0
0
0
0
0
0
0
0
0
0
0
0
0
0
0
0
0
0
0
0
0
0
0
0
0
0
0
0
0
0
0
0
0
0
0
0
0
0
0
0
0
0
0
0
0
0
0
0
0
0
0
0
0
0
0
0
0
0
0
0
0
0
0
0
0
0
0
0
0
0
0
0
0
0
0
0
0
0
0
0
0
0
0
0
0
0
0
0
0
0
0
0
0
0
0
0
0
0
0
0
0
0
0
0
0
0
0
0
0
0
0
0
0
0
0
0
0
0
0
0
0
0
0
0
0
0
0
0
0
0
0
0
0
0
0
0
0
0
0
0
0
0
0
0
0
0
0
0
0
0
0
0
0
0
0
0
0
0
0
0
0
0
0
0
0
0
0
0
0
0
0
0
0
0
0
0
0
0
0
0
0
0
0
0
0
0
0
0
0
0
0
0
0
0
0
0
0
0
0
0
0
0
0
0
0
0
0
0
0
0
0
0
0
0
0
0
0
0
0
0
0
0
0
0
0
0
0
0
0
0
0
0
0
0
0
0
0
0
0
0
0
0
0
0
0
0
0
0
0
0
0
0
0
0
0
0
0
0
0
0
0
0
0
0
0
0
0
0
0
0
0
0
0
0
0
0
0
0
0
0
0
0
0
0
0
0
0
0
0
0
0
0
0
0
0
0
0
0
0
0
0
0
0
0
0
0
0
0
0
0
0
0
0
0
0
0
0
0
0
0
0
0
0
0
0
0
0
0
0
0
0
0
0
0
0
0
0
0
0
0
0
0
0
0
0
0
0
0
0
0
0
0
0
0
0
0
0
0
0
0
0
0
0
0
0
0
0
0
0
0
0
0
0
0
0
0
0
0
0
0
0
0
0
0
0
0
0
0
0
0
0
0
0
0
0
0
0
0
0
0
0
0
0
0
0
0
0
0
0
0
0
0
0
0
0
0
0
0
0
0
0
0
0
0
0
0
0
0
0
0
0
0
0
0
0
0
0
0
0
0
0
0
0
0
0
0
0
0
0
0
0
0
0
0
0
0
0
0
0
0
0
0
0
0
0
0
0
0
0
0
0
0
0
0
0
0
0
0
0
0
0
0
0
0
0
0
0
0
0
0
0
0
0
0
0
0
0
0
0
0
0
0
0
0
0
0
0
0
0
0
0
0
0
0
0
0
0
0
0
0
0
0
0
0
0
0
0
0
0
0
0
0
0
0
0
0
0
0
0
0
0
0
0
0
0
0
0
0
0
0
0
0
0
0
0
0
0
0
0
0
0
0
0
0
0
0
0
0
0
0
0
0
0
0
0
0
0
0
0
0
0
0
0
0
0
0
0
0
0
0
0
0
0
0
0
0
0
0
0
0
0
0
0
0
0
0
0
0
0
0
0
0
0
0
0
0
0
0
0
0
0
0
0
0
0
0
0
0
0
0
0
0
0
0
0
0
0
0
0
0
0
0
0
0
0
0
0
0
0
0
0
0
0
0
0
0
0
0
0
0
0
0
0
0
0
0
0
0
0
0
0
0
0
0
0
0
0
0
0
0
0
0
0
0
0
0
0
0
0
0
0
0
0
0
0
0
0
0
0
0
0
0
0
0
0
0
0
0
0
0
0
0
0
0
0
0
0
0
0
0
0
0
0
0
0
0
0
0
0
0
0
0
0
0
0
0
0
0
0
0
0
0
0
0
0
0
0
0
0
0
0
0
0
0
0
0
0
0
0
0
0
0
0
0
0
0
0
0
0
0
0
0
0
0
0
0
0
0
0
0
0
0
0
0
0
0
0
0
0
0
0
0
0
0
0
0
0
0
0
0
0
0
0
0
0
0
0
0
0
0
0
0
0
0
0
0
0
0
0
0
0
0
0
0
0
0
0
0
0
0
0
0
0
0
0
0
0
0
0
0
0
0
0
0
0
0
0
0
0
0
0
0
0
0
0
0
0
0
0
0
0
0
0
0
0
0
0
0
0
0
0
0
0
0
0
0
0
0
0
0
0
0
0
0
0
0
0
0
0
0
0
0
0
0
0
0
0
0
0
0
0
0
0
0
0
0
0
0
0
0
0
0
0
0
0
0
0
0
0
0
0
0
0
0
0
0
0
0
0
0
0
0
0
0
0
0
0
0
0
0
0
0
0
0
0
0
0
0
0
0
0
0
0
0
0
0
0
0
0
0
0
0
0
0
0
0
0
0
0
0
0
0
0
0
0
0
0
0
0
0
0
0
0
0
0
0
0
0
0
0
0
0
0
0
0
0
0
0
0
0
0
0
0
0
0
0
0
0
0
0
0
0
0
0
0
0
0
0
0
0
0
0
0
0
0
0
0
0
0
0
0
0
0
0
0
0
0
0
0
0
0
0
0
0
0
0
0
0
0
0
0
0
0
0
0
0
0
0
0
0
0
0
0
0
0
0
0
0
0
0
0
0
0
0
0
0
0
0
0
0
0
0
0
0
0
0
0
0
0
0
0
0
0
0
0
0
0
0
0
0
0
0
0
0
0
0
0
0
0
0
0
0
0
0
0
0
0
0
0
0
0
0
0
0
0
0
0
0
0
0
0
0
0
0
0
0
0
0
0
0
0
0
0
0
0
0
0
0
0
0
0
0
0
0
0
0
0
0
0
0
0
0
0
0
0
0
0
0
0
0
0
0
0
0
0
0
0
0
0
0
0
0
0
0
0
0
0
0
0
0
0
0
0
0
0
0
0
0
0
0
0
0
0
0
0
0
0
0
0
0
0
0
0
0
0
0
0
0
0
0
0
0
0
0
0
0
0
0
0
0
0
0
0
0
0
0
0
0
0
0
0
0
0
0
0
0
0
0
0
0
0
0
0
0
0
0
0
0
0
0
0
0
0
0
0
0
0
0
0
0
0
0
0
0
0
0
0
0
0
0
0
0
0
0
0
0
0
0
0
0
0
0
0
0
0
0
0
0
0
0
0
0
0
0
0
0
0
0
0
0
0
0
0
0
0
0
0
0
0
0
0
0
0
0
0
0
0
0
0
0
0
0
0
0
0
0
0
0
0
0
0
0
0
0
0
0
0
0
0
0
0
0
0
0
0
0
0
0
0
0
0
0
0
0
0
0
0
0
0
0
0
0
0
0
0
0
0
0
0
0
0
0
0
0
0
0
0
0
0
0
0
0
0
0
0
0
0
0
0
0
0
0
0
0
0
0
0
0
0
0
0
0
0
0
0
0
0
0
0
0
0
0
0
0
0
0
0
0
0
0
0
0
0
0
0
0
0
0
0
0
0
0
0
0
0
0
0
0
0
0
0
0
0
0
0
0
0
0
0
0
0
0
0
0
0
0
0
0
0
0
0
0
0
0
0
0
0
0
0
0
0
0
0
0
0
0
0
0
0
0
0
0
0
0
0
0
0
0
0
0
0
0
0
0
0
0
0
0
0
0
0
0
0
0
0
0
0
0
0
0
0
0
0
0
0
0
0
0
0
0
0
0
0
0
0
0
0
0
0
0
0
0
0
0
0
0
0
0
0
0
0
0
0
0
0
0
0
0
0
0
0
0
0
0
0
0
0
0
0
0
0
0
0
0
0
0
0
0
0
0
0
0
0
0
0
0
0
0
0
0
0
0
0
0
0
0
0
0
0
0
0
0
0
0
0
0
0
0
0
0
0
0
0
0
0
0
0
0
0
0
0
0
0
0
0
0
0
0
0
0
0
0
0
0
0
0
0
0
0
0
0
0
0
0
0
0
0
0
0
0
0
0
0
0
0
0
0
0
0
0
0
0
0
0
0
0
0
0
0
0
0
0
0
0
0
0
0
0
0
0
0
0
0
0
0
0
0
0
0
0
0
0
0
0
0
0
0
0
0
0
0
0
0
0
0
0
0
0
0
0
0
0
0
0
0
0
0
0
0
0
0
0
0
0
0
0
0
0
0
0
0
0
0
0
0
0
0
0
0
0
0
0
0
0
0
0
0
0
0
0
0
0
0
0
0
0
0
0
0
0
0
0
0
0
0
0
0
0
0
0
0
0
0
0
0
0
0
0
0
0
0
0
0
0
0
0
0
0
0
0
0
0
0
0
0
0
0
0
0
0
0
0
0
0
0
0
0
0
0
0
0
0
0
0
0
0
0
0
0
0
0
0
0
0
0
0
0
0
0
0
0
0
0
0
0
0
0
0
0
0
0
0
0
0
0
0
0
0
0
0
0
0
0
0
0
0
0
0
0
0
0
0
0
0
0
0
0
0
0
0
0
0
0
0
0
0
0
0
0
0
0
0
0
0
0
0
0
0
0
0
0
0
0
0
0
0
0
0
0
0
0
0
0
0
0
0
0
0
0
0
0
0
0
0
0
0
0
0
0
0
0
0
0
0
0
0
0
0
0
0
0
0
0
0
0
0
0
0
0
0
0
0
0
0
0
0
0
0
0
0
0
0
0
0
0
0
0
0
0
0
0
0
0
0
0
0
0
0
0
0
0
0
0
0
0
0
0
0
0
0
0
0
0
0
0
0
0
0
0
0
0
0
0
0
0
0
0
0
0
0
0
0
0
0
0
0
0
0
0
0
0
0
0
0
0
0
0
0
0
0
0
0
0
0
0
0
0
0
0
0
0
0
0
0
0
0
0
0
0
0
0
0
0
0
0
0
0
0
0
0
0
0
0
0
0
0
0
0
0
0
0
0
0
0
0
0
0
0
0
0
0
0
0
0
0
0
0
0
0
0
0
0
0
0
0
0
0
0
0
0
0
0
0
0
0
0
0
0
0
0
0
0
0
0
0
0
0
0
0
0
0
0
0
0
0
0
0
0
0
0
0
0
0
0
0
0
0
0
0
0
0
0
0
0
0
0
0
0
0
0
0
0
0
0
0
0
0
0
0
0
0
0
0
0
0
0
0
0
0
0
0
0
0
0
0
0
0
0
0
0
0
0
0
0
0
0
0
0
0
0
0
0
0
0
0
0
0
0
0
0
0
0
0
0
0
0
0
0
0
0
0
0
0
0
0
0
0
0
0
0
0
0
0
0
0
0
0
0
0
0
0
0
0
0
0
0
0
0
0
0
0
0
0
0
0
0
0
0
0
0
0
0
0
0
0
0
0
0
0
0
0
0
0
0
0
0
0
0
0
0
0
0
0
0
0
0
0
0
0
0
0
0
0
0
0
0
0
0
0
0
0
0
0
0
0
0
0
0
0
0
0
0
0
0
0
0
0
0
0
0
0
0
0
0
0
0
0
0
0
0
0
0
0
0
0
0
0
0
0
0
0
0
0
0
0
0
0
0
0
0
0
0
0
0
0
0
0
0
0
0
0
0
0
0
0
0
0
0
0
0
0
0
0
0
0
0
0
0
0
0
0
0
0
0
0
0
0
0
0
0
0
0
0
0
0
0
0
0
0
0
0
0
0
0
0
0
0
0
0
0
0
0
0
0
0
0
0
0
0
0
0
0
0
0
0
0
0
0
0
0
0
0
0
0
0
0
0
0
0
0
0
0
0
0
0
0
0
0
0
0
0
0
0
0
0
0
0
0
0
0
0
0
0
0
0
0
0
0
0
0
0
0
0
0
0
0
0
0
0
0
0
0
0
0
0
0
0
0
0
0
0
0
0
0
0
0
0
0
0
0
0
0
0
0
0
0
0
0
0
0
0
0
0
0
0
0
0
0
0
0
0
0
0
0
0
0
0
0
0
0
0
0
0
0
0
0
0
0
0
0
0
0
0
0
0
0
0
0
0
0
0
0
0
0
0
0
0
0
0
0
0
0
0
0
0
0
0
0
0
0
0
0
0
0
0
0
0
0
0
0
0
0
0
0
0
0
0
0
0
0
0
0
0
0
0
0
0
0
0
0
0
0
0
0
0
0
0
0
0
0
0
0
0
0
0
0
0
0
0
0
0
0
0
0
0
0
0
0
0
0
0
0
0
0
0
0
0
0
0
0
0
0
0
0
0
0
0
0
0
0
0
0
0
0
0
0
0
0
0
0
0
0
0
0
0
0
0
0
0
0
0
0
0
0
0
0
0
0
0
0
0
0
0
0
0
0
0
0
0
0
0
0
0
0
0
0
0
0
0
0
0
0
0
0
0
0
0
0
0
0
0
0
0
0
0
0
0
0
0
0
0
0
0
0
0
0
0
0
0
0
0
0
0
0
0
0
0
0
0
0
0
0
0
0
0
0
0
0
0
0
0
0
0
0
0
0
0
0
0
0
0
0
0
0
0
0
0
0
0
0
0
0
0
0
0
0
0
0
0
0
0
0
0
0
0
0
0
0
0
0
0
0
0
0
0
0
0
0
0
0
0
0
0
0
0
0
0
0
0
0
0
0
0
0
0
0
0
0
0
0
0
0
0
0
0
0
0
0
0
0
0
0
0
0
0
0
0
0
0
0
0
0
0
0
0
0
0
0
0
0
0
0
0
0
0
0
0
0
0
0
0
0
0
0
0
0
0
0
0
0
0
0
0
0
0
0
0
0
0
0
0
0
0
0
0
0
0
0
0
0
0
0
0
0
0
0
0
0
0
0
0
0
0
0
0
0
0
0
0
0
0
0
0
0
0
0
0
0
0
0
0
0
0
0
0
0
0
0
0
0
0
0
0
0
0
0
0
0
0
0
0
0
0
0
0
0
0
0
0
0
0
0
0
0
0
0
0
0
0
0
0
0
0
0
0
0
0
0
0
0
0
0
0
0
0
0
0
0
0
0
0
0
0
0
0
0
0
0
0
0
0
0
0
0
0
0
0
0
0
0
0
0
0
0
0
0
0
0
0
0
0
0
0
0
0
0
0
0
0
0
0
0
0
0
0
0
0
0
0
0
0
0
0
0
0
0
0
0
0
0
0
0
0
0
0
0
0
0
0
0
0
0
0
0
0
0
0
0
0
0
0
0
0
0
0
0
0
0
0
0
0
0
0
0
0
0
0
0
0
0
0
0
0
0
0
0
0
0
0
0
0
0
0
0
0
0
0
0
0
0
0
0
0
0
0
0
0
0
0
0
0
0
0
0
0
0
0
0
0
0
0
0
0
0
0
0
0
0
0
0
0
0
0
0
0
0
0
0
0
0
0
0
0
0
0
0
0
0
0
0
0
0
0
0
0
0
0
0
0
0
0
0
0
0
0
0
0
0
0
0
0
0
0
0
0
0
0
0
0
0
0
0
0
0
0
0
0
0
0
0
0
0
0
0
0
0
0
0
0
0
0
0
0
0
0
0
0
0
0
0
0
0
0
0
0
0
0
0
0
0
0
0
0
0
0
0
0
0
0
0
0
0
0
0
0
0
0
0
0
0
0
0
0
0
0
0
0
0
0
0
0
0
0
0
0
0
0
0
0
0
0
0
0
0
0
0
0
0
0
0
0
0
0
0
0
0
0
0
0
0
0
0
0
0
0
0
0
0
0
0
0
0
0
0
0
0
0
0
0
0
0
0
0
0
0
0
0
0
0
0
0
0
0
0
0
0
0
0
0
0
0
0
0
0
0
0
0
0
0
0
0
0
0
0
0
0
0
0
0
0
0
0
0
0
0
0
0
0
0
0
0
0
0
0
0
0
0
0
0
0
0
0
0
0
0
0
0
0
0
0
0
0
0
0
0
0
0
0
0
0
0
0
0
0
0
0
0
0
0
0
0
0
0
0
0
0
0
0
0
0
0
0
0
0
0
0
0
0
0
0
0
0
0
0
0
0
0
0
0
0
0
0
0
0
0
0
0
0
0
0
0
0
0
0
0
0
0
0
0
0
0
0
0
0
0
0
0
0
0
0
0
0
0
0
0
0
0
0
0
0
0
0
0
0
0
0
0
0
0
0
0
0
0
0
0
0
0
0
0
0
0
0
0
0
0
0
0
0
0
0
0
0
0
0
0
0
0
0
0
0
0
0
0
0
0
0
0
0
0
0
0
0
0
0
0
0
0
0
0
0
0
0
0
0
0
0
0
0
0
0
0
0
0
0
0
0
0
0
0
0
0
0
0
0
0
0
0
0
0
0
0
0
0
0
0
0
0
0
0
0
0
0
0
0
0
0
0
0
0
0
0
0
0
0
0
0
0
0
0
0
0
0
0
0
0
0
0
0
0
0
0
0
0
0
0
0
0
0
0
0
0
0
0
0
0
0
0
0
0
0
0
0
0
0
0
0
0
0
0
0
0
0
0
0
0
0
0
0
0
0
0
0
0
0
0
0
0
0
0
0
0
0
0
0
0
0
0
0
0
0
0
0
0
0
0
0
0
0
0
0
0
0
0
0
0
0
0
0
0
0
0
0
0
0
0
0
0
0
0
0
0
0
0
0
0
0
0
0
0
0
0
0
0
0
0
0
0
0
0
0
0
0
0
0
0
0
0
0
0
0
0
0
0
0
0
0
0
0
0
0
0
0
0
0
0
0
0
0
0
0
0
0
0
0
0
0
0
0
0
0
0
0
0
0
0
0
0
0
0
0
0
0
0
0
0
0
0
0
0
0
0
0
0
0
0
0
0
0
0
0
0
0
0
0
0
0
0
0
0
0
0
0
0
0
0
0
0
0
0
0
0
0
0
0
0
0
0
0
0
0
0
0
0
0
0
0
0
0
0
0
0
0
0
0
0
0
0
0
0
0
0
0
0
0
0
0
0
0
0
0
0
0
0
0
0
0
0
0
0
0
0
0
0
0
0
0
0
0
0
0
0
0
0
0
0
0
0
0
0
0
0
0
0
0
0
0
0
0
0
0
0
0
0
0
0
0
0
0
0
0
0
0
0
0
0
0
0
0
0
0
0
0
0
0
0
0
0
0
0
0
0
0
0
0
0
0
0
0
0
0
0
0
0
0
0
0
0
0
0
0
0
0
0
0
0
0
0
0
0
0
0
0
0
0
0
0
0
0
0
0
0
0
0
0
0
0
0
0
0
0
0
0
0
0
0
0
0
0
0
0
0
0
0
0
0
0
0
0
0
0
0
0
0
0
0
0
0
0
0
0
0
0
0
0
0
0
0
0
0
0
0
0
0
0
0
0
0
0
0
0
0
0
0
0
0
0
0
0
0
0
0
0
0
0
0
0
0
0
0
0
0
0
0
0
0
0
0
0
0
0
0
0
0
0
0
0
0
0
0
0
0
0
0
0
0
0
0
0
0
0
0
0
0
0
0
0
0
0
0
0
0
0
0
0
0
0
0
0
0
0
0
0
0
0
0
0
0
0
0
0
0
0
0
0
0
0
0
0
0
0
0
0
0
0
0
0
0
0
0
0
0
0
0
0
0
0
0
0
0
0
0
0
0
0
0
0
0
0
0
0
0
0
0
0
0
0
0
0
0
0
0
0
0
0
0
0
0
0
0
0
0
0
0
0
0
0
0
0
0
0
0
0
0
0
0
0
0
0
0
0
0
0
0
0
0
0
0
0
0
0
0
0
0
0
0
0
0
0
0
0
0
0
0
0
0
0
0
0
0
0
0
0
0
0
0
0
0
0
0
0
0
0
0
0
0
0
0
0
0
0
0
0
0
0
0
0
0
0
0
0
0
0
0
0
0
0
0
0
0
0
0
0
0
0
0
0
0
0
0
0
0
0
0
0
0
0
0
0
0
0
0
0
0
0
0
0
0
0
0
0
0
0
0
0
0
0
0
0
0
0
0
0
0
0
0
0
0
0
0
0
0
0
0
0
0
0
0
0
0
0
0
0
0
0
0
0
0
0
0
0
0
0
0
0
0
0
0
0
0
0
0
0
0
0
0
0
0
0
0
0
0
0
0
0
0
0
0
0
0
0
0
0
0
0
0
0
0
0
0
0
0
0
0
0
0
0
0
0
0
0
0
0
0
0
0
0
0
0
0
0
0
0
0
0
0
0
0
0
0
0
0
0
0
0
0
0
0
0
0
0
0
0
0
0
0
0
0
0
0
0
0
0
0
0
0
0
0
0
0
0
0
0
0
0
0
0
0
0
0
0
0
0
0
0
0
0
0
0
0
0
0
0
0
0
0
0
0
0
0
0
0
0
0
0
0
0
0
0
0
0
0
0
0
0
0
0
0
0
0
0
0
0
0
0
0
0
0
0
0
0
0
0
0
0
0
0
0
0
0
0
0
0
0
0
0
0
0
0
0
0
0
0
0
0
0
0
0
0
0
0
0
0
0
0
0
0
0
0
0
0
0
0
0
0
0
0
0
0
0
0
0
0
0
0
0
0
0
0
0
0
0
0
0
0
0
0
0
0
0
0
0
0
0
0
0
0
0
0
0
0
0
0
0
0
0
0
0
0
0
0
0
0
0
0
0
0
0
0
0
0
0
0
0
0
0
0
0
0
0
0
0
0
0
0
0
0
0
0
0
0
0
0
0
0
0
0
0
0
0
0
0
0
0
0
0
0
0
0
0
0
0
0
0
0
0
0
0
0
0
0
0
0
0
0
0
0
0
0
0
0
0
0
0
0
0
0
0
0
0
0
0
0
0
0
0
0
0
0
0
0
0
0
0
0
0
0
0
0
0
0
0
0
0
0
0
0
0
0
0
0
0
0
0
0
0
0
0
0
0
0
0
0
0
0
0
0
0
0
0
0
0
0
0
0
0
0
0
0
0
0
0
0
0
0
0
0
0
0
0
0
0
0
0
0
0
0
0
0
0
0
0
0
0
0
0
0
0
0
0
0
0
0
0
0
0
0
0
0
0
0
0
0
0
0
0
0
0
0
0
0
0
0
0
0
0
0
0
0
0
0
0
0
0
0
0
0
0
0
0
0
0
0
0
0
0
0
0
0
0
0
0
0
0
0
0
0
0
0
0
0
0
0
0
0
0
0
0
0
0
0
0
0
0
0
0
0
0
0
0
0
0
0
0
0
0
0
0
0
0
0
0
0
0
0
0
0
0
0
0
0
0
0
0
0
0
0
0
0
0
0
0
0
0
0
0
0
0
0
0
0
0
0
0
0
0
0
0
0
0
0
0
0
0
0
0
0
0
0
0
0
0
0
0
0
0
0
0
0
0
0
0
0
0
0
0
0
0
0
0
0
0
0
0
0
0
0
0
0
0
0
0
0
0
0
0
0
0
0
0
0
0
0
0
0
0
0
0
0
0
0
0
0
0
0
0
0
0
0
0
0
0
0
0
0
0
0
0
0
0
0
0
0
0
0
0
0
0
0
0
0
0
0
0
0
0
0
0
0
0
0
0
0
0
0
0
0
0
0
0
0
0
0
0
0
0
0
0
0
0
0
0
0
0
0
0
0
0
0
0
0
0
0
0
0
0
0
0
0
0
0
0
0
0
0
0
0
0
0
0
0
0
0
0
0
0
0
0
0
0
0
0
0
0
0
0
0
0
0
0
0
0
0
0
0
0
0
0
0
0
0
0
0
0
0
0
0
0
0
0
0
0
0
0
0
0
0
0
0
0
0
0
0
0
0
0
0
0
0
0
0
0
0
0
0
0
0
0
0
0
0
0
0
0
0
0
0
0
0
0
0
0
0
0
0
0
0
0
0
0
0
0
0
0
0
0
0
0
0
0
0
0
0
0
0
0
0
0
0
0
0
0
0
0
0
0
0
0
0
0
0
0
0
0
0
0
0
0
0
0
0
0
0
0
0
0
0
0
0
0
0
0
0
0
0
0
0
0
0
0
0
0
0
0
0
0
0
0
0
0
0
0
0
0
0
0
0
0
0
0
0
0
0
0
0
0
0
0
0
0
0
0
0
0
0
0
0
0
0
0
0
0
0
0
0
0
0
0
0
0
0
0
0
0
0
0
0
0
0
0
0
0
0
0
0
0
0
0
0
0
0
0
0
0
0
0
0
0
0
0
0
0
0
0
0
0
0
0
0
0
0
0
0
0
0
0
0
0
0
0
0
0
0
0
0
0
0
0
0
0
0
0
0
0
0
0
0
0
0
0
0
0
0
0
0
0
0
0
0
0
0
0
0
0
0
0
0
0
0
0
0
0
0
0
0
0
0
0
0
0
0
0
0
0
0
0
0
0
0
0
0
0
0
0
0
0
0
0
0
0
0
0
0
0
0
0
0
0
0
0
0
0
0
0
0
0
0
0
0
0
0
0
0
0
0
0
0
0
0
0
0
0
0
0
0
0
0
0
0
0
0
0
0
0
0
0
0
0
0
0
0
0
0
0
0
0
0
0
0
0
0
0
0
0
0
0
0
0
0
0
0
0
0
0
0
0
0
0
0
0
0
0
0
0
0
0
0
0
0
0
0
0
0
0
0
0
0
0
0
0
0
0
0
0
0
0
0
0
0
0
0
0
0
0
0
0
0
0
0
0
0
0
0
0
0
0
0
0
0
0
0
0
0
0
0
0
0
0
0
0
0
0
0
0
0
0
0
0
0
0
0
0
0
0
0
0
0
0
0
0
0
0
0
0
0
0
0
0
0
0
0
0
0
0
0
0
0
0
0
0
0
0
0
0
0
0
0
0
0
0
0
0
0
0
0
0
0
0
0
0
0
0
0
0
0
0
0
0
0
0
0
0
0
0
0
0
0
0
0
0
0
0
0
0
0
0
0
0
0
0
0
0
0
0
0
0
0
0
0
0
0
0
0
0
0
0
0
0
0
0
0
0
0
0
0
0
0
0
0
0
0
0
0
0
0
0
0
0
0
0
0
0
0
0
0
0
0
0
0
0
0
0
0
0
0
0
0
0
0
0
0
0
0
0
0
0
0
0
0
0
0
0
0
0
0
0
0
0
0
0
0
0
0
0
0
0
0
0
0
0
0
0
0
0
0
0
0
0
0
0
0
0
0
0
0
0
0
0
0
0
0
0
0
0
0
0
0
0
0
0
0
0
0
0
0
0
0
0
0
0
0
0
0
0
0
0
0
0
0
0
0
0
0
0
0
0
0
0
0
0
0
0
0
0
0
0
0
0
0
0
0
0
0
0
0
0
0
0
0
0
0
0
0
0
0
0
0
0
0
0
0
0
0
0
0
0
0
0
0
0
0
0
0
0
0
0
0
0
0
0
0
0
0
0
0
0
0
0
0
0
0
0
0
0
0
0
0
0
0
0
0
0
0
0
0
0
0
0
0
0
0
0
0
0
0
0
0
0
0
0
0
0
0
0
0
0
0
0
0
0
0
0
0
0
0
0
0
0
0
0
0
0
0
0
0
0
0
0
0
0
0
0
0
0
0
0
0
0
0
0
0
0
0
0
0
0
0
0
0
0
0
0
0
0
0
0
0
0
0
0
0
0
0
0
0
0
0
0
0
0
0
0
0
0
0
0
0
0
0
0
0
0
0
0
0
0
0
0
0
0
0
0
0
0
0
0
0
0
0
0
0
0
0
0
0
0
0
0
0
0
0
0
0
0
0
0
0
0
0
0
0
0
0
0
0
0
0
0
0
0
0
0
0
0
0
0
0
0
0
0
0
0
0
0
0
0
0
0
0
0
0
0
0
0
0
0
0
0
0
0
0
0
0
0
0
0
0
0
0
0
0
0
0
0
0
0
0
0
0
0
0
0
0
0
0
0
0
0
0
0
0
0
0
0
0
0
0
0
0
0
0
0
0
0
0
0
0
0
0
0
0
0
0
0
0
0
0
0
0
0
0
0
0
0
0
0
0
0
0
0
0
0
0
0
0
0
0
0
0
0
0
0
0
0
0
0
0
0
0
0
0
0
0
0
0
0
0
0
0
0
0
0
0
0
0
0
0
0
0
0
0
0
0
0
0
0
0
0
0
0
0
0
0
0
0
0
0
0
0
0
0
0
0
0
0
0
0
0
0
0
0
0
0
0
0
0
0
0
0
0
0
0
0
0
0
0
0
0
0
0
0
0
0
0
0
0
0
0
0
0
0
0
0
0
0
0
0
0
0
0
0
0
0
0
0
0
0
0
0
0
0
0
0
0
0
0
0
0
0
0
0
0
0
0
0
0
0
0
0
0
0
0
0
0
0
0
0
0
0
0
0
0
0
0
0
0
0
0
0
0
0
0
0
0
0
0
0
0
0
0
0
0
0
0
0
0
0
0
0
0
0
0
0
0
0
0
0
0
0
0
0
0
0
0
0
0
0
0
0
0
0
0
0
0
0
0
0
0
0
0
0
0
0
0
0
0
0
0
0
0
0
0
0
0
0
0
0
0
0
0
0
0
0
0
0
0
0
0
0
0
0
0
0
0
0
0
0
0
0
0
0
0
0
0
0
0
0
0
0
0
0
0
0
0
0
0
0
0
0
0
0
0
0
0
0
0
0
0
0
0
0
0
0
0
0
0
0
0
0
0
0
0
0
0
0
0
0
0
0
0
0
0
0
0
0
0
0
0
0
0
0
0
0
0
0
0
0
0
0
0
0
0
0
0
0
0
0
0
0
0
0
0
0
0
0
0
0
0
0
0
0
0
0
0
0
0
0
0
0
0
0
0
0
0
0
0
0
0
0
0
0
0
0
0
0
0
0
0
0
0
0
0
0
0
0
0
0
0
0
0
0
0
0
0
0
0
0
0
0
0
0
0
0
0
0
0
0
0
0
0
0
0
0
0
0
0
0
0
0
0
0
0
0
0
0
0
0
0
0
0
0
0
0
0
0
0
0
0
0
0
0
0
0
0
0
0
0
0
0
0
0
0
0
0
0
0
0
0
0
0
0
0
0
0
0
0
0
0
0
0
0
0
0
0
0
0
0
0
0
0
0
0
0
0
0
0
0
0
0
0
0
0
0
0
0
0
0
0
0
0
0
0
0
0
0
0
0
0
0
0
0
0
0
0
0
0
0
0
0
0
0
0
0
0
0
0
0
0
0
0
0
0
0
0
0
0
0
0
0
0
0
0
0
0
0
0
0
0
0
0
0
0
0
0
0
0
0
0
0
0
0
0
0
0
0
0
0
0
0
0
0
0
0
0
0
0
0
0
0
0
0
0
0
0
0
0
0
0
0
0
0
0
0
0
0
0
0
0
0
0
0
0
0
0
0
0
0
0
0
0
0
0
0
0
0
0
0
0
0
0
0
0
0
0
0
0
0
0
0
0
0
0
0
0
0
0
0
0
0
0
0
0
0
0
0
0
0
0
0
0
0
0
0
0
0
0
0
0
0
0
0
0
0
0
0
0
0
0
0
0
0
0
0
0
0
0
0
0
0
0
0
0
0
0
0
0
0
0
0
0
0
0
0
0
0
0
0
0
0
0
0
0
0
0
0
0
0
0
0
0
0
0
0
0
0
0
0
0
0
0
0
0
0
0
0
0
0
0
0
0
0
0
0
0
0
0
0
0
0
0
0
0
0
0
0
0
0
0
0
0
0
0
0
0
0
0
0
0
0
0
0
0
0
0
0
0
0
0
0
0
0
0
0
0
0
0
0
0
0
0
0
0
0
0
0
0
0
0
0
0
0
0
0
0
0
0
0
0
0
0
0
0
0
0
0
0
0
0
0
0
0
0
0
0
0
0
0
0
0
0
0
0
0
0
0
0
0
0
0
0
0
0
0
0
0
0
0
0
0
0
0
0
0
0
0
0
0
0
0
0
0
0
0
0
0
0
0
0
0
0
0
0
0
0
0
0
0
0
0
0
0
0
0
0
0
0
0
0
0
0
0
0
0
0
0
0
0
0
0
0
0
0
0
0
0
0
0
0
0
0
0
0
0
0
0
0
0
0
0
0
0
0
0
0
0
0
0
0
0
0
0
0
0
0
0
0
0
0
0
0
0
0
0
0
0
0
0
0
0
0
0
0
0
0
0
0
0
0
0
0
0
0
0
0
0
0
0
0
0
0
0
0
0
0
0
0
0
0
0
0
0
0
0
0
0
0
0
0
0
0
0
0
0
0
0
0
0
0
0
0
0
0
0
0
0
0
0
0
0
0
0
0
0
0
0
0
0
0
0
0
0
0
0
0
0
0
0
0
0
0
0
0
0
0
0
0
0
0
0
0
0
0
0
0
0
0
0
0
0
0
0
0
0
0
0
0
0
0
0
0
0
0
0
0
0
0
0
0
0
0
0
0
0
0
0
0
0
0
0
0
0
0
0
0
0
0
0
0
0
0
0
0
0
0
0
0
0
0
0
0
0
0
0
0
0
0
0
0
0
0
0
0
0
0
0
0
0
0
0
0
0
0
0
0
0
0
0
0
0
0
0
0
0
0
0
0
0
0
0
0
0
0
0
0
0
0
0
0
0
0
0
0
0
0
0
0
0
0
0
0
0
0
0
0
0
0
0
0
0
0
0
0
0
0
0
0
0
0
0
0
0
0
0
0
0
0
0
0
0
0
0
0
0
0
0
0
0
0
0
0
0
0
0
0
0
0
0
0
0
0
0
0
0
0
0
0
0
0
0
0
0
0
0
0
0
0
0
0
0
0
0
0
0
0
0
0
0
0
0
0
0
0
0
0
0
0
0
0
0
0
0
0
0
0
0
0
0
0
0
0
0
0
0
0
0
0
0
0
0
0
0
0
0
0
0
0
0
0
0
0
0
0
0
0
0
0
0
0
0
0
0
0
0
0
0
0
0
0
0
0
0
0
0
0
0
0
0
0
0
0
0
0
0
0
0
0
0
0
0
0
0
0
0
0
0
0
0
0
0
0
0
0
0
0
0
0
0
0
0
0
0
0
0
0
0
0
0
0
0
0
0
0
0
0
0
0
0
0
0
0
0
0
0
0
0
0
0
0
0
0
0
0
0
0
0
0
0
0
0
0
0
0
0
0
0
0
0
0
0
0
0
0
0
0
0
0
0
0
0
0
0
0
0
0
0
0
0
0
0
0
0
0
0
0
0
0
0
0
0
0
0
0
0
0
0
0
0
0
0
0
0
0
0
0
0
0
0
0
0
0
0
0
0
0
0
0
0
0
0
0
0
0
0
0
0
0
0
0
0
0
0
0
0
0
0
0
0
0
0
0
0
0
0
0
0
0
0
0
0
0
0
0
0
0
0
0
0
0
0
0
0
0
0
0
0
0
0
0
0
0
0
0
0
0
0
0
0
0
0
0
0
0
0
0
0
0
0
0
0
0
0
0
0
0
0
0
0
0
0
0
0
0
0
0
0
0
0
0
0
0
0
0
0
0
0
0
0
0
0
0
0
0
0
0
0
0
0
0
0
0
0
0
0
0
0
0
0
0
0
0
0
0
0
0
0
0
0
0
0
0
0
0
0
0
0
0
0
0
0
0
0
0
0
0
0
0
0
0
0
0
0
0
0
0
0
0
0
0
0
0
0
0
0
0
0
0
0
0
0
0
0
0
0
0
0
0
0
0
0
0
0
0
0
0
0
0
0
0
0
0
0
0
0
0
0
0
0
0
0
0
0
0
0
0
0
0
0
0
0
0
0
0
0
0
0
0
0
0
0
0
0
0
0
0
0
0
0
0
0
0
0
0
0
0
0
0
0
0
0
0
0
0
0
0
0
0
0
0
0
0
0
0
0
0
0
0
0
0
0
0
0
0
0
0
0
0
0
0
0
0
0
0
0
0
0
0
0
0
0
0
0
0
0
0
0
0
0
0
0
0
0
0
0
0
0
0
0
0
0
0
0
0
0
0
0
0
0
0
0
0
0
0
0
0
0
0
0
0
0
0
0
0
0
0
0
0
0
0
0
0
0
0
0
0
0
0
0
0
0
0
0
0
0
0
0
0
0
0
0
0
0
0
0
0
0
0
0
0
0
0
0
0
0
0
0
0
0
0
0
0
0
0
0
0
0
0
0
0
0
0
0
0
0
0
0
0
0
0
0
0
0
0
0
0
0
0
0
0
0
0
0
0
0
0
0
0
0
0
0
0
0
0
0
0
0
0
0
0
0
0
0
0
0
0
0
0
0
0
0
0
0
0
0
0
0
0
0
0
0
0
0
0
0
0
0
0
0
0
0
0
0
0
0
0
0
0
0
0
0
0
0
0
0
0
0
0
0
0
0
0
0
0
0
0
0
0
0
0
0
0
0
0
0
0
0
0
0
0
0
0
0
0
0
0
0
0
0
0
0
0
0
0
0
0
0
0
0
0
0
0
0
0
0
0
0
0
0
0
0
0
0
0
0
0
0
0
0
0
0
0
0
0
0
0
0
0
0
0
0
0
0
0
0
0
0
0
0
0
0
0
0
0
0
0
0
0
0
0
0
0
0
0
0
0
0
0
0
0
0
0
0
0
0
0
0
0
0
0
0
0
0
0
0
0
0
0
0
0
0
0
0
0
0
0
0
0
0
0
0
0
0
0
0
0
0
0
0
0
0
0
0
0
0
0
0
0
0
0
0
0
0
0
0
0
0
0
0
0
0
0
0
0
0
0
0
0
0
0
0
0
0
0
0
0
0
0
0
0
0
0
0
0
0
0
0
0
0
0
0
0
0
0
0
0
0
0
0
0
0
0
0
0
0
0
0
0
0
0
0
0
0
0
0
0
0
0
0
0
0
0
0
0
0
0
0
0
0
0
0
0
0
0
0
0
0
0
0
0
0
0
0
0
0
0
0
0
0
0
0
0
0
0
0
0
0
0
0
0
0
0
0
0
0
0
0
0
0
0
0
0
0
0
0
0
0
0
0
0
0
0
0
0
0
0
0
0
0
0
0
0
0
0
0
0
0
0
0
0
0
0
0
0
0
0
0
0
0
0
0
0
0
0
0
0
0
0
0
0
0
0
0
0
0
0
0
0
0
0
0
0
0
0
0
0
0
0
0
0
0
0
0
0
0
0
0
0
0
0
0
0
0
0
0
0
0
0
0
0
0
0
0
0
0
0
0
0
0
0
0
0
0
0
0
0
0
0
0
0
0
0
0
0
0
0
0
0
0
0
0
0
0
0
0
0
0
0
0
0
0
0
0
0
0
0
0
0
0
0
0
0
0
0
0
0
0
0
0
0
0
0
0
0
0
0
0
0
0
0
0
0
0
0
0
0
0
0
0
0
0
0
0
0
0
0
0
0
0
0
0
0
0
0
0
0
0
0
0
0
0
0
0
0
0
0
0
0
0
0
0
0
0
0
0
0
0
0
0
0
0
0
0
0
0
0
0
0
0
0
0
0
0
0
0
0
0
0
0
0
0
0
0
0
0
0
0
0
0
0
0
0
0
0
0
0
0
0
0
0
0
0
0
0
0
0
0
0
0
0
0
0
0
0
0
0
0
0
0
0
0
0
0
0
0
0
0
0
0
0
0
0
0
0
0
0
0
0
0
0
0
0
0
0
0
0
0
0
0
0
0
0
0
0
0
0
0
0
0
0
0
0
0
0
0
0
0
0
0
0
0
0
0
0
0
0
0
0
0
0
0
0
0
0
0
0
0
0
0
0
0
0
0
0
0
0
0
0
0
0
0
0
0
0
0
0
0
0
0
0
0
0
0
0
0
0
0
0
0
0
0
0
0
0
0
0
0
0
0
0
0
0
0
0
0
0
0
0
0
0
0
0
0
0
0
0
0
0
0
0
0
0
0
0
0
0
0
0
0
0
0
0
0
0
0
0
0
0
0
0
0
0
0
0
0
0
0
0
0
0
0
0
0
0
0
0
0
0
0
0
0
0
0
0
0
0
0
0
0
0
0
0
0
0
0
0
0
0
0
0
0
0
0
0
0
0
0
0
0
0
0
0
0
0
0
0
0
0
0
0
0
0
0
0
0
0
0
0
0
0
0
0
0
0
0
0
0
0
0
0
0
0
0
0
0
0
0
0
0
0
0
0
0
0
0
0
0
0
0
0
0
0
0
0
0
0
0
0
0
0
0
0
0
0
0
0
0
0
0
0
0
0
0
0
0
0
0
0
0
0
0
0
0
0
0
0
0
0
0
0
0
0
0
0
0
0
0
0
0
0
0
0
0
0
0
0
0
0
0
0
0
0
0
0
0
0
0
0
0
0
0
0
0
0
0
0
0
0
0
0
0
0
0
0
0
0
0
0
0
0
0
0
0
0
0
0
0
0
0
0
0
0
0
0
0
0
0
0
0
0
0
0
0
0
0
0
0
0
0
0
0
0
0
0
0
0
0
0
0
0
0
0
0
0
0
0
0
0
0
0
0
0
0
0
0
0
0
0
0
0
0
0
0
0
0
0
0
0
0
0
0
0
0
0
0
0
0
0
0
0
0
0
0
0
0
0
0
0
0
0
0
0
0
0
0
0
0
0
0
0
0
0
0
0
0
0
0
0
0
0
0
0
0
0
0
0
0
0
0
0
0
0
0
0
0
0
0
0
0
0
0
0
0
0
0
0
0
0
0
0
0
0
0
0
0
0
0
0
0
0
0
0
0
0
0
0
0
0
0
0
0
0
0
0
0
0
0
0
0
0
0
0
0
0
0
0
0
0
0
0
0
0
0
0
0
0
0
0
0
0
0
0
0
0
0
0
0
0
0
0
0
0
0
0
0
0
0
0
0
0
0
0
0
0
0
0
0
0
0
0
0
0
0
0
0
0
0
0
0
0
0
0
0
0
0
0
0
0
0
0
0
0
0
0
0
0
0
0
0
0
0
0
0
0
0
0
0
0
0
0
0
0
0
0
0
0
0
0
0
0
0
0
0
0
0
0
0
0
0
0
0
0
0
0
0
0
0
0
0
0
0
0
0
0
0
0
0
0
0
0
0
0
0
0
0
0
0
0
0
0
0
0
0
0
0
0
0
0
0
0
0
0
0
0
0
0
0
0
0
0
0
0
0
0
0
0
0
0
0
0
0
0
0
0
0
0
0
0
0
0
0
0
0
0
0
0
0
0
0
0
0
0
0
0
0
0
0
0
0
0
0
0
0
0
0
0
0
0
0
0
0
0
0
0
0
0
0
0
0
0
0
0
0
0
0
0
0
0
0
0
0
0
0
0
0
0
0
0
0
0
0
0
0
0
0
0
0
0
0
0
0
0
0
0
0
0
0
0
0
0
0
0
0
0
0
0
0
0
0
0
0
0
0
0
0
0
0
0
0
0
0
0
0
0
0
0
0
0
0
0
0
0
0
0
0
0
0
0
0
0
0
0
0
0
0
0
0
0
0
0
0
0
0
0
0
0
0
0
0
0
0
0
0
0
0
0
0
0
0
0
0
0
0
0
0
0
0
0
0
0
0
0
0
0
0
0
0
0
0
0
0
0
0
0
0
0
0
0
0
0
0
0
0
0
0
0
0
0
0
0
0
0
0
0
0
0
0
0
0
0
0
0
0
0
0
0
0
0
0
0
0
0
0
0
0
0
0
0
0
0
0
0
0
0
0
0
0
0
0
0
0
0
0
0
0
0
0
0
0
0
0
0
0
0
0
0
0
0
0
0
0
0
0
0
0
0
0
0
0
0
0
0
0
0
0
0
0
0
0
0
0
0
0
0
0
0
0
0
0
0
0
0
0
0
0
0
0
0
0
0
0
0
0
0
0
0
0
0
0
0
0
0
0
0
0
0
0
0
0
0
0
0
0
0
0
0
0
0
0
0
0
0
0
0
0
0
0
0
0
0
0
0
0
0
0
0
0
0
0
0
0
0
0
0
0
0
0
0
0
0
0
0
0
0
0
0
0
0
0
0
0
0
0
0
0
0
0
0
0
0
0
0
0
0
0
0
0
0
0
0
0
0
0
0
0
0
0
0
0
0
0
0
0
0
0
0
0
0
0
0
0
0
0
0
0
0
0
0
0
0
0
0
0
0
0
0
0
0
0
0
0
0
0
0
0
0
0
0
0
0
0
0
0
0
0
0
0
0
0
0
0
0
0
0
0
0
0
0
0
0
0
0
0
0
0
0
0
0
0
0
0
0
0
0
0
0
0
0
0
0
0
0
0
0
0
0
0
0
0
0
0
0
0
0
0
0
0
0
0
0
0
0
0
0
0
0
0
0
0
0
0
0
0
0
0
0
0
0
0
0
0
0
0
0
0
0
0
0
0
0
0
0
0
0
0
0
0
0
0
0
0
0
0
0
0
0
0
0
0
0
0
0
0
0
0
0
0
0
0
0
0
0
0
0
0
0
0
0
0
0
0
0
0
0
0
0
0
0
0
0
0
0
0
0
0
0
0
0
0
0
0
0
0
0
0
0
0
0
0
0
0
0
0
0
0
0
0
0
0
0
0
0
0
0
0
0
0
0
0
0
0
0
0
0
0
0
0
0
0
0
0
0
0
0
0
0
0
0
0
0
0
0
0
0
0
0
0
0
0
0
0
0
0
0
0
0
0
0
0
0
0
0
0
0
0
0
0
0
0
0
0
0
0
0
0
0
0
0
0
0
0
0
0
0
0
0
0
0
0
0
0
0
0
0
0
0
0
0
0
0
0
0
0
0
0
0
0
0
0
0
0
0
0
0
0
0
0
0
0
0
0
0
0
0
0
0
0
0
0
0
0
0
0
0
0
0
0
0
0
0
0
0
0
0
0
0
0
0
0
0
0
0
0
0
0
0
0
0
0
0
0
0
0
0
0
0
0
0
0
0
0
0
0
0
0
0
0
0
0
0
0
0
0
0
0
0
0
0
0
0
0
0
0
0
0
0
0
0
0
0
0
0
0
0
0
0
0
0
0
0
0
0
0
0
0
0
0
0
0
0
0
0
0
0
0
0
0
0
0
0
0
0
0
0
0
0
0
0
0
0
0
0
0
0
0
0
0
0
0
0
0
0
0
0
0
0
0
0
0
0
0
0
0
0
0
0
0
0
0
0
0
0
0
0
0
0
0
0
0
0
0
0
0
0
0
0
0
0
0
0
0
0
0
0
0
0
0
0
0
0
0
0
0
0
0
0
0
0
0
0
0
0
0
0
0
0
0
0
0
0
0
0
0
0
0
0
0
0
0
0
0
0
0
0
0
0
0
0
0
0
0
0
0
0
0
0
0
0
0
0
0
0
0
0
0
0
0
0
0
0
0
0
0
0
0
0
0
0
0
0
0
0
0
0
0
0
0
0
0
0
0
0
0
0
0
0
0
0
0
0
0
0
0
0
0
0
0
0
0
0
0
0
0
0
0
0
0
0
0
0
0
0
0
0
0
0
0
0
0
0
0
0
0
0
0
0
0
0
0
0
0
0
0
0
0
0
0
0
0
0
0
0
0
0
0
0
0
0
0
0
0
0
0
0
0
0
0
0
0
0
0
0
0
0
0
0
0
0
0
0
0
0
0
0
0
0
0
0
0
0
0
0
0
0
0
0
0
0
0
0
0
0
0
0
0
0
0
0
0
0
0
0
0
0
0
0
0
0
0
0
0
0
0
0
0
0
0
0
0
0
0
0
0
0
0
0
0
0
0
0
0
0
0
0
0
0
0
0
0
0
0
0
0
0
0
0
0
0
0
0
0
0
0
0
0
0
0
0
0
0
0
0
0
0
0
0
0
0
0
0
0
0
0
0
0
0
0
0
0
0
0
0
0
0
0
0
0
0
0
0
0
0
0
0
0
0
0
0
0
0
0
0
0
0
0
0
0
0
0
0
0
0
0
0
0
0
0
0
0
0
0
0
0
0
0
0
0
0
0
0
0
0
0
0
0
0
0
0
0
0
0
0
0
0
0
0
0
0
0
0
0
0
0
0
0
0
0
0
0
0
0
0
0
0
0
0
0
0
0
0
0
0
0
0
0
0
0
0
0
0
0
0
0
0
0
0
0
0
0
0
0
0
0
0
0
0
0
0
0
0
0
0
0
0
0
0
0
0
0
0
0
0
0
0
0
0
0
0
0
0
0
0
0
0
0
0
0
0
0
0
0
0
0
0
0
0
0
0
0
0
0
0
0
0
0
0
0
0
0
0
0
0
0
0
0
0
0
0
0
0
0
0
0
0
0
0
0
0
0
0
0
0
0
0
0
0
0
0
0
0
0
0
0
0
0
0
0
0
0
0
0
0
0
0
0
0
0
0
0
0
0
0
0
0
0
0
0
0
0
0
0
0
0
0
0
0
0
0
0
0
0
0
0
0
0
0
0
0
0
0
0
0
0
0
0
0
0
0
0
0
0
0
0
0
0
0
0
0
0
0
0
0
0
0
0
0
0
0
0
0
0
0
0
0
0
0
0
0
0
0
0
0
0
0
0
0
0
0
0
0
0
0
0
0
0
0
0
0
0
0
0
0
0
0
0
0
0
0
0
0
0
0
0
0
0
0
0
0
0
0
0
0
0
0
0
0
0
0
0
0
0
0
0
0
0
0
0
0
0
0
0
0
0
0
0
0
0
0
0
0
0
0
0
0
0
0
0
0
0
0
0
0
0
0
0
0
0
0
0
0
0
0
0
0
0
0
0
0
0
0
0
0
0
0
0
0
0
0
0
0
0
0
0
0
0
0
0
0
0
0
0
0
0
0
0
0
0
0
0
0
0
0
0
0
0
0
0
0
0
0
0
0
0
0
0
0
0
0
0
0
0
0
0
0
0
0
0
0
0
0
0
0
0
0
0
0
0
0
0
0
0
0
0
0
0
0
0
0
0
0
0
0
0
0
0
0
0
0
0
0
0
0
0
0
0
0
0
0
0
0
0
0
0
0
0
0
0
0
0
0
0
0
0
0
0
0
0
0
0
0
0
0
0
0
0
0
0
0
0
0
0
0
0
0
0
0
0
0
0
0
0
0
0
0
0
0
0
0
0
0
0
0
0
0
0
0
0
0
0
0
0
0
0
0
0
0
0
0
0
0
0
0
0
0
0
0
0
0
0
0
0
0
0
0
0
0
0
0
0
0
0
0
0
0
0
0
0
0
0
0
0
0
0
0
0
0
0
0
0
0
0
0
0
0
0
0
0
0
0
0
0
0
0
0
0
0
0
0
0
0
0
0
0
0
0
0
0
0
0
0
0
0
0
0
0
0
0
0
0
0
0
0
0
0
0
0
0
0
0
0
0
0
0
0
0
0
0
0
0
0
0
0
0
0
0
0
0
0
0
0
0
0
0
0
0
0
0
0
0
0
0
0
0
0
0
0
0
0
0
0
0
0
0
0
0
0
0
0
0
0
0
0
0
0
0
0
0
0
0
0
0
0
0
0
0
0
0
0
0
0
0
0
0
0
0
0
0
0
0
0
0
0
0
0
0
0
0
0
0
0
0
0
0
0
0
0
0
0
0
0
0
0
0
0
0
0
0
0
0
0
0
0
0
0
0
0
0
0
0
0
0
0
0
0
0
0
0
0
0
0
0
0
0
0
0
0
0
0
0
0
0
0
0
0
0
0
0
0
0
0
0
0
0
0
0
0
0
0
0
0
0
0
0
0
0
0
0
0
0
0
0
0
0
0
0
0
0
0
0
0
0
0
0
0
0
0
0
0
0
0
0
0
0
0
0
0
0
0
0
0
0
0
0
0
0
0
0
0
0
0
0
0
0
0
0
0
0
0
0
0
0
0
0
0
0
0
0
0
0
0
0
0
0
0
0
0
0
0
0
0
0
0
0
0
0
0
0
0
0
0
0
0
0
0
0
0
0
0
0
0
0
0
0
0
0
0
0
0
0
0
0
0
0
0
0
0
0
0
0
0
0
0
0
0
0
0
0
0
0
0
0
0
0
0
0
0
0
0
0
0
0
0
0
0
0
0
0
0
0
0
0
0
0
0
0
0
0
0
0
0
0
0
0
0
0
0
0
0
0
0
0
0
0
0
0
0
0
0
0
0
0
0
0
0
0
0
0
0
0
0
0
0
0
0
0
0
0
0
0
0
0
0
0
0
0
0
0
0
0
0
0
0
0
0
0
0
0
0
0
0
0
0
0
0
0
0
0
0
0
0
0
0
0
0
0
0
0
0
0
0
0
0
0
0
0
0
0
0
0
0
0
0
0
0
0
0
0
0
0
0
0
0
0
0
0
0
0
0
0
0
0
0
0
0
0
0
0
0
0
0
0
0
0
0
0
0
0
0
0
0
0
0
0
0
0
0
0
0
0
0
0
0
0
0
0
0
0
0
0
0
0
0
0
0
0
0
0
0
0
0
0
0
0
0
0
0
0
0
0
0
0
0
0
0
0
0
0
0
0
0
0
0
0
0
0
0
0
0
0
0
0
0
0
0
0
0
0
0
0
0
0
0
0
0
0
0
0
0
0
0
0
0
0
0
0
0
0
0
0
0
0
0
0
0
0
0
0
0
0
0
0
0
0
0
0
0
0
0
0
0
0
0
0
0
0
0
0
0
0
0
0
0
0
0
0
0
0
0
0
0
0
0
0
0
0
0
0
0
0
0
0
0
0
0
0
0
0
0
0
0
0
0
0
0
0
0
0
0
0
0
0
0
0
0
0
0
0
0
0
0
0
0
0
0
0
0
0
0
0
0
0
0
0
0
0
0
0
0
0
0
0
0
0
0
0
0
0
0
0
0
0
0
0
0
0
0
0
0
0
0
0
0
0
0
0
0
0
0
0
0
0
0
0
0
0
0
0
0
0
0
0
0
0
0
0
0
0
0
0
0
0
0
0
0
0
0
0
0
0
0
0
0
0
0
0
0
0
0
0
0
0
0
0
0
0
0
0
0
0
0
0
0
0
0
0
0
0
0
0
0
0
0
0
0
0
0
0
0
0
0
0
0
0
0
0
0
0
0
0
0
0
0
0
0
0
0
0
0
0
0
0
0
0
0
0
0
0
0
0
0
0
0
0
0
0
0
0
0
0
0
0
0
0
0
0
0
0
0
0
0
0
0
0
0
0
0
0
0
0
0
0
0
0
0
0
0
0
0
0
0
0
0
0
0
0
0
0
0
0
0
0
0
0
0
0
0
0
0
0
0
0
0
0
0
0
0
0
0
0
0
0
0
0
0
0
0
0
0
0
0
0
0
0
0
0
0
0
0
0
0
0
0
0
0
0
0
0
0
0
0
0
0
0
0
0
0
0
0
0
0
0
0
0
0
0
0
0
0
0
0
0
0
0
0
0
0
0
0
0
0
0
0
0
0
0
0
0
0
0
0
0
0
0
0
0
0
0
0
0
0
0
0
0
0
0
0
0
0
0
0
0
0
0
0
0
0
0
0
0
0
0
0
0
0
0
0
0
0
0
0
0
0
0
0
0
0
0
0
0
0
0
0
0
0
0
0
0
0
0
0
0
0
0
0
0
0
0
0
0
0
0
0
0
0
0
0
0
0
0
0
0
0
0
0
0
0
0
0
0
0
0
0
0
0
0
0
0
0
0
0
0
0
0
0
0
0
0
0
0
0
0
0
0
0
0
0
0
0
0
0
0
0
0
0
0
0
0
0
0
0
0
0
0
0
0
0
0
0
0
0
0
0
0
0
0
0
0
0
0
0
0
0
0
0
0
0
0
0
0
0
0
0
0
0
0
0
0
0
0
0
0
0
0
0
0
0
0
0
0
0
0
0
0
0
0
0
0
0
0
0
0
0
0
0
0
0
0
0
0
0
0
0
0
0
0
0
0
0
0
0
0
0
0
0
0
0
0
0
0
0
0
0
0
0
0
0
0
0
0
0
0
0
0
0
0
0
0
0
0
0
0
0
0
0
0
0
0
0
0
0
0
0
0
0
0
0
0
0
0
0
0
0
0
0
0
0
0
0
0
0
0
0
0
0
0
0
0
0
0
0
0
0
0
0
0
0
0
0
0
0
0
0
0
0
0
0
0
0
0
0
0
0
0
0
0
0
0
0
0
0
0
0
0
0
0
0
0
0
0
0
0
0
0
0
0
0
0
0
0
0
0
0
0
0
0
0
0
0
0
0
0
0
0
0
0
0
0
0
0
0
0
0
0
0
0
0
0
0
0
0
0
0
0
0
0
0
0
0
0
0
0
0
0
0
0
0
0
0
0
0
0
0
0
0
0
0
0
0
0
0
0
0
0
0
0
0
0
0
0
0
0
0
0
0
0
0
0
0
0
0
0
0
0
0
0
0
0
0
0
0
0
0
0
0
0
0
0
0
0
0
0
0
0
0
0
0
0
0
0
0
0
0
0
0
0
0
0
0
0
0
0
0
0
0
0
0
0
0
0
0
0
0
0
0
0
0
0
0
0
0
0
0
0
0
0
0
0
0
0
0
0
0
0
0
0
0
0
0
0
0
0
0
0
0
0
0
0
0
0
0
0
0
0
0
0
0
0
0
0
0
0
0
0
0
0
0
0
0
0
0
0
0
0
0
0
0
0
0
0
0
0
0
0
0
0
0
0
0
0
0
0
0
0
0
0
0
0
0
0
0
0
0
0
0
0
0
0
0
0
0
0
0
0
0
0
0
0
0
0
0
0
0
0
0
0
0
0
0
0
0
0
0
0
0
0
0
0
0
0
0
0
0
0
0
0
0
0
0
0
0
0
0
0
0
0
0
0
0
0
0
0
0
0
0
0
0
0
0
0
0
0
0
0
0
0
0
0
0
0
0
0
0
0
0
0
0
0
0
0
0
0
0
0
0
0
0
0
0
0
0
0
0
0
0
0
0
0
0
0
0
0
0
0
0
0
0
0
0
0
0
0
0
0
0
0
0
0
0
0
0
0
0
0
0
0
0
0
0
0
0
0
0
0
0
0
0
0
0
0
0
0
0
0
0
0
0
0
0
0
0
0
0
0
0
0
0
0
0
0
0
0
0
0
0
0
0
0
0
0
0
0
0
0
0
0
0
0
0
0
0
0
0
0
0
0
0
0
0
0
0
0
0
0
0
0
0
0
0
0
0
0
0
0
0
0
0
0
0
0
0
0
0
0
0
0
0
0
0
0
0
0
0
0
0
0
0
0
0
0
0
0
0
0
0
0
0
0
0
0
0
0
0
0
0
0
0
0
0
0
0
0
0
0
0
0
0
0
0
0
0
0
0
0
0
0
0
0
0
0
0
0
0
0
0
0
0
0
0
0
0
0
0
0
0
0
0
0
0
0
0
0
0
0
0
0
0
0
0
0
0
0
0
0
0
0
0
0
0
0
0
0
0
0
0
0
0
0
0
0
0
0
0
0
0
0
0
0
0
0
0
0
0
0
0
0
0
0
0
0
0
0
0
0
0
0
0
0
0
0
0
0
0
0
0
0
0
0
0
0
0
0
0
0
0
0
0
0
0
0
0
0
0
0
0
0
0
0
0
0
0
0
0
0
0
0
0
0
0
0
0
0
0
0
0
0
0
0
0
0
0
0
0
0
0
0
0
0
0
0
0
0
0
0
0
0
0
0
0
0
0
0
0
0
0
0
0
0
0
0
0
0
0
0
0
0
0
0
0
0
0
0
0
0
0
0
0
0
0
0
0
0
0
0
0
0
0
0
0
0
0
0
0
0
0
0
0
0
0
0
0
0
0
0
0
0
0
0
0
0
0
0
0
0
0
0
0
0
0
0
0
0
0
0
0
0
0
0
0
0
0
0
0
0
0
0
0
0
0
0
0
0
0
0
0
0
0
0
0
0
0
0
0
0
0
0
0
0
0
0
0
0
0
0
0
0
0
0
0
0
0
0
0
0
0
0
0
0
0
0
0
0
0
0
0
0
0
0
0
0
0
0
0
0
0
0
0
0
0
0
0
0
0
0
0
0
0
0
0
0
0
0
0
0
0
0
0
0
0
0
0
0
0
0
0
0
0
0
0
0
0
0
0
0
0
0
0
0
0
0
0
0
0
0
0
0
0
0
0
0
0
0
0
0
0
0
0
0
0
0
0
0
0
0
0
0
0
0
0
0
0
0
0
0
0
0
0
0
0
0
0
0
0
0
0
0
0
0
0
0
0
0
0
0
0
0
0
0
0
0
0
0
0
0
0
0
0
0
0
0
0
0
0
0
0
0
0
0
0
0
0
0
0
0
0
0
0
0
0
0
0
0
0
0
0
0
0
0
0
0
0
0
0
0
0
0
0
0
0
0
0
0
0
0
0
0
0
0
0
0
0
0
0
0
0
0
0
0
0
0
0
0
0
0
0
0
0
0
0
0
0
0
0
0
0
0
0
0
0
0
0
0
0
0
0
0
0
0
0
0
0
0
0
0
0
0
0
0
0
0
0
0
0
0
0
0
0
0
0
0
0
0
0
0
0
0
0
0
0
0
0
0
0
0
0
0
0
0
0
0
0
0
0
0
0
0
0
0
0
0
0
0
0
0
0
0
0
0
0
0
0
0
0
0
0
0
0
0
0
0
0
0
0
0
0
0
0
0
0
0
0
0
0
0
0
0
0
0
0
0
0
0
0
0
0
0
0
0
0
0
0
0
0
0
0
0
0
0
0
0
0
0
0
0
0
0
0
0
0
0
0
0
0
0
0
0
0
0
0
0
0
0
0
0
0
0
0
0
0
0
0
0
0
0
0
0
0
0
0
0
0
0
0
0
0
0
0
0
0
0
0
0
0
0
0
0
0
0
0
0
0
0
0
0
0
0
0
0
0
0
0
0
0
0
0
0
0
0
0
0
0
0
0
0
0
0
0
0
0
0
0
0
0
0
0
0
0
0
0
0
0
0
0
0
0
0
0
0
0
0
0
0
0
0
0
0
0
0
0
0
0
0
0
0
0
0
0
0
0
0
0
0
0
0
0
0
0
0
0
0
0
0
0
0
0
0
0
0
0
0
0
0
0
0
0
0
0
0
0
0
0
0
0
0
0
0
0
0
0
0
0
0
0
0
0
0
0
0
0
0
0
0
0
0
0
0
0
0
0
0
0
0
0
0
0
0
0
0
0
0
0
0
0
0
0
0
0
0
0
0
0
0
0
0
0
0
0
0
0
0
0
0
0
0
0
0
0
0
0
0
0
0
0
0
0
0
0
0
0
0
0
0
0
0
0
0
0
0
0
0
0
0
0
0
0
0
0
0
0
0
0
0
0
0
0
0
0
0
0
0
0
0
0
0
0
0
0
0
0
0
0
0
0
0
0
0
0
0
0
0
0
0
0
0
0
0
0
0
0
0
0
0
0
0
0
0
0
0
0
0
0
0
0
0
0
0
0
0
0
0
0
0
0
0
0
0
0
0
0
0
0
0
0
0
0
0
0
0
0
0
0
0
0
0
0
0
0
0
0
0
0
0
0
0
0
0
0
0
0
0
0
0
0
0
0
0
0
0
0
0
0
0
0
0
0
0
0
0
0
0
0
0
0
0
0
0
0
0
0
0
0
0
0
0
0
0
0
0
0
0
0
0
0
0
0
0
0
0
0
0
0
0
0
0
0
0
0
0
0
0
0
0
0
0
0
0
0
0
0
0
0
0
0
0
0
0
0
0
0
0
0
0
0
0
0
0
0
0
0
0
0
0
0
0
0
0
0
0
0
0
0
0
0
0
0
0
0
0
0
0
0
0
0
0
0
0
0
0
0
0
0
0
0
0
0
0
0
0
0
0
0
0
0
0
0
0
0
0
0
0
0
0
0
0
0
0
0
0
0
0
0
0
0
0
0
0
0
0
0
0
0
0
0
0
0
0
0
0
0
0
0
0
0
0
0
0
0
0
0
0
0
0
0
0
0
0
0
0
0
0
0
0
0
0
0
0
0
0
0
0
0
0
0
0
0
0
0
0
0
0
0
0
0
0
0
0
0
0
0
0
0
0
0
0
0
0
0
0
0
0
0
0
0
0
0
0
0
0
0
0
0
0
0
0
0
0
0
0
0
0
0
0
0
0
0
0
0
0
0
0
0
0
0
0
0
0
0
0
0
0
0
0
0
0
0
0
0
0
0
0
0
0
0
0
0
0
0
0
0
0
0
0
0
0
0
0
0
0
0
0
0
0
0
0
0
0
0
0
0
0
0
0
0
0
0
0
0
0
0
0
0
0
0
0
0
0
0
0
0
0
0
0
0
0
0
0
0
0
0
0
0
0
0
0
0
0
0
0
0
0
0
0
0
0
0
0
0
0
0
0
0
0
0
0
0
0
0
0
0
0
0
0
0
0
0
0
0
0
0
0
0
0
0
0
0
0
0
0
0
0
0
0
0
0
0
0
0
0
0
0
0
0
0
0
0
0
0
0
0
0
0
0
0
0
0
0
0
0
0
0
0
0
0
0
0
0
0
0
0
0
0
0
0
0
0
0
0
0
0
0
0
0
0
0
0
0
0
0
0
0
0
0
0
0
0
0
0
0
0
0
0
0
0
0
0
0
0
0
0
0
0
0
0
0
0
0
0
0
0
0
0
0
0
0
0
0
0
0
0
0
0
0
0
0
0
0
0
0
0
0
0
0
0
0
0
0
0
0
0
0
0
0
0
0
0
0
0
0
0
0
0
0
0
0
0
0
0
0
0
0
0
0
0
0
0
0
0
0
0
0
0
0
0
0
0
0
0
0
0
0
0
0
0
0
0
0
0
0
0
0
0
0
0
0
0
0
0
0
0
0
0
0
0
0
0
0
0
0
0
0
0
0
0
0
0
0
0
0
0
0
0
0
0
0
0
0
0
0
0
0
0
0
0
0
0
0
0
0
0
0
0
0
0
0
0
0
0
0
0
0
0
0
0
0
0
0
0
0
0
0
0
0
0
0
0
0
0
0
0
0
0
0
0
0
0
0
0
0
0
0
0
0
0
0
0
0
0
0
0
0
0
0
0
0
0
0
0
0
0
0
0
0
0
0
0
0
0
0
0
0
0
0
0
0
0
0
0
0
0
0
0
0
0
0
0
0
0
0
0
0
0
0
0
0
0
0
0
0
0
0
0
0
0
0
0
0
0
0
0
0
0
0
0
0
0
0
0
0
0
0
0
0
0
0
0
0
0
0
0
0
0
0
0
0
0
0
0
0
0
0
0
0
0
0
0
0
0
0
0
0
0
0
0
0
0
0
0
0
0
0
0
0
0
0
0
0
0
0
0
0
0
0
0
0
0
0
0
0
0
0
0
0
0
0
0
0
0
0
0
0
0
0
0
0
0
0
0
0
0
0
0
0
0
0
0
0
0
0
0
0
0
0
0
0
0
0
0
0
0
0
0
0
0
0
0
0
0
0
0
0
0
0
0
0
0
0
0
0
0
0
0
0
0
0
0
0
0
0
0
0
0
0
0
0
0
0
0
0
0
0
0
0
0
0
0
0
0
0
0
0
0
0
0
0
0
0
0
0
0
0
0
0
0
0
0
0
0
0
0
0
0
0
0
0
0
0
0
0
0
0
0
0
0
0
0
0
0
0
0
0
0
0
0
0
0
0
0
0
0
0
0
0
0
0
0
0
0
0
0
0
0
0
0
0
0
0
0
0
0
0
0
0
0
0
0
0
0
0
0
0
0
0
0
0
0
0
0
0
0
0
0
0
0
0
0
0
0
0
0
0
0
0
0
0
0
0
0
0
0
0
0
0
0
0
0
0
0
0
0
0
0
0
0
0
0
0
0
0
0
0
0
0
0
0
0
0
0
0
0
0
0
0
0
0
0
0
0
0
0
0
0
0
0
0
0
0
0
0
0
0
0
0
0
0
0
0
0
0
0
0
0
0
0
0
0
0
0
0
0
0
0
0
0
0
0
0
0
0
0
0
0
0
0
0
0
0
0
0
0
0
0
0
0
0
0
0
0
0
0
0
0
0
0
0
0
0
0
0
0
0
0
0
0
0
0
0
0
0
0
0
0
0
0
0
0
0
0
0
0
0
0
0
0
0
0
0
0
0
0
0
0
0
0
0
0
0
0
0
0
0
0
0
0
0
0
0
0
0
0
0
0
0
0
0
0
0
0
0
0
0
0
0
0
0
0
0
0
0
0
0
0
0
0
0
0
0
0
0
0
0
0
0
0
0
0
0
0
0
0
0
0
0
0
0
0
0
0
0
0
0
0
0
0
0
0
0
0
0
0
0
0
0
0
0
0
0
0
0
0
0
0
0
0
0
0
0
0
0
0
0
0
0
0
0
0
0
0
0
0
0
0
0
0
0
0
0
0
0
0
0
0
0
0
0
0
0
0
0
0
0
0
0
0
0
0
0
0
0
0
0
0
0
0
0
0
0
0
0
0
0
0
0
0
0
0
0
0
0
0
0
0
0
0
0
0
0
0
0
0
0
0
0
0
0
0
0
0
0
0
0
0
0
0
0
0
0
0
0
0
0
0
0
0
0
0
0
0
0
0
0
0
0
0
0
0
0
0
0
0
0
0
0
0
0
0
0
0
0
0
0
0
0
0
0
0
0
0
0
0
0
0
0
0
0
0
0
0
0
0
0
0
0
0
0
0
0
0
0
0
0
0
0
0
0
0
0
0
0
0
0
0
0
0
0
0
0
0
0
0
0
0
0
0
0
0
0
0
0
0
0
0
0
0
0
0
0
0
0
0
0
0
0
0
0
0
0
0
0
0
0
0
0
0
0
0
0
0
0
0
0
0
0
0
0
0
0
0
0
0
0
0
0
0
0
0
0
0
0
0
0
0
0
0
0
0
0
0
0
0
0
0
0
0
0
0
0
0
0
0
0
0
0
0
0
0
0
0
0
0
0
0
0
0
0
0
0
0
0
0
0
0
0
0
0
0
0
0
0
0
0
0
0
0
0
0
0
0
0
0
0
0
0
0
0
0
0
0
0
0
0
0
0
0
0
0
0
0
0
0
0
0
0
0
0
0
0
0
0
0
0
0
0
0
0
0
0
0
0
0
0
0
0
0
0
0
0
0
0
0
0
0
0
0
0
0
0
0
0
0
0
0
0
0
0
0
0
0
0
0
0
0
0
0
0
0
0
0
0
0
0
0
0
0
0
0
0
0
0
0
0
0
0
0
0
0
0
0
0
0
0
0
0
0
0
0
0
0
0
0
0
0
0
0
0
0
0
0
0
0
0
0
0
0
0
0
0
0
0
0
0
0
0
0
0
0
0
0
0
0
0
0
0
0
0
0
0
0
0
0
0
0
0
0
0
0
0
0
0
0
0
0
0
0
0
0
0
0
0
0
0
0
0
0
0
0
0
0
0
0
0
0
0
0
0
0
0
0
0
0
0
0
0
0
0
0
0
0
0
0
0
0
0
0
0
0
0
0
0
0
0
0
0
0
0
0
0
0
0
0
0
0
0
0
0
0
0
0
0
0
0
0
0
0
0
0
0
0
0
0
0
0
0
0
0
0
0
0
0
0
0
0
0
0
0
0
0
0
0
0
0
0
0
0
0
0
0
0
0
0
0
0
0
0
0
0
0
0
0
0
0
0
0
0
0
0
0
0
0
0
0
0
0
0
0
0
0
0
0
0
0
0
0
0
0
0
0
0
0
0
0
0
0
0
0
0
0
0
0
0
0
0
0
0
0
0
0
0
0
0
0
0
0
0
0
0
0
0
0
0
0
0
0
0
0
0
0
0
0
0
0
0
0
0
0
0
0
0
0
0
0
0
0
0
0
0
0
0
0
0
0
0
0
0
0
0
0
0
0
0
0
0
0
0
0
0
0
0
0
0
0
0
0
0
0
0
0
0
0
0
0
0
0
0
0
0
0
0
0
0
0
0
0
0
0
0
0
0
0
0
0
0
0
0
0
0
0
0
0
0
0
0
0
0
0
0
0
0
0
0
0
0
0
0
0
0
0
0
0
0
0
0
0
0
0
0
0
0
0
0
0
0
0
0
0
0
0
0
0
0
0
0
0
0
0
0
0
0
0
0
0
0
0
0
0
0
0
0
0
0
0
0
0
0
0
0
0
0
0
0
0
0
0
0
0
0
0
0
0
0
0
0
0
0
0
0
0
0
0
0
0
0
0
0
0
0
0
0
0
0
0
0
0
0
0
0
0
0
0
0
0
0
0
0
0
0
0
0
0
0
0
0
0
0
0
0
0
0
0
0
0
0
0
0
0
0
0
0
0
0
0
0
0
0
0
0
0
0
0
0
0
0
0
0
0
0
0
0
0
0
0
0
0
0
0
0
0
0
0
0
0
0
0
0
0
0
0
0
0
0
0
0
0
0
0
0
0
0
0
0
0
0
0
0
0
0
0
0
0
0
0
0
0
0
0
0
0
0
0
0
0
0
0
0
0
0
0
0
0
0
0
0
0
0
0
0
0
0
0
0
0
0
0
0
0
0
0
0
0
0
0
0
0
0
0
0
0
0
0
0
0
0
0
0
0
0
0
0
0
0
0
0
0
0
0
0
0
0
0
0
0
0
0
0
0
0
0
0
0
0
0
0
0
0
0
0
0
0
0
0
0
0
0
0
0
0
0
0
0
0
0
0
0
0
0
0
0
0
0
0
0
0
0
0
0
0
0
0
0
0
0
0
0
0
0
0
0
0
0
0
0
0
0
0
0
0
0
0
0
0
0
0
0
0
0
0
0
0
0
0
0
0
0
0
0
0
0
0
0
0
0
0
0
0
0
0
0
0
0
0
0
0
0
0
0
0
0
0
0
0
0
0
0
0
0
0
0
0
0
0
0
0
0
0
0
0
0
0
0
0
0
0
0
0
0
0
0
0
0
0
0
0
0
0
0
0
0
0
0
0
0
0
0
0
0
0
0
0
0
0
0
0
0
0
0
0
0
0
0
0
0
0
0
0
0
0
0
0
0
0
0
0
0
0
0
0
0
0
0
0
0
0
0
0
0
0
0
0
0
0
0
0
0
0
0
0
0
0
0
0
0
0
0
0
0
0
0
0
0
0
0
0
0
0
0
0
0
0
0
0
0
0
0
0
0
0
0
0
0
0
0
0
0
0
0
0
0
0
0
0
0
0
0
0
0
0
0
0
0
0
0
0
0
0
0
0
0
0
0
0
0
0
0
0
0
0
0
0
0
0
0
0
0
0
0
0
0
0
0
0
0
0
0
0
0
0
0
0
0
0
0
0
0
0
0
0
0
0
0
0
0
0
0
0
0
0
0
0
0
0
0
0
0
0
0
0
0
0
0
0
0
0
0
0
0
0
0
0
0
0
0
0
0
0
0
0
0
0
0
0
0
0
0
0
0
0
0
0
0
0
0
0
0
0
0
0
0
0
0
0
0
0
0
0
0
0
0
0
0
0
0
0
0
0
0
0
0
0
0
0
0
0
0
0
0
0
0
0
0
0
0
0
0
0
0
0
0
0
0
0
0
0
0
0
0
0
0
0
0
0
0
0
0
0
0
0
0
0
0
0
0
0
0
0
0
0
0
0
0
0
0
0
0
0
0
0
0
0
0
0
0
0
0
0
0
0
0
0
0
0
0
0
0
0
0
0
0
0
0
0
0
0
0
0
0
0
0
0
0
0
0
0
0
0
0
0
0
0
0
0
0
0
0
0
0
0
0
0
0
0
0
0
0
0
0
0
0
0
0
0
0
0
0
0
0
0
0
0
0
0
0
0
0
0
0
0
0
0
0
0
0
0
0
0
0
0
0
0
0
0
0
0
0
0
0
0
0
0
0
0
0
0
0
0
0
0
0
0
0
0
0
0
0
0
0
0
0
0
0
0
0
0
0
0
0
0
0
0
0
0
0
0
0
0
0
0
0
0
0
0
0
0
0
0
0
0
0
0
0
0
0
0
0
0
0
0
0
0
0
0
0
0
0
0
0
0
0
0
0
0
0
0
0
0
0
0
0
0
0
0
0
0
0
0
0
0
0
0
0
0
0
0
0
0
0
0
0
0
0
0
0
0
0
0
0
0
0
0
0
0
0
0
0
0
0
0
0
0
0
0
0
0
0
0
0
0
0
0
0
0
0
0
0
0
0
0
0
0
0
0
0
0
0
0
0
0
0
0
0
0
0
0
0
0
0
0
0
0
0
0
0
0
0
0
0
0
0
0
0
0
0
0
0
0
0
0
0
0
0
0
0
0
0
0
0
0
0
0
0
0
0
0
0
0
0
0
0
0
0
0
0
0
0
0
0
0
0
0
0
0
0
0
0
0
0
0
0
0
0
0
0
0
0
0
0
0
0
0
0
0
0
0
0
0
0
0
0
0
0
0
0
0
0
0
0
0
0
0
0
0
0
0
0
0
0
0
0
0
0
0
0
0
0
0
0
0
0
0
0
0
0
0
0
0
0
0
0
0
0
0
0
0
0
0
0
0
0
0
0
0
0
0
0
0
0
0
0
0
0
0
0
0
0
0
0
0
0
0
0
0
0
0
0
0
0
0
0
0
0
0
0
0
0
0
0
0
0
0
0
0
0
0
0
0
0
0
0
0
0
0
0
0
0
0
0
0
0
0
0
0
0
0
0
0
0
0
0
0
0
0
0
0
0
0
0
0
0
0
0
0
0
0
0
0
0
0
0
0
0
0
0
0
0
0
0
0
0
0
0
0
0
0
0
0
0
0
0
0
0
0
0
0
0
0
0
0
0
0
0
0
0
0
0
0
0
0
0
0
0
0
0
0
0
0
0
0
0
0
0
0
0
0
0
0
0
0
0
0
0
0
0
0
0
0
0
0
0
0
0
0
0
0
0
0
0
0
0
0
0
0
0
0
0
0
0
0
0
0
0
0
0
0
0
0
0
0
0
0
0
0
0
0
0
0
0
0
0
0
0
0
0
0
0
0
0
0
0
0
0
0
0
0
0
0
0
0
0
0
0
0
0
0
0
0
0
0
0
0
0
0
0
0
0
0
0
0
0
0
0
0
0
0
0
0
0
0
0
0
0
0
0
0
0
0
0
0
0
0
0
0
0
0
0
0
0
0
0
0
0
0
0
0
0
0
0
0
0
0
0
0
0
0
0
0
0
0
0
0
0
0
0
0
0
0
0
0
0
0
0
0
0
0
0
0
0
0
0
0
0
0
0
0
0
0
0
0
0
0
0
0
0
0
0
0
0
0
0
0
0
0
0
0
0
0
0
0
0
0
0
0
0
0
0
0
0
0
0
0
0
0
0
0
0
0
0
0
0
0
0
0
0
0
0
0
0
0
0
0
0
0
0
0
0
0
0
0
0
0
0
0
0
0
0
0
0
0
0
0
0
0
0
0
0
0
0
0
0
0
0
0
0
0
0
0
0
0
0
0
0
0
0
0
0
0
0
0
0
0
0
0
0
0
0
0
0
0
0
0
0
0
0
0
0
0
0
0
0
0
0
0
0
0
0
0
0
0
0
0
0
0
0
0
0
0
0
0
0
0
0
0
0
0
0
0
0
0
0
0
0
0
0
0
0
0
0
0
0
0
0
0
0
0
0
0
0
0
0
0
0
0
0
0
0
0
0
0
0
0
0
0
0
0
0
0
0
0
0
0
0
0
0
0
0
0
0
0
0
0
0
0
0
0
0
0
0
0
0
0
0
0
0
0
0
0
0
0
0
0
0
0
0
0
0
0
0
0
0
0
0
0
0
0
0
0
0
0
0
0
0
0
0
0
0
0
0
0
0
0
0
0
0
0
0
0
0
0
0
0
0
0
0
0
0
0
0
0
0
0
0
0
0
0
0
0
0
0
0
0
0
0
0
0
0
0
0
0
0
0
0
0
0
0
0
0
0
0
0
0
0
0
0
0
0
0
0
0
0
0
0
0
0
0
0
0
0
0
0
0
0
0
0
0
0
0
0
0
0
0
0
0
0
0
0
0
0
0
0
0
0
0
0
0
0
0
0
0
0
0
0
0
0
0
0
0
0
0
0
0
0
0
0
0
0
0
0
0
0
0
0
0
0
0
0
0
0
0
0
0
0
0
0
0
0
0
0
0
0
0
0
0
0
0
0
0
0
0
0
0
0
0
0
0
0
0
0
0
0
0
0
0
0
0
0
0
0
0
0
0
0
0
0
0
0
0
0
0
0
0
0
0
0
0
0
0
0
0
0
0
0
0
0
0
0
0
0
0
0
0
0
0
0
0
0
0
0
0
0
0
0
0
0
0
0
0
0
0
0
0
0
0
0
0
0
0
0
0
0
0
0
0
0
0
0
0
0
0
0
0
0
0
0
0
0
0
0
0
0
0
0
0
0
0
0
0
0
0
0
0
0
0
0
0
0
0
0
0
0
0
0
0
0
0
0
0
0
0
0
0
0
0
0
0
0
0
0
0
0
0
0
0
0
0
0
0
0
0
0
0
0
0
0
0
0
0
0
0
0
0
0
0
0
0
0
0
0
0
0
0
0
0
0
0
0
0
0
0
0
0
0
0
0
0
0
0
0
0
0
0
0
0
0
0
0
0
0
0
0
0
0
0
0
0
0
0
0
0
0
0
0
0
0
0
0
0
0
0
0
0
0
0
0
0
0
0
0
0
0
0
0
0
0
0
0
0
0
0
0
0
0
0
0
0
0
0
0
0
0
0
0
0
0
0
0
0
0
0
0
0
0
0
0
0
0
0
0
0
0
0
0
0
0
0
0
0
0
0
0
0
0
0
0
0
0
0
0
0
0
0
0
0
0
0
0
0
0
0
0
0
0
0
0
0
0
0
0
0
0
0
0
0
0
0
0
0
0
0
0
0
0
0
0
0
0
0
0
0
0
0
0
0
0
0
0
0
0
0
0
0
0
0
0
0
0
0
0
0
0
0
0
0
0
0
0
0
0
0
0
0
0
0
0
0
0
0
0
0
0
0
0
0
0
0
0
0
0
0
0
0
0
0
0
0
0
0
0
0
0
0
0
0
0
0
0
0
0
0
0
0
0
0
0
0
0
0
0
0
0
0
0
0
0
0
0
0
0
0
0
0
0
0
0
0
0
0
0
0
0
0
0
0
0
0
0
0
0
0
0
0
0
0
0
0
0
0
0
0
0
0
0
0
0
0
0
0
0
0
0
0
0
0
0
0
0
0
0
0
0
0
0
0
0
0
0
0
0
0
0
0
0
0
0
0
0
0
0
0
0
0
0
0
0
0
0
0
0
0
0
0
0
0
0
0
0
0
0
0
0
0
0
0
0
0
0
0
0
0
0
0
0
0
0
0
0
0
0
0
0
0
0
0
0
0
0
0
0
0
0
0
0
0
0
0
0
0
0
0
0
0
0
0
0
0
0
0
0
0
0
0
0
0
0
0
0
0
0
0
0
0
0
0
0
0
0
0
0
0
0
0
0
0
0
0
0
0
0
0
0
0
0
0
0
0
0
0
0
0
0
0
0
0
0
0
0
0
0
0
0
0
0
0
0
0
0
0
0
0
0
0
0
0
0
0
0
0
0
0
0
0
0
0
0
0
0
0
0
0
0
0
0
0
0
0
0
0
0
0
0
0
0
0
0
0
0
0
0
0
0
0
0
0
0
0
0
0
0
0
0
0
0
0
0
0
0
0
0
0
0
0
0
0
0
0
0
0
0
0
0
0
0
0
0
0
0
0
0
0
0
0
0
0
0
0
0
0
0
0
0
0
0
0
0
0
0
0
0
0
0
0
0
0
0
0
0
0
0
0
0
0
0
0
0
0
0
0
0
0
0
0
0
0
0
0
0
0
0
0
0
0
0
0
0
0
0
0
0
0
0
0
0
0
0
0
0
0
0
0
0
0
0
0
0
0
0
0
0
0
0
0
0
0
0
0
0
0
0
0
0
0
0
0
0
0
0
0
0
0
0
0
0
0
0
0
0
0
0
0
0
0
0
0
0
0
0
0
0
0
0
0
0
0
0
0
0
0
0
0
0
0
0
0
0
0
0
0
0
0
0
0
0
0
0
0
0
0
0
0
0
0
0
0
0
0
0
0
0
0
0
0
0
0
0
0
0
0
0
0
0
0
0
0
0
0
0
0
0
0
0
0
0
0
0
0
0
0
0
0
0
0
0
0
0
0
0
0
0
0
0
0
0
0
0
0
0
0
0
0
0
0
0
0
0
0
0
0
0
0
0
0
0
0
0
0
0
0
0
0
0
0
0
0
0
0
0
0
0
0
0
0
0
0
0
0
0
0
0
0
0
0
0
0
0
0
0
0
0
0
0
0
0
0
0
0
0
0
0
0
0
0
0
0
0
0
0
0
0
0
0
0
0
0
0
0
0
0
0
0
0
0
0
0
0
0
0
0
0
0
0
0
0
0
0
0
0
0
0
0
0
0
0
0
0
0
0
0
0
0
0
0
0
0
0
0
0
0
0
0
0
0
0
0
0
0
0
0
0
0
0
0
0
0
0
0
0
0
0
0
0
0
0
0
0
0
0
0
0
0
0
0
0
0
0
0
0
0
0
0
0
0
0
0
0
0
0
0
0
0
0
0
0
0
0
0
0
0
0
0
0
0
0
0
0
0
0
0
0
0
0
0
0
0
0
0
0
0
0
0
0
0
0
0
0
0
0
0
0
0
0
0
0
0
0
0
0
0
0
0
0
0
0
0
0
0
0
0
0
0
0
0
0
0
0
0
0
0
0
0
0
0
0
0
0
0
0
0
0
0
0
0
0
0
0
0
0
0
0
0
0
0
0
0
0
0
0
0
0
0
0
0
0
0
0
0
0
0
0
0
0
0
0
0
0
0
0
0
0
0
0
0
0
0
0
0
0
0
0
0
0
0
0
0
0
0
0
0
0
0
0
0
0
0
0
0
0
0
0
0
0
0
0
0
0
0
0
0
0
0
0
0
0
0
0
0
0
0
0
0
0
0
0
0
0
0
0
0
0
0
0
0
0
0
0
0
0
0
0
0
0
0
0
0
0
0
0
0
0
0
0
0
0
0
0
0
0
0
0
0
0
0
0
0
0
0
0
0
0
0
0
0
0
0
0
0
0
0
0
0
0
0
0
0
0
0
0
0
0
0
0
0
0
0
0
0
0
0
0
0
0
0
0
0
0
0
0
0
0
0
0
0
0
0
0
0
0
0
0
0
0
0
0
0
0
0
0
0
0
0
0
0
0
0
0
0
0
0
0
0
0
0
0
0
0
0
0
0
0
0
0
0
0
0
0
0
0
0
0
0
0
0
0
0
0
0
0
0
0
0
0
0
0
0
0
0
0
0
0
0
0
0
0
0
0
0
0
0
0
0
0
0
0
0
0
0
0
0
0
0
0
0
0
0
0
0
0
0
0
0
0
0
0
0
0
0
0
0
0
0
0
0
0
0
0
0
0
0
0
0
0
0
0
0
0
0
0
0
0
0
0
0
0
0
0
0
0
0
0
0
0
0
0
0
0
0
0
0
0
0
0
0
0
0
0
0
0
0
0
0
0
0
0
0
0
0
0
0
0
0
0
0
0
0
0
0
0
0
0
0
0
0
0
0
0
0
0
0
0
0
0
0
0
0
0
0
0
0
0
0
0
0
0
0
0
0
0
0
0
0
0
0
0
0
0
0
0
0
0
0
0
0
0
0
0
0
0
0
0
0
0
0
0
0
0
0
0
0
0
0
0
0
0
0
0
0
0
0
0
0
0
0
0
0
0
0
0
0
0
0
0
0
0
0
0
0
0
0
0
0
0
0
0
0
0
0
0
0
0
0
0
0
0
0
0
0
0
0
0
0
0
0
0
0
0
0
0
0
0
0
0
0
0
0
0
0
0
0
0
0
0
0
0
0
0
0
0
0
0
0
0
0
0
0
0
0
0
0
0
0
0
0
0
0
0
0
0
0
0
0
0
0
0
0
0
0
0
0
0
0
0
0
0
0
0
0
0
0
0
0
0
0
0
0
0
0
0
0
0
0
0
0
0
0
0
0
0
0
0
0
0
0
0
0
0
0
0
0
0
0
0
0
0
0
0
0
0
0
0
0
0
0
0
0
0
0
0
0
0
0
0
0
0
0
0
0
0
0
0
0
0
0
0
0
0
0
0
0
0
0
0
0
0
0
0
0
0
0
0
0
0
0
0
0
0
0
0
0
0
0
0
0
0
0
0
0
0
0
0
0
0
0
0
0
0
0
0
0
0
0
0
0
0
0
0
0
0
0
0
0
0
0
0
0
0
0
0
0
0
0
0
0
0
0
0
0
0
0
0
0
0
0
0
0
0
0
0
0
0
0
0
0
0
0
0
0
0
0
0
0
0
0
0
0
0
0
0
0
0
0
0
0
0
0
0
0
0
0
0
0
0
0
0
0
0
0
0
0
0
0
0
0
0
0
0
0
0
0
0
0
0
0
0
0
0
0
0
0
0
0
0
0
0
0
0
0
0
0
0
0
0
0
0
0
0
0
0
0
0
0
0
0
0
0
0
0
0
0
0
0
0
0
0
0
0
0
0
0
0
0
0
0
0
0
0
0
0
0
0
0
0
0
0
0
0
0
0
0
0
0
0
0
0
0
0
0
0
0
0
0
0
0
0
0
0
0
0
0
0
0
0
0
0
0
0
0
0
0
0
0
0
0
0
0
0
0
0
0
0
0
0
0
0
0
0
0
0
0
0
0
0
0
0
0
0
0
0
0
0
0
0
0
0
0
0
0
0
0
0
0
0
0
0
0
0
0
0
0
0
0
0
0
0
0
0
0
0
0
0
0
0
0
0
0
0
0
0
0
0
0
0
0
0
0
0
0
0
0
0
0
0
0
0
0
0
0
0
0
0
0
0
0
0
0
0
0
0
0
0
0
0
0
0
0
0
0
0
0
0
0
0
0
0
0
0
0
0
0
0
0
0
0
0
0
0
0
0
0
0
0
0
0
0
0
0
0
0
0
0
0
0
0
0
0
0
0
0
0
0
0
0
0
0
0
0
0
0
0
0
0
0
0
0
0
0
0
0
0
0
0
0
0
0
0
0
0
0
0
0
0
0
0
0
0
0
0
0
0
0
0
0
0
0
0
0
0
0
0
0
0
0
0
0
0
0
0
0
0
0
0
0
0
0
0
0
0
0
0
0
0
0
0
0
0
0
0
0
0
0
0
0
0
0
0
0
0
0
0
0
0
0
0
0
0
0
0
0
0
0
0
0
0
0
0
0
0
0
0
0
0
0
0
0
0
0
0
0
0
0
0
0
0
0
0
0
0
0
0
0
0
0
0
0
0
0
0
0
0
0
0
0
0
0
0
0
0
0
0
0
0
0
0
0
0
0
0
0
0
0
0
0
0
0
0
0
0
0
0
0
0
0
0
0
0
0
0
0
0
0
0
0
0
0
0
0
0
0
0
0
0
0
0
0
0
0
0
0
0
0
0
0
0
0
0
0
0
0
0
0
0
0
0
0
0
0
0
0
0
0
0
0
0
0
0
0
0
0
0
0
0
0
0
0
0
0
0
0
0
0
0
0
0
0
0
0
0
0
0
0
0
0
0
0
0
0
0
0
0
0
0
0
0
0
0
0
0
0
0
0
0
0
0
0
0
0
0
0
0
0
0
0
0
0
0
0
0
0
0
0
0
0
0
0
0
0
0
0
0
0
0
0
0
0
0
0
0
0
0
0
0
0
0
0
0
0
0
0
0
0
0
0
0
0
0
0
0
0
0
0
0
0
0
0
0
0
0
0
0
0
0
0
0
0
0
0
0
0
0
0
0
0
0
0
0
0
0
0
0
0
0
0
0
0
0
0
0
0
0
0
0
0
0
0
0
0
0
0
0
0
0
0
0
0
0
0
0
0
0
0
0
0
0
0
0
0
0
0
0
0
0
0
0
0
0
0
0
0
0
0
0
0
0
0
0
0
0
0
0
0
0
0
0
0
0
0
0
0
0
0
0
0
0
0
0
0
0
0
0
0
0
0
0
0
0
0
0
0
0
0
0
0
0
0
0
0
0
0
0
0
0
0
0
0
0
0
0
0
0
0
0
0
0
0
0
0
0
0
0
0
0
0
0
0
0
0
0
0
0
0
0
0
0
0
0
0
0
0
0
0
0
0
0
0
0
0
0
0
0
0
0
0
0
0
0
0
0
0
0
0
0
0
0
0
0
0
0
0
0
0
0
0
0
0
0
0
0
0
0
0
0
0
0
0
0
0
0
0
0
0
0
0
0
0
0
0
0
0
0
0
0
0
0
0
0
0
0
0
0
0
0
0
0
0
0
0
0
0
0
0
0
0
0
0
0
0
0
0
0
0
0
0
0
0
0
0
0
0
0
0
0
0
0
0
0
0
0
0
0
0
0
0
0
0
0
0
0
0
0
0
0
0
0
0
0
0
0
0
0
0
0
0
0
0
0
0
0
0
0
0
0
0
0
0
0
0
0
0
0
0
0
0
0
0
0
0
0
0
0
0
0
0
0
0
0
0
0
0
0
0
0
0
0
0
0
0
0
0
0
0
0
0
0
0
0
0
0
0
0
0
0
0
0
0
0
0
0
0
0
0
0
0
0
0
0
0
0
0
0
0
0
0
0
0
0
0
0
0
0
0
0
0
0
0
0
0
0
0
0
0
0
0
0
0
0
0
0
0
0
0
0
0
0
0
0
0
0
0
0
0
0
0
0
0
0
0
0
0
0
0
0
0
0
0
0
0
0
0
0
0
0
0
0
0
0
0
0
0
0
0
0
0
0
0
0
0
0
0
0
0
0
0
0
0
0
0
0
0
0
0
0
0
0
0
0
0
0
0
0
0
0
0
0
0
0
0
0
0
0
0
0
0
0
0
0
0
0
0
0
0
0
0
0
0
0
0
0
0
0
0
0
0
0
0
0
0
0
0
0
0
0
0
0
0
0
0
0
0
0
0
0
0
0
0
0
0
0
0
0
0
0
0
0
0
0
0
0
0
0
0
0
0
0
0
0
0
0
0
0
0
0
0
0
0
0
0
0
0
0
0
0
0
0
0
0
0
0
0
0
0
0
0
0
0
0
0
0
0
0
0
0
0
0
0
0
0
0
0
0
0
0
0
0
0
0
0
0
0
0
0
0
0
0
0
0
0
0
0
0
0
0
0
0
0
0
0
0
0
0
0
0
0
0
0
0
0
0
0
0
0
0
0
0
0
0
0
0
0
0
0
0
0
0
0
0
0
0
0
0
0
0
0
0
0
0
0
0
0
0
0
0
0
0
0
0
0
0
0
0
0
0
0
0
0
0
0
0
0
0
0
0
0
0
0
0
0
0
0
0
0
0
0
0
0
0
0
0
0
0
0
0
0
0
0
0
0
0
0
0
0
0
0
0
0
0
0
0
0
0
0
0
0
0
0
0
0
0
0
0
0
0
0
0
0
0
0
0
0
0
0
0
0
0
0
0
0
0
0
0
0
0
0
0
0
0
0
0
0
0
0
0
0
0
0
0
0
0
0
0
0
0
0
0
0
0
0
0
0
0
0
0
0
0
0
0
0
0
0
0
0
0
0
0
0
0
0
0
0
0
0
0
0
0
0
0
0
0
0
0
0
0
0
0
0
0
0
0
0
0
0
0
0
0
0
0
0
0
0
0
0
0
0
0
0
0
0
0
0
0
0
0
0
0
0
0
0
0
0
0
0
0
0
0
0
0
0
0
0
0
0
0
0
0
0
0
0
0
0
0
0
0
0
0
0
0
0
0
0
0
0
0
0
0
0
0
0
0
0
0
0
0
0
0
0
0
0
0
0
0
0
0
0
0
0
0
0
0
0
0
0
0
0
0
0
0
0
0
0
0
0
0
0
0
0
0
0
0
0
0
0
0
0
0
0
0
0
0
0
0
0
0
0
0
0
0
0
0
0
0
0
0
0
0
0
0
0
0
0
0
0
0
0
0
0
0
0
0
0
0
0
0
0
0
0
0
0
0
0
0
0
0
0
0
0
0
0
0
0
0
0
0
0
0
0
0
0
0
0
0
0
0
0
0
0
0
0
0
0
0
0
0
0
0
0
0
0
0
0
0
0
0
0
0
0
0
0
0
0
0
0
0
0
0
0
0
0
0
0
0
0
0
0
0
0
0
0
0
0
0
0
0
0
0
0
0
0
0
0
0
0
0
0
0
0
0
0
0
0
0
0
0
0
0
0
0
0
0
0
0
0
0
0
0
0
0
0
0
0
0
0
0
0
0
0
0
0
0
0
0
0
0
0
0
0
0
0
0
0
0
0
0
0
0
0
0
0
0
0
0
0
0
0
0
0
0
0
0
0
0
0
0
0
0
0
0
0
0
0
0
0
0
0
0
0
0
0
0
0
0
0
0
0
0
0
0
0
0
0
0
0
0
0
0
0
0
0
0
0
0
0
0
0
0
0
0
0
0
0
0
0
0
0
0
0
0
0
0
0
0
0
0
0
0
0
0
0
0
0
0
0
0
0
0
0
0
0
0
0
0
0
0
0
0
0
0
0
0
0
0
0
0
0
0
0
0
0
0
0
0
0
0
0
0
0
0
0
0
0
0
0
0
0
0
0
0
0
0
0
0
0
0
0
0
0
0
0
0
0
0
0
0
0
0
0
0
0
0
0
0
0
0
0
0
0
0
0
0
0
0
0
0
0
0
0
0
0
0
0
0
0
0
0
0
0
0
0
0
0
0
0
0
0
0
0
0
0
0
0
0
0
0
0
0
0
0
0
0
0
0
0
0
0
0
0
0
0
0
0
0
0
0
0
0
0
0
0
0
0
0
0
0
0
0
0
0
0
0
0
0
0
0
0
0
0
0
0
0
0
0
0
0
0
0
0
0
0
0
0
0
0
0
0
0
0
0
0
0
0
0
0
0
0
0
0
0
0
0
0
0
0
0
0
0
0
0
0
0
0
0
0
0
0
0
0
0
0
0
0
0
0
0
0
0
0
0
0
0
0
0
0
0
0
0
0
0
0
0
0
0
0
0
0
0
0
0
0
0
0
0
0
0
0
0
0
0
0
0
0
0
0
0
0
0
0
0
0
0
0
0
0
0
0
0
0
0
0
0
0
0
0
0
0
0
0
0
0
0
0
0
0
0
0
0
0
0
0
0
0
0
0
0
0
0
0
0
0
0
0
0
0
0
0
0
0
0
0
0
0
0
0
0
0
0
0
0
0
0
0
0
0
0
0
0
0
0
0
0
0
0
0
0
0
0
0
0
0
0
0
0
0
0
0
0
0
0
0
0
0
0
0
0
0
0
0
0
0
0
0
0
0
0
0
0
0
0
0
0
0
0
0
0
0
0
0
0
0
0
0
0
0
0
0
0
0
0
0
0
0
0
0
0
0
0
0
0
0
0
0
0
0
0
0
0
0
0
0
0
0
0
0
0
0
0
0
0
0
0
0
0
0
0
0
0
0
0
0
0
0
0
0
0
0
0
0
0
0
0
0
0
0
0
0
0
0
0
0
0
0
0
0
0
0
0
0
0
0
0
0
0
0
0
0
0
0
0
0
0
0
0
0
0
0
0
0
0
0
0
0
0
0
0
0
0
0
0
0
0
0
0
0
0
0
0
0
0
0
0
0
0
0
0
0
0
0
0
0
0
0
0
0
0
0
0
0
0
0
0
0
0
0
0
0
0
0
0
0
0
0
0
0
0
0
0
0
0
0
0
0
0
0
0
0
0
0
0
0
0
0
0
0
0
0
0
0
0
0
0
0
0
0
0
0
0
0
0
0
0
0
0
0
0
0
0
0
0
0
0
0
0
0
0
0
0
0
0
0
0
0
0
0
0
0
0
0
0
0
0
0
0
0
0
0
0
0
0
0
0
0
0
0
0
0
0
0
0
0
0
0
0
0
0
0
0
0
0
0
0
0
0
0
0
0
0
0
0
0
0
0
0
0
0
0
0
0
0
0
0
0
0
0
0
0
0
0
0
0
0
0
0
0
0
0
0
0
0
0
0
0
0
0
0
0
0
0
0
0
0
0
0
0
0
0
0
0
0
0
0
0
0
0
0
0
0
0
0
0
0
0
0
0
0
0
0
0
0
0
0
0
0
0
0
0
0
0
0
0
0
0
0
0
0
0
0
0
0
0
0
0
0
0
0
0
0
0
0
0
0
0
0
0
0
0
0
0
0
0
0
0
0
0
0
0
0
0
0
0
0
0
0
0
0
0
0
0
0
0
0
0
0
0
0
0
0
0
0
0
0
0
0
0
0
0
0
0
0
0
0
0
0
0
0
0
0
0
0
0
0
0
0
0
0
0
0
0
0
0
0
0
0
0
0
0
0
0
0
0
0
0
0
0
0
0
0
0
0
0
0
0
0
0
0
0
0
0
0
0
0
0
0
0
0
0
0
0
0
0
0
0
0
0
0
0
0
0
0
0
0
0
0
0
0
0
0
0
0
0
0
0
0
0
0
0
0
0
0
0
0
0
0
0
0
0
0
0
0
0
0
0
0
0
0
0
0
0
0
0
0
0
0
0
0
0
0
0
0
0
0
0
0
0
0
0
0
0
0
0
0
0
0
0
0
0
0
0
0
0
0
0
0
0
0
0
0
0
0
0
0
0
0
0
0
0
0
0
0
0
0
0
0
0
0
0
0
0
0
0
0
0
0
0
0
0
0
0
0
0
0
0
0
0
0
0
0
0
0
0
0
0
0
0
0
0
0
0
0
0
0
0
0
0
0
0
0
0
0
0
0
0
0
0
0
0
0
0
0
0
0
0
0
0
0
0
0
0
0
0
0
0
0
0
0
0
0
0
0
0
0
0
0
0
0
0
0
0
0
0
0
0
0
0
0
0
0
0
0
0
0
0
0
0
0
0
0
0
0
0
0
0
0
0
0
0
0
0
0
0
0
0
0
0
0
0
0
0
0
0
0
0
0
0
0
0
0
0
0
0
0
0
0
0
0
0
0
0
0
0
0
0
0
0
0
0
0
0
0
0
0
0
0
0
0
0
0
0
0
0
0
0
0
0
0
0
0
0
0
0
0
0
0
0
0
0
0
0
0
0
0
0
0
0
0
0
0
0
0
0
0
0
0
0
0
0
0
0
0
0
0
0
0
0
0
0
0
0
0
0
0
0
0
0
0
0
0
0
0
0
0
0
0
0
0
0
0
0
0
0
0
0
0
0
0
0
0
0
0
0
0
0
0
0
0
0
0
0
0
0
0
0
0
0
0
0
0
0
0
0
0
0
0
0
0
0
0
0
0
0
0
0
0
0
0
0
0
0
0
0
0
0
0
0
0
0
0
0
0
0
0
0
0
0
0
0
0
0
0
0
0
0
0
0
0
0
0
0
0
0
0
0
0
0
0
0
0
0
0
0
0
0
0
0
0
0
0
0
0
0
0
0
0
0
0
0
0
0
0
0
0
0
0
0
0
0
0
0
0
0
0
0
0
0
0
0
0
0
0
0
0
0
0
0
0
0
0
0
0
0
0
0
0
0
0
0
0
0
0
0
0
0
0
0
0
0
0
0
0
0
0
0
0
0
0
0
0
0
0
0
0
0
0
0
0
0
0
0
0
0
0
0
0
0
0
0
0
0
0
0
0
0
0
0
0
0
0
0
0
0
0
0
0
0
0
0
0
0
0
0
0
0
0
0
0
0
0
0
0
0
0
0
0
0
0
0
0
0
0
0
0
0
0
0
0
0
0
0
0
0
0
0
0
0
0
0
0
0
0
0
0
0
0
0
0
0
0
0
0
0
0
0
0
0
0
0
0
0
0
0
0
0
0
0
0
0
0
0
0
0
0
0
0
0
0
0
0
0
0
0
0
0
0
0
0
0
0
0
0
0
0
0
0
0
0
0
0
0
0
0
0
0
0
0
0
0
0
0
0
0
0
0
0
0
0
0
0
0
0
0
0
0
0
0
0
0
0
0
0
0
0
0
0
0
0
0
0
0
0
0
0
0
0
0
0
0
0
0
0
0
0
0
0
0
0
0
0
0
0
0
0
0
0
0
0
0
0
0
0
0
0
0
0
0
0
0
0
0
0
0
0
0
0
0
0
0
0
0
0
0
0
0
0
0
0
0
0
0
0
0
0
0
0
0
0
0
0
0
0
0
0
0
0
0
0
0
0
0
0
0
0
0
0
0
0
0
0
0
0
0
0
0
0
0
0
0
0
0
0
0
0
0
0
0
0
0
0
0
0
0
0
0
0
0
0
0
0
0
0
0
0
0
0
0
0
0
0
0
0
0
0
0
0
0
0
0
0
0
0
0
0
0
0
0
0
0
0
0
0
0
0
0
0
0
0
0
0
0
0
0
0
0
0
0
0
0
0
0
0
0
0
0
0
0
0
0
0
0
0
0
0
0
0
0
0
0
0
0
0
0
0
0
0
0
0
0
0
0
0
0
0
0
0
0
0
0
0
0
0
0
0
0
0
0
0
0
0
0
0
0
0
0
0
0
0
0
0
0
0
0
0
0
0
0
0
0
0
0
0
0
0
0
0
0
0
0
0
0
0
0
0
0
0
0
0
0
0
0
0
0
0
0
0
0
0
0
0
0
0
0
0
0
0
0
0
0
0
0
0
0
0
0
0
0
0
0
0
0
0
0
0
0
0
0
0
0
0
0
0
0
0
0
0
0
0
0
0
0
0
0
0
0
0
0
0
0
0
0
0
0
0
0
0
0
0
0
0
0
0
0
0
0
0
0
0
0
0
0
0
0
0
0
0
0
0
0
0
0
0
0
0
0
0
0
0
0
0
0
0
0
0
0
0
0
0
0
0
0
0
0
0
0
0
0
0
0
0
0
0
0
0
0
0
0
0
0
0
0
0
0
0
0
0
0
0
0
0
0
0
0
0
0
0
0
0
0
0
0
0
0
0
0
0
0
0
0
0
0
0
0
0
0
0
0
0
0
0
0
0
0
0
0
0
0
0
0
0
0
0
0
0
0
0
0
0
0
0
0
0
0
0
0
0
0
0
0
0
0
0
0
0
0
0
0
0
0
0
0
0
0
0
0
0
0
0
0
0
0
0
0
0
0
0
0
0
0
0
0
0
0
0
0
0
0
0
0
0
0
0
0
0
0
0
0
0
0
0
0
0
0
0
0
0
0
0
0
0
0
0
0
0
0
0
0
0
0
0
0
0
0
0
0
0
0
0
0
0
0
0
0
0
0
0
0
0
0
0
0
0
0
0
0
0
0
0
0
0
0
0
0
0
0
0
0
0
0
0
0
0
0
0
0
0
0
0
0
0
0
0
0
0
0
0
0
0
0
0
0
0
0
0
0
0
0
0
0
0
0
0
0
0
0
0
0
0
0
0
0
0
0
0
0
0
0
0
0
0
0
0
0
0
0
0
0
0
0
0
0
0
0
0
0
0
0
0
0
0
0
0
0
0
0
0
0
0
0
0
0
0
0
0
0
0
0
0
0
0
0
0
0
0
0
0
0
0
0
0
0
0
0
0
0
0
0
0
0
0
0
0
0
0
0
0
0
0
0
0
0
0
0
0
0
0
0
0
0
0
0
0
0
0
0
0
0
0
0
0
0
0
0
0
0
0
0
0
0
0
0
0
0
0
0
0
0
0
0
0
0
0
0
0
0
0
0
0
0
0
0
0
0
0
0
0
0
0
0
0
0
0
0
0
0
0
0
0
0
0
0
0
0
0
0
0
0
0
0
0
0
0
0
0
0
0
0
0
0
0
0
0
0
0
0
0
0
0
0
0
0
0
0
0
0
0
0
0
0
0
0
0
0
0
0
0
0
0
0
0
0
0
0
0
0
0
0
0
0
0
0
0
0
0
0
0
0
0
0
0
0
0
0
0
0
0
0
0
0
0
0
0
0
0
0
0
0
0
0
0
0
0
0
0
0
0
0
0
0
0
0
0
0
0
0
0
0
0
0
0
0
0
0
0
0
0
0
0
0
0
0
0
0
0
0
0
0
0
0
0
0
0
0
0
0
0
0
0
0
0
0
0
0
0
0
0
0
0
0
0
0
0
0
0
0
0
0
0
0
0
0
0
0
0
0
0
0
0
0
0
0
0
0
0
0
0
0
0
0
0
0
0
0
0
0
0
0
0
0
0
0
0
0
0
0
0
0
0
0
0
0
0
0
0
0
0
0
0
0
0
0
0
0
0
0
0
0
0
0
0
0
0
0
0
0
0
0
0
0
0
0
0
0
0
0
0
0
0
0
0
0
0
0
0
0
0
0
0
0
0
0
0
0
0
0
0
0
0
0
0
0
0
0
0
0
0
0
0
0
0
0
0
0
0
0
0
0
0
0
0
0
0
0
0
0
0
0
0
0
0
0
0
0
0
0
0
0
0
0
0
0
0
0
0
0
0
0
0
0
0
0
0
0
0
0
0
0
0
0
0
0
0
0
0
0
0
0
0
0
0
0
0
0
0
0
0
0
0
0
0
0
0
0
0
0
0
0
0
0
0
0
0
0
0
0
0
0
0
0
0
0
0
0
0
0
0
0
0
0
0
0
0
0
0
0
0
0
0
0
0
0
0
0
0
0
0
0
0
0
0
0
0
0
0
0
0
0
0
0
0
0
0
0
0
0
0
0
0
0
0
0
0
0
0
0
0
0
0
0
0
0
0
0
0
0
0
0
0
0
0
0
0
0
0
0
0
0
0
0
0
0
0
0
0
0
0
0
0
0
0
0
0
0
0
0
0
0
0
0
0
0
0
0
0
0
0
0
0
0
0
0
0
0
0
0
0
0
0
0
0
0
0
0
0
0
0
0
0
0
0
0
0
0
0
0
0
0
0
0
0
0
0
0
0
0
0
0
0
0
0
0
0
0
0
0
0
0
0
0
0
0
0
0
0
0
0
0
0
0
0
0
0
0
0
0
0
0
0
0
0
0
0
0
0
0
0
0
0
0
0
0
0
0
0
0
0
0
0
0
0
0
0
0
0
0
0
0
0
0
0
0
0
0
0
0
0
0
0
0
0
0
0
0
0
0
0
0
0
0
0
0
0
0
0
0
0
0
0
0
0
0
0
0
0
0
0
0
0
0
0
0
0
0
0
0
0
0
0
0
0
0
0
0
0
0
0
0
0
0
0
0
0
0
0
0
0
0
0
0
0
0
0
0
0
0
0
0
0
0
0
0
0
0
0
0
0
0
0
0
0
0
0
0
0
0
0
0
0
0
0
0
0
0
0
0
0
0
0
0
0
0
0
0
0
0
0
0
0
0
0
0
0
0
0
0
0
0
0
0
0
0
0
0
0
0
0
0
0
0
0
0
0
0
0
0
0
0
0
0
0
0
0
0
0
0
0
0
0
0
0
0
0
0
0
0
0
0
0
0
0
0
0
0
0
0
0
0
0
0
0
0
0
0
0
0
0
0
0
0
0
0
0
0
0
0
0
0
0
0
0
0
0
0
0
0
0
0
0
0
0
0
0
0
0
0
0
0
0
0
0
0
0
0
0
0
0
0
0
0
0
0
0
0
0
0
0
0
0
0
0
0
0
0
0
0
0
0
0
0
0
0
0
0
0
0
0
0
0
0
0
0
0
0
0
0
0
0
0
0
0
0
0
0
0
0
0
0
0
0
0
0
0
0
0
0
0
0
0
0
0
0
0
0
0
0
0
0
0
0
0
0
0
0
0
0
0
0
0
0
0
0
0
0
0
0
0
0
0
0
0
0
0
0
0
0
0
0
0
0
0
0
0
0
0
0
0
0
0
0
0
0
0
0
0
0
0
0
0
0
0
0
0
0
0
0
0
0
0
0
0
0
0
0
0
0
0
0
0
0
0
0
0
0
0
0
0
0
0
0
0
0
0
0
0
0
0
0
0
0
0
0
0
0
0
0
0
0
0
0
0
0
0
0
0
0
0
0
0
0
0
0
0
0
0
0
0
0
0
0
0
0
0
0
0
0
0
0
0
0
0
0
0
0
0
0
0
0
0
0
0
0
0
0
0
0
0
0
0
0
0
0
0
0
0
0
0
0
0
0
0
0
0
0
0
0
0
0
0
0
0
0
0
0
0
0
0
0
0
0
0
0
0
0
0
0
0
0
0
0
0
0
0
0
0
0
0
0
0
0
0
0
0
0
0
0
0
0
0
0
0
0
0
0
0
0
0
0
0
0
0
0
0
0
0
0
0
0
0
0
0
0
0
0
0
0
0
0
0
0
0
0
0
0
0
0
0
0
0
0
0
0
0
0
0
0
0
0
0
0
0
0
0
0
0
0
0
0
0
0
0
0
0
0
0
0
0
0
0
0
0
0
0
0
0
0
0
0
0
0
0
0
0
0
0
0
0
0
0
0
0
0
0
0
0
0
0
0
0
0
0
0
0
0
0
0
0
0
0
0
0
0
0
0
0
0
0
0
0
0
0
0
0
0
0
0
0
0
0
0
0
0
0
0
0
0
0
0
0
0
0
0
0
0
0
0
0
0
0
0
0
0
0
0
0
0
0
0
0
0
0
0
0
0
0
0
0
0
0
0
0
0
0
0
0
0
0
0
0
0
0
0
0
0
0
0
0
0
0
0
0
0
0
0
0
0
0
0
0
0
0
0
0
0
0
0
0
0
0
0
0
0
0
0
0
0
0
0
0
0
0
0
0
0
0
0
0
0
0
0
0
0
0
0
0
0
0
0
0
0
0
0
0
0
0
0
0
0
0
0
0
0
0
0
0
0
0
0
0
0
0
0
0
0
0
0
0
0
0
0
0
0
0
0
0
0
0
0
0
0
0
0
0
0
0
0
0
0
0
0
0
0
0
0
0
0
0
0
0
0
0
0
0
0
0
0
0
0
0
0
0
0
0
0
0
0
0
0
0
0
0
0
0
0
0
0
0
0
0
0
0
0
0
0
0
0
0
0
0
0
0
0
0
0
0
0
0
0
0
0
0
0
0
0
0
0
0
0
0
0
0
0
0
0
0
0
0
0
0
0
0
0
0
0
0
0
0
0
0
0
0
0
0
0
0
0
0
0
0
0
0
0
0
0
0
0
0
0
0
0
0
0
0
0
0
0
0
0
0
0
0
0
0
0
0
0
0
0
0
0
0
0
0
0
0
0
0
0
0
0
0
0
0
0
0
0
0
0
0
0
0
0
0
0
0
0
0
0
0
0
0
0
0
0
0
0
0
0
0
0
0
0
0
0
0
0
0
0
0
0
0
0
0
0
0
0
0
0
0
0
0
0
0
0
0
0
0
0
0
0
0
0
0
0
0
0
0
0
0
0
0
0
0
0
0
0
0
0
0
0
0
0
0
0
0
0
0
0
0
0
0
0
0
0
0
0
0
0
0
0
0
0
0
0
0
0
0
0
0
0
0
0
0
0
0
0
0
0
0
0
0
0
0
0
0
0
0
0
0
0
0
0
0
0
0
0
0
0
0
0
0
0
0
0
0
0
0
0
0
0
0
0
0
0
0
0
0
0
0
0
0
0
0
0
0
0
0
0
0
0
0
0
0
0
0
0
0
0
0
0
0
0
0
0
0
0
0
0
0
0
0
0
0
0
0
0
0
0
0
0
0
0
0
0
0
0
0
0
0
0
0
0
0
0
0
0
0
0
0
0
0
0
0
0
0
0
0
0
0
0
0
0
0
0
0
0
0
0
0
0
0
0
0
0
0
0
0
0
0
0
0
0
0
0
0
0
0
0
0
0
0
0
0
0
0
0
0
0
0
0
0
0
0
0
0
0
0
0
0
0
0
0
0
0
0
0
0
0
0
0
0
0
0
0
0
0
0
0
0
0
0
0
0
0
0
0
0
0
0
0
0
0
0
0
0
0
0
0
0
0
0
0
0
0
0
0
0
0
0
0
0
0
0
0
0
0
0
0
0
0
0
0
0
0
0
0
0
0
0
0
0
0
0
0
0
0
0
0
0
0
0
0
0
0
0
0
0
0
0
0
0
0
0
0
0
0
0
0
0
0
0
0
0
0
0
0
0
0
0
0
0
0
0
0
0
0
0
0
0
0
0
0
0
0
0
0
0
0
0
0
0
0
0
0
0
0
0
0
0
0
0
0
0
0
0
0
0
0
0
0
0
0
0
0
0
0
0
0
0
0
0
0
0
0
0
0
0
0
0
0
0
0
0
0
0
0
0
0
0
0
0
0
0
0
0
0
0
0
0
0
0
0
0
0
0
0
0
0
0
0
0
0
0
0
0
0
0
0
0
0
0
0
0
0
0
0
0
0
0
0
0
0
0
0
0
0
0
0
0
0
0
0
0
0
0
0
0
0
0
0
0
0
0
0
0
0
0
0
0
0
0
0
0
0
0
0
0
0
0
0
0
0
0
0
0
0
0
0
0
0
0
0
0
0
0
0
0
0
0
0
0
0
0
0
0
0
0
0
0
0
0
0
0
0
0
0
0
0
0
0
0
0
0
0
0
0
0
0
0
0
0
0
0
0
0
0
0
0
0
0
0
0
0
0
0
0
0
0
0
0
0
0
0
0
0
0
0
0
0
0
0
0
0
0
0
0
0
0
0
0
0
0
0
0
0
0
0
0
0
0
0
0
0
0
0
0
0
0
0
0
0
0
0
0
0
0
0
0
0
0
0
0
0
0
0
0
0
0
0
0
0
0
0
0
0
0
0
0
0
0
0
0
0
0
0
0
0
0
0
0
0
0
0
0
0
0
0
0
0
0
0
0
0
0
0
0
0
0
0
0
0
0
0
0
0
0
0
0
0
0
0
0
0
0
0
0
0
0
0
0
0
0
0
0
0
0
0
0
0
0
0
0
0
0
0
0
0
0
0
0
0
0
0
0
0
0
0
0
0
0
0
0
0
0
0
0
0
0
0
0
0
0
0
0
0
0
0
0
0
0
0
0
0
0
0
0
0
0
0
0
0
0
0
0
0
0
0
0
0
0
0
0
0
0
0
0
0
0
0
0
0
0
0
0
0
0
0
0
0
0
0
0
0
0
0
0
0
0
0
0
0
0
0
0
0
0
0
0
0
0
0
0
0
0
0
0
0
0
0
0
0
0
0
0
0
0
0
0
0
0
0
0
0
0
0
0
0
0
0
0
0
0
0
0
0
0
0
0
0
0
0
0
0
0
0
0
0
0
0
0
0
0
0
0
0
0
0
0
0
0
0
0
0
0
0
0
0
0
0
0
0
0
0
0
0
0
0
0
0
0
0
0
0
0
0
0
0
0
0
0
0
0
0
0
0
0
0
0
0
0
0
0
0
0
0
0
0
0
0
0
0
0
0
0
0
0
0
0
0
0
0
0
0
0
0
0
0
0
0
0
0
0
0
0
0
0
0
0
0
0
0
0
0
0
0
0
0
0
0
0
0
0
0
0
0
0
0
0
0
0
0
0
0
0
0
0
0
0
0
0
0
0
0
0
0
0
0
0
0
0
0
0
0
0
0
0
0
0
0
0
0
0
0
0
0
0
0
0
0
0
0
0
0
0
0
0
0
0
0
0
0
0
0
0
0
0
0
0
0
0
0
0
0
0
0
0
0
0
0
0
0
0
0
0
0
0
0
0
0
0
0
0
0
0
0
0
0
0
0
0
0
0
0
0
0
0
0
0
0
0
0
0
0
0
0
0
0
0
0
0
0
0
0
0
0
0
0
0
0
0
0
0
0
0
0
0
0
0
0
0
0
0
0
0
0
0
0
0
0
0
0
0
0
0
0
0
0
0
0
0
0
0
0
0
0
0
0
0
0
0
0
0
0
0
0
0
0
0
0
0
0
0
0
0
0
0
0
0
0
0
0
0
0
0
0
0
0
0
0
0
0
0
0
0
0
0
0
0
0
0
0
0
0
0
0
0
0
0
0
0
0
0
0
0
0
0
0
0
0
0
0
0
0
0
0
0
0
0
0
0
0
0
0
0
0
0
0
0
0
0
0
0
0
0
0
0
0
0
0
0
0
0
0
0
0
0
0
0
0
0
0
0
0
0
0
0
0
0
0
0
0
0
0
0
0
0
0
0
0
0
0
0
0
0
0
0
0
0
0
0
0
0
0
0
0
0
0
0
0
0
0
0
0
0
0
0
0
0
0
0
0
0
0
0
0
0
0
0
0
0
0
0
0
0
0
0
0
0
0
0
0
0
0
0
0
0
0
0
0
0
0
0
0
0
0
0
0
0
0
0
0
0
0
0
0
0
0
0
0
0
0
0
0
0
0
0
0
0
0
0
0
0
0
0
0
0
0
0
0
0
0
0
0
0
0
0
0
0
0
0
0
0
0
0
0
0
0
0
0
0
0
0
0
0
0
0
0
0
0
0
0
0
0
0
0
0
0
0
0
0
0
0
0
0
0
0
0
0
0
0
0
0
0
0
0
0
0
0
0
0
0
0
0
0
0
0
0
0
0
0
0
0
0
0
0
0
0
0
0
0
0
0
0
0
0
0
0
0
0
0
0
0
0
0
0
0
0
0
0
0
0
0
0
0
0
0
0
0
0
0
0
0
0
0
0
0
0
0
0
0
0
0
0
0
0
0
0
0
0
0
0
0
0
0
0
0
0
0
0
0
0
0
0
0
0
0
0
0
0
0
0
0
0
0
0
0
0
0
0
0
0
0
0
0
0
0
0
0
0
0
0
0
0
0
0
0
0
0
0
0
0
0
0
0
0
0
0
0
0
0
0
0
0
0
0
0
0
0
0
0
0
0
0
0
0
0
0
0
0
0
0
0
0
0
0
0
0
0
0
0
0
0
0
0
0
0
0
0
0
0
0
0
0
0
0
0
0
0
0
0
0
0
0
0
0
0
0
0
0
0
0
0
0
0
0
0
0
0
0
0
0
0
0
0
0
0
0
0
0
0
0
0
0
0
0
0
0
0
0
0
0
0
0
0
0
0
0
0
0
0
0
0
0
0
0
0
0
0
0
0
0
0
0
0
0
0
0
0
0
0
0
0
0
0
0
0
0
0
0
0
0
0
0
0
0
0
0
0
0
0
0
0
0
0
0
0
0
0
0
0
0
0
0
0
0
0
0
0
0
0
0
0
0
0
0
0
0
0
0
0
0
0
0
0
0
0
0
0
0
0
0
0
0
0
0
0
0
0
0
0
0
0
0
0
0
0
0
0
0
0
0
0
0
0
0
0
0
0
0
0
0
0
0
0
0
0
0
0
0
0
0
0
0
0
0
0
0
0
0
0
0
0
0
0
0
0
0
0
0
0
0
0
0
0
0
0
0
0
0
0
0
0
0
0
0
0
0
0
0
0
0
0
0
0
0
0
0
0
0
0
0
0
0
0
0
0
0
0
0
0
0
0
0
0
0
0
0
0
0
0
0
0
0
0
0
0
0
0
0
0
0
0
0
0
0
0
0
0
0
0
0
0
0
0
0
0
0
0
0
0
0
0
0
0
0
0
0
0
0
0
0
0
0
0
0
0
0
0
0
0
0
0
0
0
0
0
0
0
0
0
0
0
0
0
0
0
0
0
0
0
0
0
0
0
0
0
0
0
0
0
0
0
0
0
0
0
0
0
0
0
0
0
0
0
0
0
0
0
0
0
0
0
0
0
0
0
0
0
0
0
0
0
0
0
0
0
0
0
0
0
0
0
0
0
0
0
0
0
0
0
0
0
0
0
0
0
0
0
0
0
0
0
0
0
0
0
0
0
0
0
0
0
0
0
0
0
0
0
0
0
0
0
0
0
0
0
0
0
0
0
0
0
0
0
0
0
0
0
0
0
0
0
0
0
0
0
0
0
0
0
0
0
0
0
0
0
0
0
0
0
0
0
0
0
0
0
0
0
0
0
0
0
0
0
0
0
0
0
0
0
0
0
0
0
0
0
0
0
0
0
0
0
0
0
0
0
0
0
0
0
0
0
0
0
0
0
0
0
0
0
0
0
0
0
0
0
0
0
0
0
0
0
0
0
0
0
0
0
0
0
0
0
0
0
0
0
0
0
0
0
0
0
0
0
0
0
0
0
0
0
0
0
0
0
0
0
0
0
0
0
0
0
0
0
0
0
0
0
0
0
0
0
0
0
0
0
0
0
0
0
0
0
0
0
0
0
0
0
0
0
0
0
0
0
0
0
0
0
0
0
0
0
0
0
0
0
0
0
0
0
0
0
0
0
0
0
0
0
0
0
0
0
0
0
0
0
0
0
0
0
0
0
0
0
0
0
0
0
0
0
0
0
0
0
0
0
0
0
0
0
0
0
0
0
0
0
0
0
0
0
0
0
0
0
0
0
0
0
0
0
0
0
0
0
0
0
0
0
0
0
0
0
0
0
0
0
0
0
0
0
0
0
0
0
0
0
0
0
0
0
0
0
0
0
0
0
0
0
0
0
0
0
0
0
0
0
0
0
0
0
0
0
0
0
0
0
0
0
0
0
0
0
0
0
0
0
0
0
0
0
0
0
0
0
0
0
0
0
0
0
0
0
0
0
0
0
0
0
0
0
0
0
0
0
0
0
0
0
0
0
0
0
0
0
0
0
0
0
0
0
0
0
0
0
0
0
0
0
0
0
0
0
0
0
0
0
0
0
0
0
0
0
0
0
0
0
0
0
0
0
0
0
0
0
0
0
0
0
0
0
0
0
0
0
0
0
0
0
0
0
0
0
0
0
0
0
0
0
0
0
0
0
0
0
0
0
0
0
0
0
0
0
0
0
0
0
0
0
0
0
0
0
0
0
0
0
0
0
0
0
0
0
0
0
0
0
0
0
0
0
0
0
0
0
0
0
0
0
0
0
0
0
0
0
0
0
0
0
0
0
0
0
0
0
0
0
0
0
0
0
0
0
0
0
0
0
0
0
0
0
0
0
0
0
0
0
0
0
0
0
0
0
0
0
0
0
0
0
0
0
0
0
0
0
0
0
0
0
0
0
0
0
0
0
0
0
0
0
0
0
0
0
0
0
0
0
0
0
0
0
0
0
0
0
0
0
0
0
0
0
0
0
0
0
0
0
0
0
0
0
0
0
0
0
0
0
0
0
0
0
0
0
0
0
0
0
0
0
0
0
0
0
0
0
0
0
0
0
0
0
0
0
0
0
0
0
0
0
0
0
0
0
0
0
0
0
0
0
0
0
0
0
0
0
0
0
0
0
0
0
0
0
0
0
0
0
0
0
0
0
0
0
0
0
0
0
0
0
0
0
0
0
0
0
0
0
0
0
0
0
0
0
0
0
0
0
0
0
0
0
0
0
0
0
0
0
0
0
0
0
0
0
0
0
0
0
0
0
0
0
0
0
0
0
0
0
0
0
0
0
0
0
0
0
0
0
0
0
0
0
0
0
0
0
0
0
0
0
0
0
0
0
0
0
0
0
0
0
0
0
0
0
0
0
0
0
0
0
0
0
0
0
0
0
0
0
0
0
0
0
0
0
0
0
0
0
0
0
0
0
0
0
0
0
0
0
0
0
0
0
0
0
0
0
0
0
0
0
0
0
0
0
0
0
0
0
0
0
0
0
0
0
0
0
0
0
0
0
0
0
0
0
0
0
0
0
0
0
0
0
0
0
0
0
0
0
0
0
0
0
0
0
0
0
0
0
0
0
0
0
0
0
0
0
0
0
0
0
0
0
0
0
0
0
0
0
0
0
0
0
0
0
0
0
0
0
0
0
0
0
0
0
0
0
0
0
0
0
0
0
0
0
0
0
0
0
0
0
0
0
0
0
0
0
0
0
0
0
0
0
0
0
0
0
0
0
0
0
0
0
0
0
0
0
0
0
0
0
0
0
0
0
0
0
0
0
0
0
0
0
0
0
0
0
0
0
0
0
0
0
0
0
0
0
0
0
0
0
0
0
0
0
0
0
0
0
0
0
0
0
0
0
0
0
0
0
0
0
0
0
0
0
0
0
0
0
0
0
0
0
0
0
0
0
0
0
0
0
0
0
0
0
0
0
0
0
0
0
0
0
0
0
0
0
0
0
0
0
0
0
0
0
0
0
0
0
0
0
0
0
0
0
0
0
0
0
0
0
0
0
0
0
0
0
0
0
0
0
0
0
0
0
0
0
0
0
0
0
0
0
0
0
0
0
0
0
0
0
0
0
0
0
0
0
0
0
0
0
0
0
0
0
0
0
0
0
0
0
0
0
0
0
0
0
0
0
0
0
0
0
0
0
0
0
0
0
0
0
0
0
0
0
0
0
0
0
0
0
0
0
0
0
0
0
0
0
0
0
0
0
0
0
0
0
0
0
0
0
0
0
0
0
0
0
0
0
0
0
0
0
0
0
0
0
0
0
0
0
0
0
0
0
0
0
0
0
0
0
0
0
0
0
0
0
0
0
0
0
0
0
0
0
0
0
0
0
0
0
0
0
0
0
0
0
0
0
0
0
0
0
0
0
0
0
0
0
0
0
0
0
0
0
0
0
0
0
0
0
0
0
0
0
0
0
0
0
0
0
0
0
0
0
0
0
0
0
0
0
0
0
0
0
0
0
0
0
0
0
0
0
0
0
0
0
0
0
0
0
0
0
0
0
0
0
0
0
0
0
0
0
0
0
0
0
0
0
0
0
0
0
0
0
0
0
0
0
0
0
0
0
0
0
0
0
0
0
0
0
0
0
0
0
0
0
0
0
0
0
0
0
0
0
0
0
0
0
0
0
0
0
0
0
0
0
0
0
0
0
0
0
0
0
0
0
0
0
0
0
0
0
0
0
0
0
0
0
0
0
0
0
0
0
0
0
0
0
0
0
0
0
0
0
0
0
0
0
0
0
0
0
0
0
0
0
0
0
0
0
0
0
0
0
0
0
0
0
0
0
0
0
0
0
0
0
0
0
0
0
0
0
0
0
0
0
0
0
0
0
0
0
0
0
0
0
0
0
0
0
0
0
0
0
0
0
0
0
0
0
0
0
0
0
0
0
0
0
0
0
0
0
0
0
0
0
0
0
0
0
0
0
0
0
0
0
0
0
0
0
0
0
0
0
0
0
0
0
0
0
0
0
0
0
0
0
0
0
0
0
0
0
0
0
0
0
0
0
0
0
0
0
0
0
0
0
0
0
0
0
0
0
0
0
0
0
0
0
0
0
0
0
0
0
0
0
0
0
0
0
0
0
0
0
0
0
0
0
0
0
0
0
0
0
0
0
0
0
0
0
0
0
0
0
0
0
0
0
0
0
0
0
0
0
0
0
0
0
0
0
0
0
0
0
0
0
0
0
0
0
0
0
0
0
0
0
0
0
0
0
0
0
0
0
0
0
0
0
0
0
0
0
0
0
0
0
0
0
0
0
0
0
0
0
0
0
0
0
0
0
0
0
0
0
0
0
0
0
0
0
0
0
0
0
0
0
0
0
0
0
0
0
0
0
0
0
0
0
0
0
0
0
0
0
0
0
0
0
0
0
0
0
0
0
0
0
0
0
0
0
0
0
0
0
0
0
0
0
0
0
0
0
0
0
0
0
0
0
0
0
0
0
0
0
0
0
0
0
0
0
0
0
0
0
0
0
0
0
0
0
0
0
0
0
0
0
0
0
0
0
0
0
0
0
0
0
0
0
0
0
0
0
0
0
0
0
0
0
0
0
0
0
0
0
0
0
0
0
0
0
0
0
0
0
0
0
0
0
0
0
0
0
0
0
0
0
0
0
0
0
0
0
0
0
0
0
0
0
0
0
0
0
0
0
0
0
0
0
0
0
0
0
0
0
0
0
0
0
0
0
0
0
0
0
0
0
0
0
0
0
0
0
0
0
0
0
0
0
0
0
0
0
0
0
0
0
0
0
0
0
0
0
0
0
0
0
0
0
0
0
0
0
0
0
0
0
0
0
0
0
0
0
0
0
0
0
0
0
0
0
0
0
0
0
0
0
0
0
0
0
0
0
0
0
0
0
0
0
0
0
0
0
0
0
0
0
0
0
0
0
0
0
0
0
0
0
0
0
0
0
0
0
0
0
0
0
0
0
0
0
0
0
0
0
0
0
0
0
0
0
0
0
0
0
0
0
0
0
0
0
0
0
0
0
0
0
0
0
0
0
0
0
0
0
0
0
0
0
0
0
0
0
0
0
0
0
0
0
0
0
0
0
0
0
0
0
0
0
0
0
0
0
0
0
0
0
0
0
0
0
0
0
0
0
0
0
0
0
0
0
0
0
0
0
0
0
0
0
0
0
0
0
0
0
0
0
0
0
0
0
0
0
0
0
0
0
0
0
0
0
0
0
0
0
0
0
0
0
0
0
0
0
0
0
0
0
0
0
0
0
0
0
0
0
0
0
0
0
0
0
0
0
0
0
0
0
0
0
0
0
0
0
0
0
0
0
0
0
0
0
0
0
0
0
0
0
0
0
0
0
0
0
0
0
0
0
0
0
0
0
0
0
0
0
0
0
0
0
0
0
0
0
0
0
0
0
0
0
0
0
0
0
0
0
0
0
0
0
0
0
0
0
0
0
0
0
0
0
0
0
0
0
0
0
0
0
0
0
0
0
0
0
0
0
0
0
0
0
0
0
0
0
0
0
0
0
0
0
0
0
0
0
0
0
0
0
0
0
0
0
0
0
0
0
0
0
0
0
0
0
0
0
0
0
0
0
0
0
0
0
0
0
0
0
0
0
0
0
0
0
0
0
0
0
0
0
0
0
0
0
0
0
0
0
0
0
0
0
0
0
0
0
0
0
0
0
0
0
0
0
0
0
0
0
0
0
0
0
0
0
0
0
0
0
0
0
0
0
0
0
0
0
0
0
0
0
0
0
0
0
0
0
0
0
0
0
0
0
0
0
0
0
0
0
0
0
0
0
0
0
0
0
0
0
0
0
0
0
0
0
0
0
0
0
0
0
0
0
0
0
0
0
0
0
0
0
0
0
0
0
0
0
0
0
0
0
0
0
0
0
0
0
0
0
0
0
0
0
0
0
0
0
0
0
0
0
0
0
0
0
0
0
0
0
0
0
0
0
0
0
0
0
0
0
0
0
0
0
0
0
0
0
0
0
0
0
0
0
0
0
0
0
0
0
0
0
0
0
0
0
0
0
0
0
0
0
0
0
0
0
0
0
0
0
0
0
0
0
0
0
0
0
0
0
0
0
0
0
0
0
0
0
0
0
0
0
0
0
0
0
0
0
0
0
0
0
0
0
0
0
0
0
0
0
0
0
0
0
0
0
0
0
0
0
0
0
0
0
0
0
0
0
0
0
0
0
0
0
0
0
0
0
0
0
0
0
0
0
0
0
0
0
0
0
0
0
0
0
0
0
0
0
0
0
0
0
0
0
0
0
0
0
0
0
0
0
0
0
0
0
0
0
0
0
0
0
0
0
0
0
0
0
0
0
0
0
0
0
0
0
0
0
0
0
0
0
0
0
0
0
0
0
0
0
0
0
0
0
0
0
0
0
0
0
0
0
0
0
0
0
0
0
0
0
0
0
0
0
0
0
0
0
0
0
0
0
0
0
0
0
0
0
0
0
0
0
0
0
0
0
0
0
0
0
0
0
0
0
0
0
0
0
0
0
0
0
0
0
0
0
0
0
0
0
0
0
0
0
0
0
0
0
0
0
0
0
0
0
0
0
0
0
0
0
0
0
0
0
0
0
0
0
0
0
0
0
0
0
0
0
0
0
0
0
0
0
0
0
0
0
0
0
0
0
0
0
0
0
0
0
0
0
0
0
0
0
0
0
0
0
0
0
0
0
0
0
0
0
0
0
0
0
0
0
0
0
0
0
0
0
0
0
0
0
0
0
0
0
0
0
0
0
0
0
0
0
0
0
0
0
0
0
0
0
0
0
0
0
0
0
0
0
0
0
0
0
0
0
0
0
0
0
0
0
0
0
0
0
0
0
0
0
0
0
0
0
0
0
0
0
0
0
0
0
0
0
0
0
0
0
0
0
0
0
0
0
0
0
0
0
0
0
0
0
0
0
0
0
0
0
0
0
0
0
0
0
0
0
0
0
0
0
0
0
0
0
0
0
0
0
0
0
0
0
0
0
0
0
0
0
0
0
0
0
0
0
0
0
0
0
0
0
0
0
0
0
0
0
0
0
0
0
0
0
0
0
0
0
0
0
0
0
0
0
0
0
0
0
0
0
0
0
0
0
0
0
0
0
0
0
0
0
0
0
0
0
0
0
0
0
0
0
0
0
0
0
0
0
0
0
0
0
0
0
0
0
0
0
0
0
0
0
0
0
0
0
0
0
0
0
0
0
0
0
0
0
0
0
0
0
0
0
0
0
0
0
0
0
0
0
0
0
0
0
0
0
0
0
0
0
0
0
0
0
0
0
0
0
0
0
0
0
0
0
0
0
0
0
0
0
0
0
0
0
0
0
0
0
0
0
0
0
0
0
0
0
0
0
0
0
0
0
0
0
0
0
0
0
0
0
0
0
0
0
0
0
0
0
0
0
0
0
0
0
0
0
0
0
0
0
0
0
0
0
0
0
0
0
0
0
0
0
0
0
0
0
0
0
0
0
0
0
0
0
0
0
0
0
0
0
0
0
0
0
0
0
0
0
0
0
0
0
0
0
0
0
0
0
0
0
0
0
0
0
0
0
0
0
0
0
0
0
0
0
0
0
0
0
0
0
0
0
0
0
0
0
0
0
0
0
0
0
0
0
0
0
0
0
0
0
0
0
0
0
0
0
0
0
0
0
0
0
0
0
0
0
0
0
0
0
0
0
0
0
0
0
0
0
0
0
0
0
0
0
0
0
0
0
0
0
0
0
0
0
0
0
0
0
0
0
0
0
0
0
0
0
0
0
0
0
0
0
0
0
0
0
0
0
0
0
0
0
0
0
0
0
0
0
0
0
0
0
0
0
0
0
0
0
0
0
0
0
0
0
0
0
0
0
0
0
0
0
0
0
0
0
0
0
0
0
0
0
0
0
0
0
0
0
0
0
0
0
0
0
0
0
0
0
0
0
0
0
0
0
0
0
0
0
0
0
0
0
0
0
0
0
0
0
0
0
0
0
0
0
0
0
0
0
0
0
0
0
0
0
0
0
0
0
0
0
0
0
0
0
0
0
0
0
0
0
0
0
0
0
0
0
0
0
0
0
0
0
0
0
0
0
0
0
0
0
0
0
0
0
0
0
0
0
0
0
0
0
0
0
0
0
0
0
0
0
0
0
0
0
0
0
0
0
0
0
0
0
0
0
0
0
0
0
0
0
0
0
0
0
0
0
0
0
0
0
0
0
0
0
0
0
0
0
0
0
0
0
0
0
0
0
0
0
0
0
0
0
0
0
0
0
0
0
0
0
0
0
0
0
0
0
0
0
0
0
0
0
0
0
0
0
0
0
0
0
0
0
0
0
0
0
0
0
0
0
0
0
0
0
0
0
0
0
0
0
0
0
0
0
0
0
0
0
0
0
0
0
0
0
0
0
0
0
0
0
0
0
0
0
0
0
0
0
0
0
0
0
0
0
0
0
0
0
0
0
0
0
0
0
0
0
0
0
0
0
0
0
0
0
0
0
0
0
0
0
0
0
0
0
0
0
0
0
0
0
0
0
0
0
0
0
0
0
0
0
0
0
0
0
0
0
0
0
0
0
0
0
0
0
0
0
0
0
0
0
0
0
0
0
0
0
0
0
0
0
0
0
0
0
0
0
0
0
0
0
0
0
0
0
0
0
0
0
0
0
0
0
0
0
0
0
0
0
0
0
0
0
0
0
0
0
0
0
0
0
0
0
0
0
0
0
0
0
0
0
0
0
0
0
0
0
0
0
0
0
0
0
0
0
0
0
0
0
0
0
0
0
0
0
0
0
0
0
0
0
0
0
0
0
0
0
0
0
0
0
0
0
0
0
0
0
0
0
0
0
0
0
0
0
0
0
0
0
0
0
0
0
0
0
0
0
0
0
0
0
0
0
0
